%
(CHAMFER)
(T3  D=0.25 CR=0. - ZMIN=-0.23 - FLAT END MILL)
G90 G94 G17 G91.1
G20
G53 G0 Z0.
(2D ADAPTIVE3)
M9
T3 M6
S1970 M3
G54
M8
G0 X1.2568 Y-1.1451
G43 Z0.5 H3
G0 Z0.1401
G1 Z0.12 F10.
G3 X1.3682 Y-1.3548 Z0.107 I0.0557 J-0.1049 F3.333
X1.2568 Y-1.1451 Z0.0939 I-0.0557 J0.1049
X1.3682 Y-1.3548 Z0.0809 I0.0557 J-0.1049
X1.2568 Y-1.1451 Z0.0679 I-0.0557 J0.1049
X1.3682 Y-1.3548 Z0.0549 I0.0557 J-0.1049
X1.2568 Y-1.1451 Z0.0418 I-0.0557 J0.1049
X1.3682 Y-1.3548 Z0.0288 I0.0557 J-0.1049
X1.2568 Y-1.1451 Z0.0158 I-0.0557 J0.1049
X1.3682 Y-1.3548 Z0.0028 I0.0557 J-0.1049
X1.2568 Y-1.1451 Z-0.0103 I-0.0557 J0.1049
X1.3682 Y-1.3548 Z-0.0233 I0.0557 J-0.1049
X1.2568 Y-1.1451 Z-0.0363 I-0.0557 J0.1049
X1.3682 Y-1.3548 Z-0.0494 I0.0557 J-0.1049
X1.2568 Y-1.1451 Z-0.0624 I-0.0557 J0.1049
X1.3682 Y-1.3548 Z-0.0754 I0.0557 J-0.1049
X1.4313 Y-1.25 Z-0.0799 I-0.0557 J0.1049
X1.1938 I-0.1188 J0.
X1.4313 I0.1188 J0.
G1 X1.4319 Y-1.213 F10.
X1.4327 Y-1.2084
X1.4331 Y-1.203
X1.433 Y-1.1976
X1.4324 Y-1.1923
X1.43 Y-1.1817
X1.4262 Y-1.1716
X1.4212 Y-1.162
X1.4153 Y-1.153
X1.4084 Y-1.1445
X1.4003 Y-1.1364
X1.3911 Y-1.1288
X1.3809 Y-1.1218
X1.3697 Y-1.1158
X1.3577 Y-1.1107
X1.3451 Y-1.1067
X1.3319 Y-1.104
X1.3183 Y-1.1025
X1.3045 Y-1.1024
X1.2906 Y-1.1036
X1.2768 Y-1.1061
X1.2633 Y-1.11
X1.2501 Y-1.1153
X1.2374 Y-1.1218
X1.2254 Y-1.1296
X1.2142 Y-1.1385
X1.2038 Y-1.1484
X1.1945 Y-1.1594
X1.1863 Y-1.1712
X1.1792 Y-1.1838
X1.1734 Y-1.197
X1.1689 Y-1.2108
X1.1658 Y-1.2249
X1.164 Y-1.2392
X1.1637 Y-1.2537
X1.1647 Y-1.2681
X1.1672 Y-1.2824
X1.171 Y-1.2964
X1.1762 Y-1.3099
X1.1827 Y-1.3229
X1.1904 Y-1.3351
X1.1992 Y-1.3466
X1.2091 Y-1.3572
X1.22 Y-1.3667
X1.2318 Y-1.3751
X1.2444 Y-1.3824
X1.2576 Y-1.3884
X1.2713 Y-1.3931
X1.2854 Y-1.3964
X1.2998 Y-1.3983
X1.3142 Y-1.3989
X1.3287 Y-1.398
X1.343 Y-1.3957
X1.357 Y-1.3921
X1.3707 Y-1.3871
X1.3837 Y-1.3808
X1.3961 Y-1.3732
X1.4077 Y-1.3645
X1.4184 Y-1.3547
X1.428 Y-1.3439
X1.4366 Y-1.3323
X1.444 Y-1.3198
X1.4506 Y-1.3058
X1.4542 Y-1.2964
X1.4592 Y-1.2812
X1.4626 Y-1.2691
X1.4649 Y-1.2587
X1.4665 Y-1.2492
X1.4676 Y-1.2405
X1.4684 Y-1.2242
X1.4677 Y-1.209
X1.4656 Y-1.1946
X1.4622 Y-1.1806
X1.4574 Y-1.1671
X1.4513 Y-1.1541
X1.444 Y-1.1416
X1.4353 Y-1.1298
X1.4254 Y-1.1187
X1.4142 Y-1.1084
X1.402 Y-1.0991
X1.3886 Y-1.0909
X1.3743 Y-1.084
X1.3592 Y-1.0784
X1.3435 Y-1.0743
X1.3354 Y-1.0727
X1.3272 Y-1.0716
X1.319 Y-1.0709
X1.3106 Y-1.0706
X1.3022 Y-1.0707
X1.2939 Y-1.0711
X1.2855 Y-1.0721
X1.2771 Y-1.0734
X1.2688 Y-1.0751
X1.2605 Y-1.0772
X1.2523 Y-1.0798
X1.2443 Y-1.0827
X1.2364 Y-1.0861
X1.2286 Y-1.0898
X1.221 Y-1.0939
X1.2136 Y-1.0984
X1.2064 Y-1.1033
X1.1995 Y-1.1085
X1.1928 Y-1.114
X1.1863 Y-1.1199
X1.1802 Y-1.1261
X1.1743 Y-1.1326
X1.1688 Y-1.1393
X1.1636 Y-1.1464
X1.1587 Y-1.1537
X1.1542 Y-1.1612
X1.1501 Y-1.169
X1.1464 Y-1.1769
X1.143 Y-1.185
X1.14 Y-1.1933
X1.1375 Y-1.2017
X1.1353 Y-1.2103
X1.1336 Y-1.2189
X1.1323 Y-1.2276
X1.1314 Y-1.2364
X1.1309 Y-1.2452
Y-1.254
X1.1313 Y-1.2628
X1.1321 Y-1.2716
X1.1334 Y-1.2803
X1.1351 Y-1.289
X1.1372 Y-1.2976
X1.1397 Y-1.3061
X1.1426 Y-1.3144
X1.146 Y-1.3226
X1.1497 Y-1.3306
X1.1538 Y-1.3384
X1.1583 Y-1.346
X1.1631 Y-1.3534
X1.1683 Y-1.3606
X1.1739 Y-1.3674
X1.1798 Y-1.374
X1.1859 Y-1.3804
X1.1924 Y-1.3864
X1.1992 Y-1.392
X1.2063 Y-1.3974
X1.2136 Y-1.4024
X1.2211 Y-1.407
X1.2288 Y-1.4113
X1.2368 Y-1.4152
X1.2449 Y-1.4186
X1.2532 Y-1.4217
X1.2616 Y-1.4244
X1.2702 Y-1.4267
X1.2788 Y-1.4285
X1.2876 Y-1.43
X1.2963 Y-1.431
X1.3052 Y-1.4315
X1.314 Y-1.4317
X1.3229 Y-1.4314
X1.3317 Y-1.4307
X1.3404 Y-1.4295
X1.3491 Y-1.428
X1.3578 Y-1.426
X1.3663 Y-1.4236
X1.3747 Y-1.4207
X1.3829 Y-1.4175
X1.391 Y-1.4139
X1.3989 Y-1.4099
X1.4065 Y-1.4055
X1.414 Y-1.4007
X1.4212 Y-1.3956
X1.4282 Y-1.3902
X1.4349 Y-1.3844
X1.4412 Y-1.3783
X1.4474 Y-1.3717
X1.4535 Y-1.3647
X1.4598 Y-1.3566
X1.4658 Y-1.3481
X1.4717 Y-1.3388
X1.4772 Y-1.3291
X1.4822 Y-1.3192
X1.4867 Y-1.309
X1.4907 Y-1.2988
X1.494 Y-1.2886
X1.4969 Y-1.2785
X1.4992 Y-1.2685
X1.5009 Y-1.2585
X1.5022 Y-1.2487
X1.5029 Y-1.239
X1.5032 Y-1.2294
X1.503 Y-1.2198
X1.5024 Y-1.2104
X1.5013 Y-1.2011
X1.4998 Y-1.1919
X1.4978 Y-1.1829
X1.4954 Y-1.174
X1.4926 Y-1.1653
X1.4894 Y-1.1567
X1.4857 Y-1.1483
X1.4817 Y-1.1401
X1.4772 Y-1.1321
X1.4724 Y-1.1243
X1.4672 Y-1.1167
X1.4616 Y-1.1094
X1.4556 Y-1.1023
X1.4493 Y-1.0955
X1.4426 Y-1.089
X1.4355 Y-1.0828
X1.4282 Y-1.0769
X1.4205 Y-1.0713
X1.4126 Y-1.0662
X1.4043 Y-1.0613
X1.3958 Y-1.0569
X1.387 Y-1.0529
X1.3781 Y-1.0492
X1.3689 Y-1.0461
X1.3595 Y-1.0433
X1.35 Y-1.041
X1.3403 Y-1.0392
X1.3305 Y-1.0378
X1.3206 Y-1.0369
X1.3106 Y-1.0365
X1.3006
X1.2906 Y-1.0371
X1.2806 Y-1.0381
X1.2706 Y-1.0397
X1.2607 Y-1.0417
X1.2509 Y-1.0442
X1.2411 Y-1.0472
X1.2315 Y-1.0507
X1.2221 Y-1.0546
X1.2128 Y-1.059
X1.2038 Y-1.0639
X1.195 Y-1.0692
X1.1864 Y-1.0749
X1.1781 Y-1.0811
X1.1701 Y-1.0877
X1.1624 Y-1.0946
X1.1551 Y-1.102
X1.1481 Y-1.1097
X1.1415 Y-1.1177
X1.1353 Y-1.1261
X1.1295 Y-1.1348
X1.1241 Y-1.1437
X1.1191 Y-1.1529
X1.1146 Y-1.1624
X1.1106 Y-1.172
X1.107 Y-1.1819
X1.1039 Y-1.1919
X1.1013 Y-1.202
X1.0992 Y-1.2123
X1.0976 Y-1.2227
X1.0966 Y-1.2331
X1.096 Y-1.2436
X1.0959 Y-1.2541
X1.0964 Y-1.2647
X1.0973 Y-1.2751
X1.0988 Y-1.2855
X1.1007 Y-1.2959
X1.1032 Y-1.3061
X1.1062 Y-1.3162
X1.1096 Y-1.3262
X1.1136 Y-1.3359
X1.118 Y-1.3455
X1.1228 Y-1.3549
X1.1282 Y-1.364
X1.1339 Y-1.3728
X1.1401 Y-1.3813
X1.1467 Y-1.3896
X1.1537 Y-1.3975
X1.161 Y-1.405
X1.1687 Y-1.4122
X1.1768 Y-1.419
X1.1852 Y-1.4254
X1.1939 Y-1.4314
X1.2028 Y-1.437
X1.2121 Y-1.4421
X1.2215 Y-1.4467
X1.2312 Y-1.4509
X1.2411 Y-1.4546
X1.2511 Y-1.4579
X1.2613 Y-1.4606
X1.2716 Y-1.4629
X1.282 Y-1.4646
X1.2925 Y-1.4658
X1.303 Y-1.4665
X1.3136 Y-1.4668
X1.3241 Y-1.4664
X1.3346 Y-1.4656
X1.3451 Y-1.4643
X1.3555 Y-1.4625
X1.3658 Y-1.4601
X1.376 Y-1.4573
X1.386 Y-1.4539
X1.3958 Y-1.4501
X1.4054 Y-1.4458
X1.4149 Y-1.4411
X1.4241 Y-1.4359
X1.4331 Y-1.4302
X1.4419 Y-1.4239
X1.4506 Y-1.4172
X1.4591 Y-1.4098
X1.4675 Y-1.4019
X1.4755 Y-1.3935
X1.4833 Y-1.3845
X1.4907 Y-1.3751
X1.4977 Y-1.3652
X1.5042 Y-1.355
X1.5102 Y-1.3445
X1.5157 Y-1.3338
X1.5206 Y-1.3228
X1.5249 Y-1.3117
X1.5287 Y-1.3004
X1.5319 Y-1.2891
X1.5346 Y-1.2777
X1.5366 Y-1.2663
X1.5381 Y-1.2548
X1.5391 Y-1.2434
X1.5394 Y-1.232
X1.5393 Y-1.2207
X1.5385 Y-1.2095
X1.5373 Y-1.1983
X1.5355 Y-1.1873
X1.5331 Y-1.1765
X1.5303 Y-1.1657
X1.5269 Y-1.1552
X1.5231 Y-1.1448
X1.5187 Y-1.1347
X1.5138 Y-1.1247
X1.5085 Y-1.1151
X1.5027 Y-1.1056
X1.4965 Y-1.0965
X1.4898 Y-1.0877
X1.4826 Y-1.0792
X1.4751 Y-1.071
X1.4671 Y-1.0632
X1.4587 Y-1.0557
X1.45 Y-1.0487
X1.4409 Y-1.0421
X1.4315 Y-1.0358
X1.4217 Y-1.0301
X1.4116 Y-1.0248
X1.4013 Y-1.02
X1.3907 Y-1.0157
X1.3798 Y-1.0119
X1.3688 Y-1.0086
X1.3575 Y-1.0058
X1.3461 Y-1.0036
X1.3346 Y-1.002
X1.323 Y-1.0009
X1.3113 Y-1.0003
X1.2996 Y-1.0004
X1.2878 Y-1.001
X1.276 Y-1.0022
X1.2643 Y-1.0039
X1.2527 Y-1.0063
X1.2411 Y-1.0092
X1.2297 Y-1.0126
X1.2185 Y-1.0167
X1.2074 Y-1.0213
X1.1966 Y-1.0264
X1.1859 Y-1.032
X1.1756 Y-1.0382
X1.1656 Y-1.0449
X1.1558 Y-1.0521
X1.1465 Y-1.0597
X1.1374 Y-1.0679
X1.1288 Y-1.0764
X1.1206 Y-1.0854
X1.1129 Y-1.0948
X1.1056 Y-1.1045
X1.0987 Y-1.1146
X1.0924 Y-1.1251
X1.0866 Y-1.1358
X1.0813 Y-1.1468
X1.0765 Y-1.1581
X1.0723 Y-1.1696
X1.0687 Y-1.1813
X1.0656 Y-1.1932
X1.0631 Y-1.2052
X1.0612 Y-1.2173
X1.0599 Y-1.2295
X1.0592 Y-1.2418
X1.0591 Y-1.2541
X1.0595 Y-1.2664
X1.0606 Y-1.2786
X1.0623 Y-1.2908
X1.0645 Y-1.3029
X1.0674 Y-1.3149
X1.0708 Y-1.3267
X1.0748 Y-1.3384
X1.0794 Y-1.3498
X1.0845 Y-1.3611
X1.0902 Y-1.372
X1.0964 Y-1.3827
X1.103 Y-1.393
X1.1102 Y-1.403
X1.1179 Y-1.4127
X1.1261 Y-1.422
X1.1346 Y-1.4308
X1.1436 Y-1.4393
X1.153 Y-1.4473
X1.1628 Y-1.4548
X1.173 Y-1.4618
X1.1834 Y-1.4684
X1.1942 Y-1.4744
X1.2053 Y-1.4799
X1.2166 Y-1.4848
X1.2281 Y-1.4892
X1.2398 Y-1.493
X1.2518 Y-1.4963
X1.2638 Y-1.499
X1.276 Y-1.501
X1.2882 Y-1.5025
X1.3006 Y-1.5034
X1.3129 Y-1.5037
X1.3252 Y-1.5034
X1.3376 Y-1.5024
X1.3498 Y-1.5009
X1.362 Y-1.4988
X1.374 Y-1.4961
X1.386 Y-1.4928
X1.3977 Y-1.489
X1.4094 Y-1.4845
X1.4208 Y-1.4794
X1.4321 Y-1.4738
X1.4432 Y-1.4675
X1.4541 Y-1.4607
X1.4647 Y-1.4533
X1.4751 Y-1.4453
X1.4851 Y-1.4367
X1.4948 Y-1.4275
X1.5041 Y-1.4178
X1.513 Y-1.4077
X1.5214 Y-1.397
X1.5293 Y-1.3859
X1.5367 Y-1.3745
X1.5435 Y-1.3627
X1.5497 Y-1.3506
X1.5553 Y-1.3382
X1.5603 Y-1.3256
X1.5647 Y-1.3128
X1.5684 Y-1.2999
X1.5714 Y-1.2868
X1.5739 Y-1.2737
X1.5756 Y-1.2605
X1.5768 Y-1.2473
X1.5772 Y-1.2341
X1.5771 Y-1.2209
X1.5763 Y-1.2078
X1.5748 Y-1.1948
X1.5728 Y-1.1819
X1.5701 Y-1.1692
X1.5668 Y-1.1566
X1.5629 Y-1.1442
X1.5584 Y-1.1321
X1.5533 Y-1.1202
X1.5477 Y-1.1085
X1.5415 Y-1.0971
X1.5347 Y-1.0861
X1.5274 Y-1.0753
X1.5196 Y-1.065
X1.5113 Y-1.055
X1.5025 Y-1.0454
X1.4932 Y-1.0362
X1.4835 Y-1.0275
X1.4733 Y-1.0192
X1.4627 Y-1.0115
X1.4517 Y-1.0042
X1.4404 Y-0.9975
X1.4287 Y-0.9913
X1.4167 Y-0.9856
X1.4044 Y-0.9806
X1.3918 Y-0.9761
X1.379 Y-0.9723
X1.366 Y-0.969
X1.3528 Y-0.9664
X1.3395 Y-0.9645
X1.326 Y-0.9632
X1.3125 Y-0.9625
X1.2989
X1.2853 Y-0.9632
X1.2717 Y-0.9645
X1.2582 Y-0.9665
X1.2448 Y-0.9691
X1.2314 Y-0.9724
X1.2183 Y-0.9764
X1.2053 Y-0.981
X1.1925 Y-0.9862
X1.1799 Y-0.9921
X1.1677 Y-0.9986
X1.1557 Y-1.0057
X1.1441 Y-1.0133
X1.1329 Y-1.0216
X1.1221 Y-1.0304
X1.1117 Y-1.0397
X1.1017 Y-1.0495
X1.0922 Y-1.0598
X1.0833 Y-1.0706
X1.0748 Y-1.0818
X1.0669 Y-1.0934
X1.0596 Y-1.1054
X1.0528 Y-1.1177
X1.0467 Y-1.1304
X1.0412 Y-1.1433
X1.0363 Y-1.1566
X1.032 Y-1.17
X1.0285 Y-1.1837
X1.0255 Y-1.1975
X1.0233 Y-1.2115
X1.0217 Y-1.2255
X1.0209 Y-1.2396
X1.0207 Y-1.2538
X1.0212 Y-1.2679
X1.0224 Y-1.282
X1.0242 Y-1.2961
X1.0268 Y-1.31
X1.03 Y-1.3238
X1.0339 Y-1.3375
X1.0385 Y-1.3509
X1.0437 Y-1.3641
X1.0496 Y-1.377
X1.056 Y-1.3896
X1.0631 Y-1.402
X1.0708 Y-1.4139
X1.079 Y-1.4255
X1.0878 Y-1.4366
X1.0972 Y-1.4473
X1.107 Y-1.4576
X1.1173 Y-1.4673
X1.1281 Y-1.4765
X1.1394 Y-1.4852
X1.151 Y-1.4934
X1.163 Y-1.501
X1.1754 Y-1.5079
X1.1881 Y-1.5143
X1.2011 Y-1.52
X1.2144 Y-1.5251
X1.2279 Y-1.5296
X1.2416 Y-1.5334
X1.2555 Y-1.5365
X1.2695 Y-1.5389
X1.2836 Y-1.5407
X1.2978 Y-1.5417
X1.312 Y-1.5421
X1.3262 Y-1.5418
X1.3404 Y-1.5408
X1.3545 Y-1.5391
X1.3686 Y-1.5367
X1.3826 Y-1.5336
X1.3964 Y-1.5298
X1.4102 Y-1.5254
X1.4237 Y-1.5202
X1.4371 Y-1.5144
X1.4502 Y-1.5079
X1.4631 Y-1.5007
X1.4757 Y-1.4928
X1.4879 Y-1.4843
X1.4999 Y-1.4752
X1.5114 Y-1.4654
X1.5225 Y-1.455
X1.5331 Y-1.4441
X1.5431 Y-1.4326
X1.5527 Y-1.4206
X1.5616 Y-1.4081
X1.57 Y-1.3952
X1.5777 Y-1.382
X1.5848 Y-1.3683
X1.5911 Y-1.3544
X1.5968 Y-1.3401
X1.6018 Y-1.3257
X1.6061 Y-1.311
X1.6096 Y-1.2962
X1.6124 Y-1.2813
X1.6145 Y-1.2662
X1.6158 Y-1.2512
X1.6164 Y-1.2361
X1.6162 Y-1.221
X1.6154 Y-1.206
X1.6138 Y-1.1911
X1.6114 Y-1.1763
X1.6084 Y-1.1617
X1.6047 Y-1.1472
X1.6002 Y-1.1329
X1.5951 Y-1.1189
X1.5893 Y-1.1052
X1.5829 Y-1.0918
X1.5758 Y-1.0786
X1.5681 Y-1.0659
X1.5597 Y-1.0535
X1.5508 Y-1.0416
X1.5412 Y-1.03
X1.5311 Y-1.019
X1.5205 Y-1.0084
X1.5094 Y-0.9983
X1.4977 Y-0.9888
X1.4856 Y-0.9799
X1.473 Y-0.9715
X1.4601 Y-0.9637
X1.4467 Y-0.9566
X1.433 Y-0.9501
X1.4189 Y-0.9443
X1.4045 Y-0.9391
X1.3899 Y-0.9347
X1.3751 Y-0.9309
X1.36 Y-0.9279
X1.3448 Y-0.9256
X1.3295 Y-0.9241
X1.314 Y-0.9232
X1.2985
X1.283 Y-0.9239
X1.2675 Y-0.9253
X1.2521 Y-0.9276
X1.2368 Y-0.9305
X1.2216 Y-0.9342
X1.2066 Y-0.9387
X1.1918 Y-0.9439
X1.1772 Y-0.9498
X1.1629 Y-0.9564
X1.149 Y-0.9638
X1.1353 Y-0.9718
X1.1221 Y-0.9804
X1.1093 Y-0.9898
X1.097 Y-0.9997
X1.0851 Y-1.0103
X1.0738 Y-1.0214
X1.0629 Y-1.0331
X1.0527 Y-1.0453
X1.0431 Y-1.058
X1.034 Y-1.0711
X1.0257 Y-1.0847
X1.0179 Y-1.0987
X1.0109 Y-1.1131
X1.0046 Y-1.1278
X0.999 Y-1.1428
X0.9941 Y-1.1581
X0.99 Y-1.1736
X0.9866 Y-1.1893
X0.984 Y-1.2051
X0.9822 Y-1.2211
X0.9812 Y-1.2371
X0.9809 Y-1.2532
X0.9814 Y-1.2693
X0.9827 Y-1.2853
X0.9848 Y-1.3013
X0.9876 Y-1.3171
X0.9912 Y-1.3328
X0.9956 Y-1.3483
X1.0008 Y-1.3636
X1.0066 Y-1.3786
X1.0132 Y-1.3933
X1.0205 Y-1.4077
X1.0285 Y-1.4217
X1.0372 Y-1.4353
X1.0465 Y-1.4485
X1.0565 Y-1.4612
X1.0671 Y-1.4734
X1.0782 Y-1.4851
X1.0899 Y-1.4962
X1.1021 Y-1.5067
X1.1149 Y-1.5167
X1.1281 Y-1.526
X1.1417 Y-1.5346
X1.1557 Y-1.5426
X1.1702 Y-1.5499
X1.1849 Y-1.5564
X1.2 Y-1.5623
X1.2153 Y-1.5674
X1.2309 Y-1.5718
X1.2466 Y-1.5753
X1.2625 Y-1.5782
X1.2785 Y-1.5802
X1.2947 Y-1.5815
X1.3108 Y-1.582
X1.327 Y-1.5817
X1.3432 Y-1.5806
X1.3593 Y-1.5787
X1.3754 Y-1.576
X1.3914 Y-1.5725
X1.4072 Y-1.5683
X1.4229 Y-1.5632
X1.4383 Y-1.5574
X1.4535 Y-1.5508
X1.4685 Y-1.5435
X1.4831 Y-1.5354
X1.4974 Y-1.5265
X1.5113 Y-1.5169
X1.5248 Y-1.5066
X1.5378 Y-1.4957
X1.5503 Y-1.484
X1.5623 Y-1.4718
X1.5737 Y-1.4589
X1.5844 Y-1.4455
X1.5945 Y-1.4315
X1.604 Y-1.4171
X1.6127 Y-1.4022
X1.6206 Y-1.3869
X1.6278 Y-1.3713
X1.6343 Y-1.3553
X1.6399 Y-1.3391
X1.6448 Y-1.3226
X1.6488 Y-1.3059
X1.652 Y-1.2891
X1.6544 Y-1.2722
X1.656 Y-1.2552
X1.6567 Y-1.2381
X1.6566 Y-1.2211
X1.6557 Y-1.2041
X1.6539 Y-1.1873
X1.6514 Y-1.1705
X1.648 Y-1.1539
X1.6438 Y-1.1375
X1.6388 Y-1.1213
X1.6331 Y-1.1054
X1.6266 Y-1.0898
X1.6193 Y-1.0746
X1.6113 Y-1.0597
X1.6026 Y-1.0452
X1.5932 Y-1.0311
X1.5831 Y-1.0175
X1.5723 Y-1.0044
X1.5609 Y-0.9919
X1.5489 Y-0.9799
X1.5364 Y-0.9684
X1.5232 Y-0.9576
X1.5095 Y-0.9475
X1.4954 Y-0.9379
X1.4807 Y-0.9291
X1.4656 Y-0.921
X1.4501 Y-0.9136
X1.4343 Y-0.907
X1.4181 Y-0.9011
X1.4016 Y-0.896
X1.3848 Y-0.8917
X1.3679 Y-0.8882
X1.3507 Y-0.8856
X1.3334 Y-0.8838
X1.316 Y-0.8828
X1.2986 Y-0.8827
X1.2811 Y-0.8834
X1.2637 Y-0.885
X1.2463 Y-0.8874
X1.229 Y-0.8907
X1.2119 Y-0.8948
X1.195 Y-0.8998
X1.1783 Y-0.9056
X1.1619 Y-0.9122
X1.1458 Y-0.9196
X1.13 Y-0.9278
X1.1147 Y-0.9367
X1.0998 Y-0.9464
X1.0854 Y-0.9569
X1.0715 Y-0.968
X1.0581 Y-0.9798
X1.0453 Y-0.9923
X1.0331 Y-1.0054
X1.0215 Y-1.019
X1.0106 Y-1.0333
X1.0005 Y-1.048
X0.991 Y-1.0633
X0.9823 Y-1.079
X0.9743 Y-1.0951
X0.9672 Y-1.1116
X0.9608 Y-1.1284
X0.9553 Y-1.1456
X0.9506 Y-1.163
X0.9468 Y-1.1806
X0.9438 Y-1.1984
X0.9417 Y-1.2163
X0.9404 Y-1.2343
X0.9401 Y-1.2524
X0.9406 Y-1.2704
X0.942 Y-1.2884
X0.9442 Y-1.3064
X0.9474 Y-1.3242
X0.9514 Y-1.3418
X0.9563 Y-1.3593
X0.962 Y-1.3764
X0.9685 Y-1.3933
X0.9759 Y-1.4099
X0.984 Y-1.426
X0.9929 Y-1.4418
X1.0026 Y-1.4571
X1.013 Y-1.4719
X1.0242 Y-1.4862
X1.036 Y-1.5
X1.0485 Y-1.5131
X1.0616 Y-1.5257
X1.0753 Y-1.5375
X1.0895 Y-1.5487
X1.1043 Y-1.5592
X1.1196 Y-1.569
X1.1353 Y-1.578
X1.1515 Y-1.5862
X1.1681 Y-1.5937
X1.1849 Y-1.6003
X1.2021 Y-1.6061
X1.2196 Y-1.6111
X1.2373 Y-1.6152
X1.2551 Y-1.6184
X1.2732 Y-1.6208
X1.2913 Y-1.6222
X1.3095 Y-1.6228
X1.3277 Y-1.6226
X1.3459 Y-1.6214
X1.3641 Y-1.6193
X1.3822 Y-1.6164
X1.4002 Y-1.6125
X1.418 Y-1.6078
X1.4356 Y-1.6022
X1.453 Y-1.5957
X1.4701 Y-1.5884
X1.4869 Y-1.5802
X1.5034 Y-1.5711
X1.5194 Y-1.5613
X1.535 Y-1.5506
X1.5501 Y-1.5392
X1.5647 Y-1.527
X1.5786 Y-1.5141
X1.592 Y-1.5004
X1.6047 Y-1.4862
X1.6167 Y-1.4713
X1.628 Y-1.4558
X1.6386 Y-1.4398
X1.6483 Y-1.4232
X1.6573 Y-1.4063
X1.6653 Y-1.3889
X1.6726 Y-1.3711
X1.6789 Y-1.353
X1.6844 Y-1.3347
X1.689 Y-1.3161
X1.6926 Y-1.2973
X1.6953 Y-1.2784
X1.6971 Y-1.2594
X1.698 Y-1.2404
Y-1.2214
X1.697 Y-1.2024
X1.6951 Y-1.1835
X1.6923 Y-1.1647
X1.6886 Y-1.1461
X1.6839 Y-1.1277
X1.6784 Y-1.1096
X1.6721 Y-1.0918
X1.6648 Y-1.0743
X1.6567 Y-1.0572
X1.6478 Y-1.0404
X1.6381 Y-1.0242
X1.6276 Y-1.0084
X1.6164 Y-0.9931
X1.6044 Y-0.9784
X1.5917 Y-0.9643
X1.5783 Y-0.9508
X1.5642 Y-0.938
X1.5496 Y-0.9258
X1.5343 Y-0.9144
X1.5185 Y-0.9037
X1.5021 Y-0.8937
X1.4853 Y-0.8846
X1.468 Y-0.8763
X1.4503 Y-0.8688
X1.4322 Y-0.8622
X1.4138 Y-0.8564
X1.3951 Y-0.8516
X1.3762 Y-0.8476
X1.357 Y-0.8446
X1.3377 Y-0.8425
X1.3183 Y-0.8414
X1.2989 Y-0.8412
X1.2794 Y-0.8419
X1.2599 Y-0.8436
X1.2405 Y-0.8463
X1.2213 Y-0.8499
X1.2022 Y-0.8544
X1.1833 Y-0.8599
X1.1647 Y-0.8663
X1.1464 Y-0.8735
X1.1284 Y-0.8817
X1.1109 Y-0.8908
X1.0938 Y-0.9007
X1.0771 Y-0.9115
X1.061 Y-0.923
X1.0455 Y-0.9354
X1.0306 Y-0.9484
X1.0163 Y-0.9623
X1.0027 Y-0.9768
X0.9897 Y-0.992
X0.9776 Y-1.0078
X0.9662 Y-1.0241
X0.9556 Y-1.0411
X0.9458 Y-1.0585
X0.9369 Y-1.0764
X0.9289 Y-1.0947
X0.9218 Y-1.1135
X0.9156 Y-1.1325
X0.9103 Y-1.1518
X0.9059 Y-1.1714
X0.9026 Y-1.1912
X0.9001 Y-1.2111
X0.8987 Y-1.2312
X0.8982 Y-1.2512
X0.8987 Y-1.2713
X0.9002 Y-1.2914
X0.9027 Y-1.3113
X0.9061 Y-1.3312
X0.9105 Y-1.3508
X0.9158 Y-1.3702
X0.9221 Y-1.3893
X0.9293 Y-1.4081
X0.9374 Y-1.4266
X0.9465 Y-1.4446
X0.9563 Y-1.4622
X0.967 Y-1.4792
X0.9786 Y-1.4958
X0.9909 Y-1.5117
X1.004 Y-1.527
X1.0178 Y-1.5417
X1.0324 Y-1.5557
X1.0475 Y-1.569
X1.0634 Y-1.5815
X1.0798 Y-1.5932
X1.0967 Y-1.6041
X1.1142 Y-1.6142
X1.1322 Y-1.6234
X1.1505 Y-1.6318
X1.1693 Y-1.6392
X1.1884 Y-1.6457
X1.2078 Y-1.6513
X1.2275 Y-1.6559
X1.2474 Y-1.6596
X1.2674 Y-1.6623
X1.2876 Y-1.664
X1.3079 Y-1.6647
X1.3282 Y-1.6645
X1.3485 Y-1.6632
X1.3687 Y-1.661
X1.3889 Y-1.6578
X1.4089 Y-1.6536
X1.4288 Y-1.6484
X1.4484 Y-1.6422
X1.4678 Y-1.6351
X1.4868 Y-1.627
X1.5055 Y-1.618
X1.5238 Y-1.608
X1.5416 Y-1.5971
X1.5589 Y-1.5854
X1.5757 Y-1.5728
X1.5918 Y-1.5593
X1.6073 Y-1.5451
X1.6222 Y-1.5301
X1.6363 Y-1.5144
X1.6496 Y-1.498
X1.6621 Y-1.4809
X1.6738 Y-1.4632
X1.6847 Y-1.445
X1.6946 Y-1.4263
X1.7036 Y-1.4071
X1.7117 Y-1.3875
X1.7188 Y-1.3675
X1.7249 Y-1.3472
X1.73 Y-1.3267
X1.7341 Y-1.3059
X1.7372 Y-1.285
X1.7393 Y-1.264
X1.7403 Y-1.2429
Y-1.2218
X1.7393 Y-1.2008
X1.7373 Y-1.1798
X1.7342 Y-1.159
X1.7302 Y-1.1384
X1.7251 Y-1.118
X1.7191 Y-1.0978
X1.7121 Y-1.078
X1.7041 Y-1.0586
X1.6952 Y-1.0395
X1.6854 Y-1.0209
X1.6747 Y-1.0028
X1.6631 Y-0.9853
X1.6506 Y-0.9683
X1.6374 Y-0.952
X1.6234 Y-0.9362
X1.6085 Y-0.9212
X1.593 Y-0.9069
X1.5768 Y-0.8934
X1.5599 Y-0.8806
X1.5424 Y-0.8687
X1.5243 Y-0.8577
X1.5057 Y-0.8475
X1.4866 Y-0.8382
X1.467 Y-0.8298
X1.447 Y-0.8224
X1.4266 Y-0.816
X1.406 Y-0.8106
X1.385 Y-0.8061
X1.3639 Y-0.8027
X1.3425 Y-0.8004
X1.3211 Y-0.799
X1.2995 Y-0.7987
X1.278 Y-0.7995
X1.2565 Y-0.8013
X1.235 Y-0.8041
X1.2137 Y-0.808
X1.1926 Y-0.813
X1.1717 Y-0.8189
X1.1512 Y-0.8259
X1.1309 Y-0.8339
X1.1111 Y-0.8429
X1.0916 Y-0.8528
X1.0727 Y-0.8637
X1.0543 Y-0.8755
X1.0365 Y-0.8882
X1.0193 Y-0.9018
X1.0027 Y-0.9162
X0.9869 Y-0.9314
X0.9718 Y-0.9474
X0.9575 Y-0.9641
X0.944 Y-0.9814
X0.9314 Y-0.9995
X0.9196 Y-1.0181
X0.9088 Y-1.0373
X0.8989 Y-1.0571
X0.89 Y-1.0773
X0.882 Y-1.0979
X0.8751 Y-1.1189
X0.8692 Y-1.1402
X0.8644 Y-1.1618
X0.8605 Y-1.1836
X0.8578 Y-1.2056
X0.8561 Y-1.2276
X0.8555 Y-1.2498
X0.856 Y-1.272
X0.8576 Y-1.2941
X0.8602 Y-1.3161
X0.8639 Y-1.338
X0.8687 Y-1.3597
X0.8745 Y-1.3811
X0.8814 Y-1.4022
X0.8893 Y-1.423
X0.8982 Y-1.4434
X0.908 Y-1.4633
X0.9189 Y-1.4827
X0.9306 Y-1.5015
X0.9433 Y-1.5198
X0.9568 Y-1.5375
X0.9712 Y-1.5544
X0.9864 Y-1.5707
X1.0024 Y-1.5861
X1.0191 Y-1.6008
X1.0365 Y-1.6147
X1.0545 Y-1.6277
X1.0732 Y-1.6398
X1.0924 Y-1.651
X1.1122 Y-1.6612
X1.1325 Y-1.6705
X1.1531 Y-1.6787
X1.1742 Y-1.686
X1.1956 Y-1.6922
X1.2173 Y-1.6974
X1.2392 Y-1.7015
X1.2613 Y-1.7046
X1.2836 Y-1.7066
X1.3059 Y-1.7074
X1.3283 Y-1.7072
X1.3508 Y-1.706
X1.3731 Y-1.7036
X1.3954 Y-1.7001
X1.4175 Y-1.6955
X1.4394 Y-1.6899
X1.461 Y-1.6832
X1.4824 Y-1.6754
X1.5034 Y-1.6665
X1.524 Y-1.6567
X1.5441 Y-1.6458
X1.5638 Y-1.6339
X1.5828 Y-1.621
X1.6013 Y-1.6072
X1.6191 Y-1.5925
X1.6362 Y-1.577
X1.6525 Y-1.5605
X1.6681 Y-1.5433
X1.6828 Y-1.5254
X1.6966 Y-1.5067
X1.7095 Y-1.4873
X1.7214 Y-1.4674
X1.7324 Y-1.4469
X1.7423 Y-1.4258
X1.7513 Y-1.4043
X1.7591 Y-1.3825
X1.7659 Y-1.3602
X1.7716 Y-1.3377
X1.7762 Y-1.3149
X1.7797 Y-1.2919
X1.782 Y-1.2689
X1.7833 Y-1.2457
Y-1.2225
X1.7823 Y-1.1994
X1.7802 Y-1.1763
X1.7769 Y-1.1534
X1.7725 Y-1.1307
X1.767 Y-1.1082
X1.7604 Y-1.086
X1.7528 Y-1.0642
X1.7441 Y-1.0428
X1.7344 Y-1.0218
X1.7237 Y-1.0013
X1.7119 Y-0.9814
X1.6993 Y-0.962
X1.6856 Y-0.9433
X1.6711 Y-0.9253
X1.6557 Y-0.9079
X1.6395 Y-0.8914
X1.6225 Y-0.8756
X1.6047 Y-0.8606
X1.5862 Y-0.8466
X1.567 Y-0.8334
X1.5471 Y-0.8212
X1.5267 Y-0.8099
X1.5057 Y-0.7996
X1.4843 Y-0.7904
X1.4623 Y-0.7822
X1.44 Y-0.7751
X1.4173 Y-0.769
X1.3943 Y-0.7641
X1.3711 Y-0.7602
X1.3477 Y-0.7576
X1.3241 Y-0.756
X1.3005 Y-0.7556
X1.2769 Y-0.7563
X1.2533 Y-0.7582
X1.2297 Y-0.7613
X1.2064 Y-0.7655
X1.1832 Y-0.7708
X1.1603 Y-0.7773
X1.1377 Y-0.7849
X1.1155 Y-0.7936
X1.0937 Y-0.8033
X1.0723 Y-0.8141
X1.0515 Y-0.826
X1.0313 Y-0.8389
X1.0117 Y-0.8527
X0.9928 Y-0.8675
X0.9747 Y-0.8832
X0.9573 Y-0.8998
X0.9407 Y-0.9173
X0.925 Y-0.9355
X0.9101 Y-0.9545
X0.8962 Y-0.9742
X0.8833 Y-0.9946
X0.8713 Y-1.0156
X0.8604 Y-1.0372
X0.8506 Y-1.0593
X0.8418 Y-1.0818
X0.8341 Y-1.1048
X0.8276 Y-1.1281
X0.8222 Y-1.1517
X0.818 Y-1.1756
X0.8149 Y-1.1996
X0.813 Y-1.2238
X0.8122 Y-1.2481
X0.8127 Y-1.2723
X0.8143 Y-1.2966
X0.8171 Y-1.3207
X0.8211 Y-1.3447
X0.8262 Y-1.3684
X0.8325 Y-1.3919
X0.84 Y-1.4151
X0.8485 Y-1.4378
X0.8582 Y-1.4602
X0.8689 Y-1.482
X0.8807 Y-1.5033
X0.8935 Y-1.524
X0.9073 Y-1.544
X0.9221 Y-1.5634
X0.9377 Y-1.582
X0.9543 Y-1.5998
X0.9717 Y-1.6168
X0.99 Y-1.633
X1.009 Y-1.6482
X1.0287 Y-1.6625
X1.0491 Y-1.6759
X1.0701 Y-1.6882
X1.0917 Y-1.6994
X1.1138 Y-1.7097
X1.1365 Y-1.7188
X1.1595 Y-1.7268
X1.1829 Y-1.7337
X1.2066 Y-1.7395
X1.2306 Y-1.7441
X1.2548 Y-1.7475
X1.2792 Y-1.7497
X1.3037 Y-1.7508
X1.3283 Y-1.7507
X1.3528 Y-1.7493
X1.3773 Y-1.7468
X1.4017 Y-1.7431
X1.4259 Y-1.7382
X1.4499 Y-1.7321
X1.4736 Y-1.7248
X1.497 Y-1.7163
X1.52 Y-1.7068
X1.5425 Y-1.6961
X1.5645 Y-1.6842
X1.586 Y-1.6713
X1.6069 Y-1.6574
X1.6271 Y-1.6424
X1.6465 Y-1.6264
X1.6652 Y-1.6095
X1.6831 Y-1.5916
X1.7001 Y-1.5729
X1.7162 Y-1.5534
X1.7313 Y-1.5331
X1.7455 Y-1.512
X1.7586 Y-1.4903
X1.7706 Y-1.468
X1.7816 Y-1.4451
X1.7914 Y-1.4217
X1.8 Y-1.3979
X1.8075 Y-1.3736
X1.8138 Y-1.3491
X1.8189 Y-1.3242
X1.8228 Y-1.2992
X1.8254 Y-1.274
X1.8268 Y-1.2487
X1.827 Y-1.2234
X1.826 Y-1.1982
X1.8237 Y-1.173
X1.8202 Y-1.148
X1.8155 Y-1.1231
X1.8096 Y-1.0986
X1.8025 Y-1.0743
X1.7942 Y-1.0505
X1.7848 Y-1.027
X1.7743 Y-1.0041
X1.7626 Y-0.9817
X1.7499 Y-0.9599
X1.7361 Y-0.9387
X1.7213 Y-0.9182
X1.7055 Y-0.8984
X1.6888 Y-0.8794
X1.6711 Y-0.8613
X1.6526 Y-0.844
X1.6332 Y-0.8276
X1.6131 Y-0.8122
X1.5922 Y-0.7977
X1.5706 Y-0.7843
X1.5483 Y-0.7719
X1.5254 Y-0.7606
X1.502 Y-0.7505
X1.4781 Y-0.7414
X1.4538 Y-0.7336
X1.4291 Y-0.7269
X1.404 Y-0.7214
X1.3787 Y-0.7172
X1.3532 Y-0.7141
X1.3276 Y-0.7124
X1.3018 Y-0.7118
X1.276 Y-0.7126
X1.2503 Y-0.7145
X1.2246 Y-0.7178
X1.1992 Y-0.7223
X1.1739 Y-0.728
X1.1489 Y-0.735
X1.1243 Y-0.7431
X1.1 Y-0.7525
X1.0762 Y-0.7631
X1.053 Y-0.7748
X1.0303 Y-0.7876
X1.0082 Y-0.8015
X0.9869 Y-0.8165
X0.9662 Y-0.8326
X0.9464 Y-0.8496
X0.9274 Y-0.8676
X0.9093 Y-0.8866
X0.8921 Y-0.9064
X0.8759 Y-0.927
X0.8607 Y-0.9484
X0.8465 Y-0.9705
X0.8335 Y-0.9933
X0.8215 Y-1.0168
X0.8107 Y-1.0408
X0.8011 Y-1.0653
X0.7927 Y-1.0902
X0.7854 Y-1.1156
X0.7795 Y-1.1412
X0.7748 Y-1.1672
X0.7713 Y-1.1934
X0.7692 Y-1.2197
X0.7683 Y-1.2461
X0.7687 Y-1.2725
X0.7704 Y-1.2988
X0.7733 Y-1.3251
X0.7776 Y-1.3512
X0.7831 Y-1.377
X0.7899 Y-1.4026
X0.7979 Y-1.4278
X0.8071 Y-1.4526
X0.8175 Y-1.4769
X0.8291 Y-1.5007
X0.8418 Y-1.5239
X0.8557 Y-1.5465
X0.8706 Y-1.5684
X0.8866 Y-1.5895
X0.9036 Y-1.6098
X0.9216 Y-1.6293
X0.9405 Y-1.6478
X0.9568 Y-1.6621
X0.9592 Y-1.6639
X0.9889 Y-1.6859
X1.0386 Y-1.7187
X1.0536 Y-1.7273
G3 X1.078 Y-1.6838 I0.0109 J0.0225
G1 X1.018 Y-1.6453
G3 X0.9889 Y-1.6859 I-0.0135 J-0.021
G1 X1.0141 Y-1.7046
X1.0225 Y-1.7103
X1.0572 Y-1.7292
X1.0646 Y-1.7331
X1.0814 Y-1.7417
X1.1097 Y-1.7544
X1.1668 Y-1.7739
X1.199 Y-1.7813
X1.2509 Y-1.7906
X1.2579 Y-1.7914
X1.3167 Y-1.7933
X1.3433 Y-1.7934
X1.4008 Y-1.7861
X1.426 Y-1.7818
X1.4351 Y-1.7797
X1.4848 Y-1.7655
X1.4932 Y-1.7627
X1.5184 Y-1.7529
X1.5713 Y-1.7286
X1.5773 Y-1.7256
X1.6361 Y-1.6869
X1.6529 Y-1.6742
X1.6949 Y-1.636
X1.7117 Y-1.6192
X1.7285 Y-1.599
X1.7538 Y-1.5678
X1.7622 Y-1.5565
X1.7958 Y-1.4992
X1.8099 Y-1.4686
X1.8299 Y-1.4181
X1.8329 Y-1.4097
X1.8464 Y-1.3509
X1.8511 Y-1.3257
X1.8538 Y-1.292
X1.8557 Y-1.2668
X1.8558 Y-1.2332
X1.8519 Y-1.1827
X1.851 Y-1.1743
X1.8462 Y-1.1479
X1.8327 Y-1.0903
X1.82 Y-1.0566
X1.8098 Y-1.0314
X1.7958 Y-1.0006
X1.7622 Y-0.9437
X1.7526 Y-0.9305
X1.7182 Y-0.8885
X1.7109 Y-0.8801
X1.6943 Y-0.8633
X1.6529 Y-0.8259
X1.6358 Y-0.8128
X1.5773 Y-0.7744
X1.5519 Y-0.7624
X1.5145 Y-0.7456
X1.4932 Y-0.7371
X1.4764 Y-0.7321
X1.4344 Y-0.7202
X1.426 Y-0.7183
X1.4008 Y-0.7138
X1.3419 Y-0.7066
X1.3167
X1.2579 Y-0.7085
X1.2495 Y-0.7095
X1.1906 Y-0.7206
X1.1654 Y-0.7263
X1.1066 Y-0.7469
X1.0814 Y-0.7582
X1.0393 Y-0.7804
X1.0225 Y-0.7895
X1.0131 Y-0.796
X0.9449 Y-0.8464
X0.9385 Y-0.8511
X0.9133 Y-0.8643
X0.9049 Y-0.8683
X0.8956 Y-0.8731
X0.8819 Y-0.8815
X0.8746 Y-0.8867
X0.8661 Y-0.8934
X0.8576 Y-0.9009
X0.8479 Y-0.9102
X0.8383 Y-0.9204
X0.8277 Y-0.9328
X0.8172 Y-0.9464
X0.8065 Y-0.9618
X0.7955 Y-0.9794
X0.7845 Y-0.9988
X0.7743 Y-1.0192
X0.7648 Y-1.041
X0.7558 Y-1.0644
X0.7477 Y-1.0891
X0.7407 Y-1.1148
X0.7348 Y-1.1412
X0.7301 Y-1.1683
X0.7267 Y-1.1959
X0.7246 Y-1.2238
X0.7239 Y-1.252
X0.7246 Y-1.2802
X0.7267 Y-1.3085
X0.7301 Y-1.3367
X0.7349 Y-1.3648
X0.7411 Y-1.3926
X0.7486 Y-1.4201
X0.7575 Y-1.4473
X0.7677 Y-1.474
X0.7792 Y-1.5002
X0.792 Y-1.5258
X0.8059 Y-1.5508
X0.8211 Y-1.575
X0.8285 Y-1.5856
X0.8386 Y-1.5977
X0.8506 Y-1.608
X0.8643 Y-1.616
X0.879 Y-1.6215
X0.8881 Y-1.6244
X0.9151 Y-1.6367
X0.9385 Y-1.6489
X0.9592 Y-1.6639
G3 X0.9981 Y-1.6413 I0.014 J0.0207
G1 X0.9393 Y-0.8895
G3 X0.9049 Y-0.8683 I-0.0249 J-0.0019
G1 X0.8881 Y-0.8759
X0.8628 Y-0.8831
X0.8614 Y-0.8832
X0.8561 Y-0.8842
X0.846 Y-0.888
X0.8349 Y-0.8937
X0.8219 Y-0.9019
X0.8145 Y-0.9074
X0.8071 Y-0.9135
X0.7988 Y-0.921
X0.7906 Y-0.9291
X0.7815 Y-0.9392
X0.7726 Y-0.95
X0.7633 Y-0.9625
X0.7534 Y-0.9771
X0.7441 Y-0.9926
X0.7347 Y-1.01
X0.7253 Y-1.0296
X0.7163 Y-1.0511
X0.7081 Y-1.0738
X0.7007 Y-1.0975
X0.6967 Y-1.1133
X0.6945 Y-1.1252
X0.6938 Y-1.1373
X0.6948 Y-1.1494
X0.696 Y-1.1575
X0.6977 Y-1.1827
X0.7001 Y-1.2752
Y-1.292
X0.6983 Y-1.3089
X0.6971 Y-1.3283
X0.697 Y-1.3421
X0.6976 Y-1.358
X0.6991 Y-1.3756
X0.7016 Y-1.3941
X0.7055 Y-1.415
X0.7108 Y-1.4375
X0.7174 Y-1.4603
X0.7256 Y-1.4841
X0.7354 Y-1.5088
X0.747 Y-1.5341
X0.7565 Y-1.5526
X0.7673 Y-1.5709
X0.7759 Y-1.5822
X0.7861 Y-1.5921
X0.7976 Y-1.6004
X0.8102 Y-1.607
X0.8237 Y-1.6115
X0.8376 Y-1.6141
X0.8628 Y-1.617
X0.879 Y-1.6215
G3 X0.9067 Y-1.5849 I0.0059 J0.0243
G1 X0.7447 Y-1.3001
G3 X0.6983 Y-1.3089 I-0.0217 J-0.0124
G1 X0.687 Y-1.4013
X0.6863 Y-1.4047
X0.685 Y-1.4149
X0.684 Y-1.4312
X0.6841 Y-1.4405
X0.6848 Y-1.4517
X0.686 Y-1.4632
X0.6882 Y-1.477
X0.6912 Y-1.4911
X0.6951 Y-1.5062
X0.6999 Y-1.5214
X0.7045 Y-1.5339
X0.7095 Y-1.5457
X0.714 Y-1.5551
X0.7192 Y-1.5646
X0.7237 Y-1.5721
X0.7294 Y-1.5804
X0.7399 Y-1.5921
X0.7523 Y-1.6018
X0.7662 Y-1.6092
X0.7811 Y-1.614
X0.7967 Y-1.6161
X0.8124 Y-1.6155
X0.8376 Y-1.6141
G3 X0.8559 Y-1.5749 I-0.0023 J0.0249
G1 X0.7313 Y-1.3959
G3 X0.6863 Y-1.4047 I-0.0205 J-0.0143
G1 X0.6823 Y-1.4266
X0.6729 Y-1.4602
X0.6697 Y-1.4753
X0.6684 Y-1.4878
Y-1.5025
X0.6699 Y-1.5188
X0.6714 Y-1.5273
X0.6732 Y-1.5359
X0.6777 Y-1.5512
X0.6837 Y-1.566
X0.6906 Y-1.579
X0.7 Y-1.5916
X0.7115 Y-1.6023
X0.7247 Y-1.6108
X0.7393 Y-1.6169
X0.7546 Y-1.6204
X0.7703 Y-1.6211
X0.7859 Y-1.619
G3 X0.8006 Y-1.5812 I-0.0063 J0.0242
G1 X0.7176 Y-1.4541
G3 X0.6729 Y-1.4602 I-0.0209 J-0.0137
G1 X0.6574 Y-1.5153
X0.6552 Y-1.5258
X0.6543 Y-1.5366
X0.6546 Y-1.5474
X0.6562 Y-1.5583
X0.6588 Y-1.5688
X0.6626 Y-1.5793
X0.6673 Y-1.589
X0.6734 Y-1.5989
X0.6827 Y-1.6096
X0.6939 Y-1.6183
X0.7065 Y-1.6247
X0.7201 Y-1.6287
X0.7343 Y-1.63
X0.7484 Y-1.6287
X0.762 Y-1.6247
X0.7859 Y-1.619
G3 X0.7943 Y-1.5746 I-0.0063 J0.0242
G1 X0.6958 Y-1.5029
G3 X0.6574 Y-1.5153 I-0.0147 J-0.0202
G1 X0.6514 Y-1.5359
X0.6476 Y-1.5457
X0.6457 Y-1.5507
X0.6443 Y-1.5559
X0.6434 Y-1.5613
X0.6431 Y-1.5666
Y-1.572
X0.6435 Y-1.5774
X0.6456 Y-1.588
X0.649 Y-1.5982
X0.6556 Y-1.6097
X0.6642 Y-1.6198
X0.6745 Y-1.628
X0.6862 Y-1.6341
X0.6989 Y-1.6379
X0.7121 Y-1.6392
X0.7252 Y-1.638
X0.7379 Y-1.6343
G3 X0.7451 Y-1.5933 I-0.0101 J0.0229
G1 X0.6874 Y-1.5383
G3 X0.6476 Y-1.5457 I-0.0172 J-0.0181
G1 X0.637 Y-1.5695
X0.635 Y-1.5745
X0.6335 Y-1.5797
X0.6327 Y-1.585
X0.6325 Y-1.5904
X0.6328 Y-1.5958
X0.6336 Y-1.6012
X0.6381 Y-1.6136
X0.6451 Y-1.6247
X0.6544 Y-1.6341
X0.6655 Y-1.6413
X0.6778 Y-1.6459
X0.6909 Y-1.6478
X0.704 Y-1.6469
X0.7167 Y-1.6431
G3 X0.7224 Y-1.6014 I-0.0104 J0.0227
G1 X0.6756 Y-1.5615
G3 X0.637 Y-1.5695 I-0.0162 J-0.019
G1 X0.6275 Y-1.5904
X0.6255 Y-1.5955
X0.6243 Y-1.6007
X0.6238 Y-1.6061
X0.6241 Y-1.6115
X0.6272 Y-1.6229
X0.6328 Y-1.6333
X0.6406 Y-1.6422
X0.6503 Y-1.6491
X0.6612 Y-1.6537
X0.6728 Y-1.6557
X0.6846 Y-1.655
X0.696 Y-1.6517
G3 X0.7182 Y-1.6264 I-0.0171 J0.0373
X0.6275 Y-1.5904 I-0.0468 J0.0142
G1 X0.6196 Y-1.6079
X0.6177 Y-1.6129
X0.6167 Y-1.6182
X0.6166 Y-1.6236
X0.6171 Y-1.6289
X0.621 Y-1.6392
X0.6273 Y-1.6482
X0.6355 Y-1.6553
X0.6453 Y-1.6603
X0.656 Y-1.6627
X0.6669 Y-1.6624
X0.6774 Y-1.6595
G3 X0.6961 Y-1.6381 I-0.0144 J0.0314
X0.6196 Y-1.6079 I-0.0395 J0.0119
G1 X0.6131 Y-1.6223
X0.6112 Y-1.6273
X0.6102 Y-1.6326
Y-1.638
X0.613 Y-1.6472
X0.618 Y-1.6553
X0.6249 Y-1.6619
X0.6333 Y-1.6665
X0.6425 Y-1.6688
X0.6521 Y-1.6687
X0.6613 Y-1.6662
G3 X0.6772 Y-1.6484 I-0.0124 J0.0271
X0.6131 Y-1.6223 I-0.033 J0.0108
G1 X0.6069 Y-1.636
X0.605 Y-1.641
X0.6044 Y-1.6464
X0.6068 Y-1.6557
X0.612 Y-1.6639
X0.6194 Y-1.67
X0.6284 Y-1.6736
X0.638 Y-1.6743
X0.6474 Y-1.672
G3 X0.6604 Y-1.6571 I-0.0101 J0.0219
X0.6069 Y-1.636 I-0.0276 J0.0083
G1 X0.603 Y-1.6451
X0.602 Y-1.6508
X0.6023 Y-1.657
X0.6037 Y-1.662
X0.6059 Y-1.6662
X0.6091 Y-1.6704
X0.6128 Y-1.6736
X0.617 Y-1.676
X0.6233 Y-1.678
X0.6275 Y-1.6783
X0.6317 Y-1.6779
X0.6359 Y-1.6768
X0.7452 Y-1.6314
X0.762 Y-1.6247
G3 X0.7766 Y-1.6058 I-0.0101 J0.0229
G1 X0.8884 Y-0.9121
G3 X0.8614 Y-0.8832 I-0.0247 J0.004
G1 X0.8376 Y-0.8858
X0.8362 Y-0.8857
X0.8308 Y-0.8856
X0.8255 Y-0.8861
X0.8149 Y-0.8883
X0.8047 Y-0.8917
X0.7934 Y-0.8968
X0.7806 Y-0.9042
X0.7734 Y-0.9091
X0.7662 Y-0.9145
X0.7583 Y-0.9211
X0.7504 Y-0.9284
X0.7421 Y-0.9368
X0.7331 Y-0.9468
X0.7245 Y-0.9574
X0.7153 Y-0.97
X0.7058 Y-0.9842
X0.6969 Y-0.9993
X0.6899 Y-1.0125
X0.6839 Y-1.0266
X0.6803 Y-1.0415
X0.6792 Y-1.0567
X0.6807 Y-1.072
X0.6948 Y-1.1494
G3 X0.7418 Y-1.1559 I0.0246 J0.0045
G1 X0.8563 Y-0.9215
G3 X0.8362 Y-0.8857 I-0.0225 J0.011
G1 X0.8124 Y-0.8842
X0.804 Y-0.8832
X0.7986 Y-0.8828
X0.7932 Y-0.883
X0.7825 Y-0.8844
X0.7721 Y-0.8872
X0.7607 Y-0.8915
X0.748 Y-0.8977
X0.7412 Y-0.9017
X0.7339 Y-0.9064
X0.7261 Y-0.9121
X0.7184 Y-0.9183
X0.71 Y-0.9257
X0.7015 Y-0.9339
X0.6901 Y-0.9465
X0.6814 Y-0.9588
X0.6748 Y-0.9723
X0.6704 Y-0.9868
X0.6686 Y-1.0018
X0.6692 Y-1.0168
X0.6722 Y-1.0316
X0.6746 Y-1.0398
X0.6807 Y-1.072
G3 X0.7266 Y-1.0795 I0.0244 J0.0054
G1 X0.8217 Y-0.9208
G3 X0.804 Y-0.8832 I-0.0214 J0.0129
G1 X0.7872 Y-0.8812
X0.7763 Y-0.8788
X0.7709 Y-0.8778
X0.7656 Y-0.8773
X0.7602 Y-0.8772
X0.7494 Y-0.8783
X0.7388 Y-0.8806
X0.7273 Y-0.8843
X0.7147 Y-0.8898
X0.7025 Y-0.8967
X0.6917 Y-0.9041
X0.6804 Y-0.915
X0.6711 Y-0.9278
X0.6642 Y-0.9419
X0.6598 Y-0.9571
X0.6582 Y-0.9728
X0.6593 Y-0.9885
X0.6631 Y-1.0038
X0.6722 Y-1.0316
G3 X0.7173 Y-1.0367 I0.0237 J0.0079
G1 X0.7911 Y-0.9159
G3 X0.7763 Y-0.8788 I-0.0213 J0.013
G1 X0.762 Y-0.8753
X0.7536 Y-0.872
X0.7485 Y-0.8702
X0.7432 Y-0.8689
X0.7379 Y-0.868
X0.7325 Y-0.8677
X0.7217 Y-0.8681
X0.7111 Y-0.87
X0.7008 Y-0.8731
X0.6909 Y-0.8774
X0.6861 Y-0.8799
X0.6739 Y-0.889
X0.6636 Y-0.9003
X0.6558 Y-0.9133
X0.6506 Y-0.9276
X0.6482 Y-0.9427
X0.6488 Y-0.9579
X0.6524 Y-0.9727
X0.6631 Y-1.0038
G3 X0.7081 Y-1.0072 I0.0233 J0.009
G1 X0.7652 Y-0.9072
G3 X0.7536 Y-0.872 I-0.0217 J0.0124
G1 X0.7258 Y-0.8607
X0.7207 Y-0.8589
X0.7155 Y-0.8576
X0.7101 Y-0.8569
X0.7047 Y-0.8567
X0.6993 Y-0.8571
X0.6937 Y-0.8579
X0.68 Y-0.8625
X0.6676 Y-0.8698
X0.657 Y-0.8796
X0.6486 Y-0.8914
X0.6429 Y-0.9047
X0.6402 Y-0.9188
X0.6404 Y-0.9333
X0.6436 Y-0.9473
G3 X0.6857 Y-0.9549 I0.0233 J0.009
G1 X0.7342 Y-0.9
G3 X0.7258 Y-0.8607 I-0.0188 J0.0165
G1 X0.7032 Y-0.8512
X0.6981 Y-0.8494
X0.6928 Y-0.8483
X0.6874 Y-0.8478
X0.682 Y-0.848
X0.6767 Y-0.8487
X0.6714 Y-0.8499
X0.6608 Y-0.8547
X0.6513 Y-0.8615
X0.6434 Y-0.8701
X0.6374 Y-0.8801
X0.6335 Y-0.8911
X0.6319 Y-0.9026
X0.6326 Y-0.9143
X0.6357 Y-0.9256
G3 X0.6781 Y-0.9316 I0.023 J0.0098
G1 X0.7121 Y-0.8897
G3 X0.7032 Y-0.8512 I-0.0194 J0.0158
G1 X0.6838 Y-0.8432
X0.6787 Y-0.8413
X0.6734 Y-0.8403
X0.668 Y-0.8401
X0.6627 Y-0.8405
X0.6524 Y-0.8439
X0.6431 Y-0.8495
X0.6353 Y-0.857
X0.6294 Y-0.8661
X0.6256 Y-0.8762
X0.6242 Y-0.8869
X0.6252 Y-0.8977
X0.6285 Y-0.908
G3 X0.6524 Y-0.9279 I0.0345 J0.0172
X0.6838 Y-0.8432 I0.0125 J0.0435
G1 X0.667 Y-0.8362
X0.6619 Y-0.8343
X0.6566 Y-0.8335
X0.6512 Y-0.8337
X0.6458 Y-0.8345
X0.6364 Y-0.8388
X0.6283 Y-0.8453
X0.622 Y-0.8536
X0.6181 Y-0.8632
X0.6166 Y-0.8735
X0.6176 Y-0.8838
X0.6212 Y-0.8936
G3 X0.6405 Y-0.9087 I0.0278 J0.0157
X0.667 Y-0.8362 I0.0103 J0.0373
G1 X0.6527 Y-0.8302
X0.6476 Y-0.8284
X0.6423 Y-0.8277
X0.6369 Y-0.8281
X0.6283 Y-0.8314
X0.6208 Y-0.8368
X0.615 Y-0.8439
X0.6112 Y-0.8523
X0.6097 Y-0.8614
X0.6105 Y-0.8705
X0.6137 Y-0.8792
G3 X0.63 Y-0.8919 I0.0237 J0.0135
X0.6527 Y-0.8302 I0.0089 J0.0318
G1 X0.6397 Y-0.8248
X0.6346 Y-0.8229
X0.6292 Y-0.8226
X0.6202 Y-0.8256
X0.6124 Y-0.8312
X0.6069 Y-0.8389
X0.604 Y-0.848
X0.6041 Y-0.8576
X0.6071 Y-0.8666
G3 X0.6211 Y-0.8773 I0.0196 J0.0111
X0.6397 Y-0.8248 I0.007 J0.0271
G1 X0.6327 Y-0.822
X0.6275 Y-0.821
X0.6243 Y-0.8209
X0.6191 Y-0.8217
X0.6149 Y-0.8232
X0.6107 Y-0.8256
X0.6063 Y-0.8296
X0.6041 Y-0.8327
X0.6014 Y-0.838
X0.6002 Y-0.8422
X0.5999 Y-0.8464
X0.6002 Y-0.8506
X0.6012 Y-0.8549
X0.6054 Y-0.8633
X0.6281 Y-0.907
X0.6317 Y-0.9151
X0.6407 Y-0.9389
X0.6524 Y-0.9727
X0.653 Y-0.9737 Z-0.0798
X0.6536 Y-0.9748 Z-0.0796
X0.6542 Y-0.9758 Z-0.0792
X0.6548 Y-0.9767 Z-0.0787
X0.6553 Y-0.9776 Z-0.0781
X0.6558 Y-0.9784 Z-0.0773
X0.6562 Y-0.9791 Z-0.0764
X0.6566 Y-0.9797 Z-0.0754
X0.6569 Y-0.9802 Z-0.0744
X0.6572 Y-0.9805 Z-0.0733
X0.6574 Y-0.9808 Z-0.0723
X0.6575 Y-0.9809 Z-0.0712
X0.6576 Y-0.981 Z-0.0701
G0 Z0.1401
X1.2568 Y-1.1451
Z0.0451
G1 Z0.0201 F10.
G3 X1.3682 Y-1.3548 Z0.0071 I0.0557 J-0.1049 F3.333
X1.2568 Y-1.1451 Z-0.006 I-0.0557 J0.1049
X1.3682 Y-1.3548 Z-0.019 I0.0557 J-0.1049
X1.2568 Y-1.1451 Z-0.032 I-0.0557 J0.1049
X1.3682 Y-1.3548 Z-0.045 I0.0557 J-0.1049
X1.2568 Y-1.1451 Z-0.0581 I-0.0557 J0.1049
X1.3682 Y-1.3548 Z-0.0711 I0.0557 J-0.1049
X1.2568 Y-1.1451 Z-0.0841 I-0.0557 J0.1049
X1.3682 Y-1.3548 Z-0.0972 I0.0557 J-0.1049
X1.2568 Y-1.1451 Z-0.1102 I-0.0557 J0.1049
X1.3682 Y-1.3548 Z-0.1232 I0.0557 J-0.1049
X1.2568 Y-1.1451 Z-0.1362 I-0.0557 J0.1049
X1.3682 Y-1.3548 Z-0.1493 I0.0557 J-0.1049
X1.2568 Y-1.1451 Z-0.1623 I-0.0557 J0.1049
X1.3682 Y-1.3548 Z-0.1753 I0.0557 J-0.1049
X1.4313 Y-1.25 Z-0.1798 I-0.0557 J0.1049
X1.1938 I-0.1188 J0.
X1.4313 I0.1188 J0.
G1 X1.4319 Y-1.213 F10.
X1.4327 Y-1.2084
X1.4331 Y-1.203
X1.433 Y-1.1976
X1.4324 Y-1.1923
X1.43 Y-1.1817
X1.4262 Y-1.1716
X1.4212 Y-1.162
X1.4153 Y-1.153
X1.4084 Y-1.1445
X1.4003 Y-1.1364
X1.3911 Y-1.1288
X1.3809 Y-1.1218
X1.3697 Y-1.1158
X1.3577 Y-1.1107
X1.3451 Y-1.1067
X1.3319 Y-1.104
X1.3183 Y-1.1025
X1.3045 Y-1.1024
X1.2906 Y-1.1036
X1.2768 Y-1.1061
X1.2633 Y-1.11
X1.2501 Y-1.1153
X1.2374 Y-1.1218
X1.2254 Y-1.1296
X1.2142 Y-1.1385
X1.2038 Y-1.1484
X1.1945 Y-1.1594
X1.1863 Y-1.1712
X1.1792 Y-1.1838
X1.1734 Y-1.197
X1.1689 Y-1.2108
X1.1658 Y-1.2249
X1.164 Y-1.2392
X1.1637 Y-1.2537
X1.1647 Y-1.2681
X1.1672 Y-1.2824
X1.171 Y-1.2964
X1.1762 Y-1.3099
X1.1827 Y-1.3229
X1.1904 Y-1.3351
X1.1992 Y-1.3466
X1.2091 Y-1.3572
X1.22 Y-1.3667
X1.2318 Y-1.3751
X1.2444 Y-1.3824
X1.2576 Y-1.3884
X1.2713 Y-1.3931
X1.2854 Y-1.3964
X1.2998 Y-1.3983
X1.3142 Y-1.3989
X1.3287 Y-1.398
X1.343 Y-1.3957
X1.357 Y-1.3921
X1.3707 Y-1.3871
X1.3837 Y-1.3808
X1.3961 Y-1.3732
X1.4077 Y-1.3645
X1.4184 Y-1.3547
X1.428 Y-1.3439
X1.4366 Y-1.3323
X1.444 Y-1.3198
X1.4506 Y-1.3058
X1.4542 Y-1.2964
X1.4592 Y-1.2812
X1.4626 Y-1.2691
X1.4649 Y-1.2587
X1.4665 Y-1.2492
X1.4676 Y-1.2405
X1.4684 Y-1.2242
X1.4677 Y-1.209
X1.4656 Y-1.1946
X1.4622 Y-1.1806
X1.4574 Y-1.1671
X1.4513 Y-1.1541
X1.444 Y-1.1416
X1.4353 Y-1.1298
X1.4254 Y-1.1187
X1.4142 Y-1.1084
X1.402 Y-1.0991
X1.3886 Y-1.0909
X1.3743 Y-1.084
X1.3592 Y-1.0784
X1.3435 Y-1.0743
X1.3354 Y-1.0727
X1.3272 Y-1.0716
X1.319 Y-1.0709
X1.3106 Y-1.0706
X1.3022 Y-1.0707
X1.2939 Y-1.0711
X1.2855 Y-1.0721
X1.2771 Y-1.0734
X1.2688 Y-1.0751
X1.2605 Y-1.0772
X1.2523 Y-1.0798
X1.2443 Y-1.0827
X1.2364 Y-1.0861
X1.2286 Y-1.0898
X1.221 Y-1.0939
X1.2136 Y-1.0984
X1.2064 Y-1.1033
X1.1995 Y-1.1085
X1.1928 Y-1.114
X1.1863 Y-1.1199
X1.1802 Y-1.1261
X1.1743 Y-1.1326
X1.1688 Y-1.1393
X1.1636 Y-1.1464
X1.1587 Y-1.1537
X1.1542 Y-1.1612
X1.1501 Y-1.169
X1.1464 Y-1.1769
X1.143 Y-1.185
X1.14 Y-1.1933
X1.1375 Y-1.2017
X1.1353 Y-1.2103
X1.1336 Y-1.2189
X1.1323 Y-1.2276
X1.1314 Y-1.2364
X1.1309 Y-1.2452
Y-1.254
X1.1313 Y-1.2628
X1.1321 Y-1.2716
X1.1334 Y-1.2803
X1.1351 Y-1.289
X1.1372 Y-1.2976
X1.1397 Y-1.3061
X1.1426 Y-1.3144
X1.146 Y-1.3226
X1.1497 Y-1.3306
X1.1538 Y-1.3384
X1.1583 Y-1.346
X1.1631 Y-1.3534
X1.1683 Y-1.3606
X1.1739 Y-1.3674
X1.1798 Y-1.374
X1.1859 Y-1.3804
X1.1924 Y-1.3864
X1.1992 Y-1.392
X1.2063 Y-1.3974
X1.2136 Y-1.4024
X1.2211 Y-1.407
X1.2288 Y-1.4113
X1.2368 Y-1.4152
X1.2449 Y-1.4186
X1.2532 Y-1.4217
X1.2616 Y-1.4244
X1.2702 Y-1.4267
X1.2788 Y-1.4285
X1.2876 Y-1.43
X1.2963 Y-1.431
X1.3052 Y-1.4315
X1.314 Y-1.4317
X1.3229 Y-1.4314
X1.3317 Y-1.4307
X1.3404 Y-1.4295
X1.3491 Y-1.428
X1.3578 Y-1.426
X1.3663 Y-1.4236
X1.3747 Y-1.4207
X1.3829 Y-1.4175
X1.391 Y-1.4139
X1.3989 Y-1.4099
X1.4065 Y-1.4055
X1.414 Y-1.4007
X1.4212 Y-1.3956
X1.4282 Y-1.3902
X1.4349 Y-1.3844
X1.4412 Y-1.3783
X1.4474 Y-1.3717
X1.4535 Y-1.3647
X1.4598 Y-1.3566
X1.4658 Y-1.3481
X1.4717 Y-1.3388
X1.4772 Y-1.3291
X1.4822 Y-1.3192
X1.4867 Y-1.309
X1.4907 Y-1.2988
X1.494 Y-1.2886
X1.4969 Y-1.2785
X1.4992 Y-1.2685
X1.5009 Y-1.2585
X1.5022 Y-1.2487
X1.5029 Y-1.239
X1.5032 Y-1.2294
X1.503 Y-1.2198
X1.5024 Y-1.2104
X1.5013 Y-1.2011
X1.4998 Y-1.1919
X1.4978 Y-1.1829
X1.4954 Y-1.174
X1.4926 Y-1.1653
X1.4894 Y-1.1567
X1.4857 Y-1.1483
X1.4817 Y-1.1401
X1.4772 Y-1.1321
X1.4724 Y-1.1243
X1.4672 Y-1.1167
X1.4616 Y-1.1094
X1.4556 Y-1.1023
X1.4493 Y-1.0955
X1.4426 Y-1.089
X1.4355 Y-1.0828
X1.4282 Y-1.0769
X1.4205 Y-1.0713
X1.4126 Y-1.0662
X1.4043 Y-1.0613
X1.3958 Y-1.0569
X1.387 Y-1.0529
X1.3781 Y-1.0492
X1.3689 Y-1.0461
X1.3595 Y-1.0433
X1.35 Y-1.041
X1.3403 Y-1.0392
X1.3305 Y-1.0378
X1.3206 Y-1.0369
X1.3106 Y-1.0365
X1.3006
X1.2906 Y-1.0371
X1.2806 Y-1.0381
X1.2706 Y-1.0397
X1.2607 Y-1.0417
X1.2509 Y-1.0442
X1.2411 Y-1.0472
X1.2315 Y-1.0507
X1.2221 Y-1.0546
X1.2128 Y-1.059
X1.2038 Y-1.0639
X1.195 Y-1.0692
X1.1864 Y-1.0749
X1.1781 Y-1.0811
X1.1701 Y-1.0877
X1.1624 Y-1.0946
X1.1551 Y-1.102
X1.1481 Y-1.1097
X1.1415 Y-1.1177
X1.1353 Y-1.1261
X1.1295 Y-1.1348
X1.1241 Y-1.1437
X1.1191 Y-1.1529
X1.1146 Y-1.1624
X1.1106 Y-1.172
X1.107 Y-1.1819
X1.1039 Y-1.1919
X1.1013 Y-1.202
X1.0992 Y-1.2123
X1.0976 Y-1.2227
X1.0966 Y-1.2331
X1.096 Y-1.2436
X1.0959 Y-1.2541
X1.0964 Y-1.2647
X1.0973 Y-1.2751
X1.0988 Y-1.2855
X1.1007 Y-1.2959
X1.1032 Y-1.3061
X1.1062 Y-1.3162
X1.1096 Y-1.3262
X1.1136 Y-1.3359
X1.118 Y-1.3455
X1.1228 Y-1.3549
X1.1282 Y-1.364
X1.1339 Y-1.3728
X1.1401 Y-1.3813
X1.1467 Y-1.3896
X1.1537 Y-1.3975
X1.161 Y-1.405
X1.1687 Y-1.4122
X1.1768 Y-1.419
X1.1852 Y-1.4254
X1.1939 Y-1.4314
X1.2028 Y-1.437
X1.2121 Y-1.4421
X1.2215 Y-1.4467
X1.2312 Y-1.4509
X1.2411 Y-1.4546
X1.2511 Y-1.4579
X1.2613 Y-1.4606
X1.2716 Y-1.4629
X1.282 Y-1.4646
X1.2925 Y-1.4658
X1.303 Y-1.4665
X1.3136 Y-1.4668
X1.3241 Y-1.4664
X1.3346 Y-1.4656
X1.3451 Y-1.4643
X1.3555 Y-1.4625
X1.3658 Y-1.4601
X1.376 Y-1.4573
X1.386 Y-1.4539
X1.3958 Y-1.4501
X1.4054 Y-1.4458
X1.4149 Y-1.4411
X1.4241 Y-1.4359
X1.4331 Y-1.4302
X1.4419 Y-1.4239
X1.4506 Y-1.4172
X1.4591 Y-1.4098
X1.4675 Y-1.4019
X1.4755 Y-1.3935
X1.4833 Y-1.3845
X1.4907 Y-1.3751
X1.4977 Y-1.3652
X1.5042 Y-1.355
X1.5102 Y-1.3445
X1.5157 Y-1.3338
X1.5206 Y-1.3228
X1.5249 Y-1.3117
X1.5287 Y-1.3004
X1.5319 Y-1.2891
X1.5346 Y-1.2777
X1.5366 Y-1.2663
X1.5381 Y-1.2548
X1.5391 Y-1.2434
X1.5394 Y-1.232
X1.5393 Y-1.2207
X1.5385 Y-1.2095
X1.5373 Y-1.1983
X1.5355 Y-1.1873
X1.5331 Y-1.1765
X1.5303 Y-1.1657
X1.5269 Y-1.1552
X1.5231 Y-1.1448
X1.5187 Y-1.1347
X1.5138 Y-1.1247
X1.5085 Y-1.1151
X1.5027 Y-1.1056
X1.4965 Y-1.0965
X1.4898 Y-1.0877
X1.4826 Y-1.0792
X1.4751 Y-1.071
X1.4671 Y-1.0632
X1.4587 Y-1.0557
X1.45 Y-1.0487
X1.4409 Y-1.0421
X1.4315 Y-1.0358
X1.4217 Y-1.0301
X1.4116 Y-1.0248
X1.4013 Y-1.02
X1.3907 Y-1.0157
X1.3798 Y-1.0119
X1.3688 Y-1.0086
X1.3575 Y-1.0058
X1.3461 Y-1.0036
X1.3346 Y-1.002
X1.323 Y-1.0009
X1.3113 Y-1.0003
X1.2996 Y-1.0004
X1.2878 Y-1.001
X1.276 Y-1.0022
X1.2643 Y-1.0039
X1.2527 Y-1.0063
X1.2411 Y-1.0092
X1.2297 Y-1.0126
X1.2185 Y-1.0167
X1.2074 Y-1.0213
X1.1966 Y-1.0264
X1.1859 Y-1.032
X1.1756 Y-1.0382
X1.1656 Y-1.0449
X1.1558 Y-1.0521
X1.1465 Y-1.0597
X1.1374 Y-1.0679
X1.1288 Y-1.0764
X1.1206 Y-1.0854
X1.1129 Y-1.0948
X1.1056 Y-1.1045
X1.0987 Y-1.1146
X1.0924 Y-1.1251
X1.0866 Y-1.1358
X1.0813 Y-1.1468
X1.0765 Y-1.1581
X1.0723 Y-1.1696
X1.0687 Y-1.1813
X1.0656 Y-1.1932
X1.0631 Y-1.2052
X1.0612 Y-1.2173
X1.0599 Y-1.2295
X1.0592 Y-1.2418
X1.0591 Y-1.2541
X1.0595 Y-1.2664
X1.0606 Y-1.2786
X1.0623 Y-1.2908
X1.0645 Y-1.3029
X1.0674 Y-1.3149
X1.0708 Y-1.3267
X1.0748 Y-1.3384
X1.0794 Y-1.3498
X1.0845 Y-1.3611
X1.0902 Y-1.372
X1.0964 Y-1.3827
X1.103 Y-1.393
X1.1102 Y-1.403
X1.1179 Y-1.4127
X1.1261 Y-1.422
X1.1346 Y-1.4308
X1.1436 Y-1.4393
X1.153 Y-1.4473
X1.1628 Y-1.4548
X1.173 Y-1.4618
X1.1834 Y-1.4684
X1.1942 Y-1.4744
X1.2053 Y-1.4799
X1.2166 Y-1.4848
X1.2281 Y-1.4892
X1.2398 Y-1.493
X1.2518 Y-1.4963
X1.2638 Y-1.499
X1.276 Y-1.501
X1.2882 Y-1.5025
X1.3006 Y-1.5034
X1.3129 Y-1.5037
X1.3252 Y-1.5034
X1.3376 Y-1.5024
X1.3498 Y-1.5009
X1.362 Y-1.4988
X1.374 Y-1.4961
X1.386 Y-1.4928
X1.3977 Y-1.489
X1.4094 Y-1.4845
X1.4208 Y-1.4794
X1.4321 Y-1.4738
X1.4432 Y-1.4675
X1.4541 Y-1.4607
X1.4647 Y-1.4533
X1.4751 Y-1.4453
X1.4851 Y-1.4367
X1.4948 Y-1.4275
X1.5041 Y-1.4178
X1.513 Y-1.4077
X1.5214 Y-1.397
X1.5293 Y-1.3859
X1.5367 Y-1.3745
X1.5435 Y-1.3627
X1.5497 Y-1.3506
X1.5553 Y-1.3382
X1.5603 Y-1.3256
X1.5647 Y-1.3128
X1.5684 Y-1.2999
X1.5714 Y-1.2868
X1.5739 Y-1.2737
X1.5756 Y-1.2605
X1.5768 Y-1.2473
X1.5772 Y-1.2341
X1.5771 Y-1.2209
X1.5763 Y-1.2078
X1.5748 Y-1.1948
X1.5728 Y-1.1819
X1.5701 Y-1.1692
X1.5668 Y-1.1566
X1.5629 Y-1.1442
X1.5584 Y-1.1321
X1.5533 Y-1.1202
X1.5477 Y-1.1085
X1.5415 Y-1.0971
X1.5347 Y-1.0861
X1.5274 Y-1.0753
X1.5196 Y-1.065
X1.5113 Y-1.055
X1.5025 Y-1.0454
X1.4932 Y-1.0362
X1.4835 Y-1.0275
X1.4733 Y-1.0192
X1.4627 Y-1.0115
X1.4517 Y-1.0042
X1.4404 Y-0.9975
X1.4287 Y-0.9913
X1.4167 Y-0.9856
X1.4044 Y-0.9806
X1.3918 Y-0.9761
X1.379 Y-0.9723
X1.366 Y-0.969
X1.3528 Y-0.9664
X1.3395 Y-0.9645
X1.326 Y-0.9632
X1.3125 Y-0.9625
X1.2989
X1.2853 Y-0.9632
X1.2717 Y-0.9645
X1.2582 Y-0.9665
X1.2448 Y-0.9691
X1.2314 Y-0.9724
X1.2183 Y-0.9764
X1.2053 Y-0.981
X1.1925 Y-0.9862
X1.1799 Y-0.9921
X1.1677 Y-0.9986
X1.1557 Y-1.0057
X1.1441 Y-1.0133
X1.1329 Y-1.0216
X1.1221 Y-1.0304
X1.1117 Y-1.0397
X1.1017 Y-1.0495
X1.0922 Y-1.0598
X1.0833 Y-1.0706
X1.0748 Y-1.0818
X1.0669 Y-1.0934
X1.0596 Y-1.1054
X1.0528 Y-1.1177
X1.0467 Y-1.1304
X1.0412 Y-1.1433
X1.0363 Y-1.1566
X1.032 Y-1.17
X1.0285 Y-1.1837
X1.0255 Y-1.1975
X1.0233 Y-1.2115
X1.0217 Y-1.2255
X1.0209 Y-1.2396
X1.0207 Y-1.2538
X1.0212 Y-1.2679
X1.0224 Y-1.282
X1.0242 Y-1.2961
X1.0268 Y-1.31
X1.03 Y-1.3238
X1.0339 Y-1.3375
X1.0385 Y-1.3509
X1.0437 Y-1.3641
X1.0496 Y-1.377
X1.056 Y-1.3896
X1.0631 Y-1.402
X1.0708 Y-1.4139
X1.079 Y-1.4255
X1.0878 Y-1.4366
X1.0972 Y-1.4473
X1.107 Y-1.4576
X1.1173 Y-1.4673
X1.1281 Y-1.4765
X1.1394 Y-1.4852
X1.151 Y-1.4934
X1.163 Y-1.501
X1.1754 Y-1.5079
X1.1881 Y-1.5143
X1.2011 Y-1.52
X1.2144 Y-1.5251
X1.2279 Y-1.5296
X1.2416 Y-1.5334
X1.2555 Y-1.5365
X1.2695 Y-1.5389
X1.2836 Y-1.5407
X1.2978 Y-1.5417
X1.312 Y-1.5421
X1.3262 Y-1.5418
X1.3404 Y-1.5408
X1.3545 Y-1.5391
X1.3686 Y-1.5367
X1.3826 Y-1.5336
X1.3964 Y-1.5298
X1.4102 Y-1.5254
X1.4237 Y-1.5202
X1.4371 Y-1.5144
X1.4502 Y-1.5079
X1.4631 Y-1.5007
X1.4757 Y-1.4928
X1.4879 Y-1.4843
X1.4999 Y-1.4752
X1.5114 Y-1.4654
X1.5225 Y-1.455
X1.5331 Y-1.4441
X1.5431 Y-1.4326
X1.5527 Y-1.4206
X1.5616 Y-1.4081
X1.57 Y-1.3952
X1.5777 Y-1.382
X1.5848 Y-1.3683
X1.5911 Y-1.3544
X1.5968 Y-1.3401
X1.6018 Y-1.3257
X1.6061 Y-1.311
X1.6096 Y-1.2962
X1.6124 Y-1.2813
X1.6145 Y-1.2662
X1.6158 Y-1.2512
X1.6164 Y-1.2361
X1.6162 Y-1.221
X1.6154 Y-1.206
X1.6138 Y-1.1911
X1.6114 Y-1.1763
X1.6084 Y-1.1617
X1.6047 Y-1.1472
X1.6002 Y-1.1329
X1.5951 Y-1.1189
X1.5893 Y-1.1052
X1.5829 Y-1.0918
X1.5758 Y-1.0786
X1.5681 Y-1.0659
X1.5597 Y-1.0535
X1.5508 Y-1.0416
X1.5412 Y-1.03
X1.5311 Y-1.019
X1.5205 Y-1.0084
X1.5094 Y-0.9983
X1.4977 Y-0.9888
X1.4856 Y-0.9799
X1.473 Y-0.9715
X1.4601 Y-0.9637
X1.4467 Y-0.9566
X1.433 Y-0.9501
X1.4189 Y-0.9443
X1.4045 Y-0.9391
X1.3899 Y-0.9347
X1.3751 Y-0.9309
X1.36 Y-0.9279
X1.3448 Y-0.9256
X1.3295 Y-0.9241
X1.314 Y-0.9232
X1.2985
X1.283 Y-0.9239
X1.2675 Y-0.9253
X1.2521 Y-0.9276
X1.2368 Y-0.9305
X1.2216 Y-0.9342
X1.2066 Y-0.9387
X1.1918 Y-0.9439
X1.1772 Y-0.9498
X1.1629 Y-0.9564
X1.149 Y-0.9638
X1.1353 Y-0.9718
X1.1221 Y-0.9804
X1.1093 Y-0.9898
X1.097 Y-0.9997
X1.0851 Y-1.0103
X1.0738 Y-1.0214
X1.0629 Y-1.0331
X1.0527 Y-1.0453
X1.0431 Y-1.058
X1.034 Y-1.0711
X1.0257 Y-1.0847
X1.0179 Y-1.0987
X1.0109 Y-1.1131
X1.0046 Y-1.1278
X0.999 Y-1.1428
X0.9941 Y-1.1581
X0.99 Y-1.1736
X0.9866 Y-1.1893
X0.984 Y-1.2051
X0.9822 Y-1.2211
X0.9812 Y-1.2371
X0.9809 Y-1.2532
X0.9814 Y-1.2693
X0.9827 Y-1.2853
X0.9848 Y-1.3013
X0.9876 Y-1.3171
X0.9912 Y-1.3328
X0.9956 Y-1.3483
X1.0008 Y-1.3636
X1.0066 Y-1.3786
X1.0132 Y-1.3933
X1.0205 Y-1.4077
X1.0285 Y-1.4217
X1.0372 Y-1.4353
X1.0465 Y-1.4485
X1.0565 Y-1.4612
X1.0671 Y-1.4734
X1.0782 Y-1.4851
X1.0899 Y-1.4962
X1.1021 Y-1.5067
X1.1149 Y-1.5167
X1.1281 Y-1.526
X1.1417 Y-1.5346
X1.1557 Y-1.5426
X1.1702 Y-1.5499
X1.1849 Y-1.5564
X1.2 Y-1.5623
X1.2153 Y-1.5674
X1.2309 Y-1.5718
X1.2466 Y-1.5753
X1.2625 Y-1.5782
X1.2785 Y-1.5802
X1.2947 Y-1.5815
X1.3108 Y-1.582
X1.327 Y-1.5817
X1.3432 Y-1.5806
X1.3593 Y-1.5787
X1.3754 Y-1.576
X1.3914 Y-1.5725
X1.4072 Y-1.5683
X1.4229 Y-1.5632
X1.4383 Y-1.5574
X1.4535 Y-1.5508
X1.4685 Y-1.5435
X1.4831 Y-1.5354
X1.4974 Y-1.5265
X1.5113 Y-1.5169
X1.5248 Y-1.5066
X1.5378 Y-1.4957
X1.5503 Y-1.484
X1.5623 Y-1.4718
X1.5737 Y-1.4589
X1.5844 Y-1.4455
X1.5945 Y-1.4315
X1.604 Y-1.4171
X1.6127 Y-1.4022
X1.6206 Y-1.3869
X1.6278 Y-1.3713
X1.6343 Y-1.3553
X1.6399 Y-1.3391
X1.6448 Y-1.3226
X1.6488 Y-1.3059
X1.652 Y-1.2891
X1.6544 Y-1.2722
X1.656 Y-1.2552
X1.6567 Y-1.2381
X1.6566 Y-1.2211
X1.6557 Y-1.2041
X1.6539 Y-1.1873
X1.6514 Y-1.1705
X1.648 Y-1.1539
X1.6438 Y-1.1375
X1.6388 Y-1.1213
X1.6331 Y-1.1054
X1.6266 Y-1.0898
X1.6193 Y-1.0746
X1.6113 Y-1.0597
X1.6026 Y-1.0452
X1.5932 Y-1.0311
X1.5831 Y-1.0175
X1.5723 Y-1.0044
X1.5609 Y-0.9919
X1.5489 Y-0.9799
X1.5364 Y-0.9684
X1.5232 Y-0.9576
X1.5095 Y-0.9475
X1.4954 Y-0.9379
X1.4807 Y-0.9291
X1.4656 Y-0.921
X1.4501 Y-0.9136
X1.4343 Y-0.907
X1.4181 Y-0.9011
X1.4016 Y-0.896
X1.3848 Y-0.8917
X1.3679 Y-0.8882
X1.3507 Y-0.8856
X1.3334 Y-0.8838
X1.316 Y-0.8828
X1.2986 Y-0.8827
X1.2811 Y-0.8834
X1.2637 Y-0.885
X1.2463 Y-0.8874
X1.229 Y-0.8907
X1.2119 Y-0.8948
X1.195 Y-0.8998
X1.1783 Y-0.9056
X1.1619 Y-0.9122
X1.1458 Y-0.9196
X1.13 Y-0.9278
X1.1147 Y-0.9367
X1.0998 Y-0.9464
X1.0854 Y-0.9569
X1.0715 Y-0.968
X1.0581 Y-0.9798
X1.0453 Y-0.9923
X1.0331 Y-1.0054
X1.0215 Y-1.019
X1.0106 Y-1.0333
X1.0005 Y-1.048
X0.991 Y-1.0633
X0.9823 Y-1.079
X0.9743 Y-1.0951
X0.9672 Y-1.1116
X0.9608 Y-1.1284
X0.9553 Y-1.1456
X0.9506 Y-1.163
X0.9468 Y-1.1806
X0.9438 Y-1.1984
X0.9417 Y-1.2163
X0.9404 Y-1.2343
X0.9401 Y-1.2524
X0.9406 Y-1.2704
X0.942 Y-1.2884
X0.9442 Y-1.3064
X0.9474 Y-1.3242
X0.9514 Y-1.3418
X0.9563 Y-1.3593
X0.962 Y-1.3764
X0.9685 Y-1.3933
X0.9759 Y-1.4099
X0.984 Y-1.426
X0.9929 Y-1.4418
X1.0026 Y-1.4571
X1.013 Y-1.4719
X1.0242 Y-1.4862
X1.036 Y-1.5
X1.0485 Y-1.5131
X1.0616 Y-1.5257
X1.0753 Y-1.5375
X1.0895 Y-1.5487
X1.1043 Y-1.5592
X1.1196 Y-1.569
X1.1353 Y-1.578
X1.1515 Y-1.5862
X1.1681 Y-1.5937
X1.1849 Y-1.6003
X1.2021 Y-1.6061
X1.2196 Y-1.6111
X1.2373 Y-1.6152
X1.2551 Y-1.6184
X1.2732 Y-1.6208
X1.2913 Y-1.6222
X1.3095 Y-1.6228
X1.3277 Y-1.6226
X1.3459 Y-1.6214
X1.3641 Y-1.6193
X1.3822 Y-1.6164
X1.4002 Y-1.6125
X1.418 Y-1.6078
X1.4356 Y-1.6022
X1.453 Y-1.5957
X1.4701 Y-1.5884
X1.4869 Y-1.5802
X1.5034 Y-1.5711
X1.5194 Y-1.5613
X1.535 Y-1.5506
X1.5501 Y-1.5392
X1.5647 Y-1.527
X1.5786 Y-1.5141
X1.592 Y-1.5004
X1.6047 Y-1.4862
X1.6167 Y-1.4713
X1.628 Y-1.4558
X1.6386 Y-1.4398
X1.6483 Y-1.4232
X1.6573 Y-1.4063
X1.6653 Y-1.3889
X1.6726 Y-1.3711
X1.6789 Y-1.353
X1.6844 Y-1.3347
X1.689 Y-1.3161
X1.6926 Y-1.2973
X1.6953 Y-1.2784
X1.6971 Y-1.2594
X1.698 Y-1.2404
Y-1.2214
X1.697 Y-1.2024
X1.6951 Y-1.1835
X1.6923 Y-1.1647
X1.6886 Y-1.1461
X1.6839 Y-1.1277
X1.6784 Y-1.1096
X1.6721 Y-1.0918
X1.6648 Y-1.0743
X1.6567 Y-1.0572
X1.6478 Y-1.0404
X1.6381 Y-1.0242
X1.6276 Y-1.0084
X1.6164 Y-0.9931
X1.6044 Y-0.9784
X1.5917 Y-0.9643
X1.5783 Y-0.9508
X1.5642 Y-0.938
X1.5496 Y-0.9258
X1.5343 Y-0.9144
X1.5185 Y-0.9037
X1.5021 Y-0.8937
X1.4853 Y-0.8846
X1.468 Y-0.8763
X1.4503 Y-0.8688
X1.4322 Y-0.8622
X1.4138 Y-0.8564
X1.3951 Y-0.8516
X1.3762 Y-0.8476
X1.357 Y-0.8446
X1.3377 Y-0.8425
X1.3183 Y-0.8414
X1.2989 Y-0.8412
X1.2794 Y-0.8419
X1.2599 Y-0.8436
X1.2405 Y-0.8463
X1.2213 Y-0.8499
X1.2022 Y-0.8544
X1.1833 Y-0.8599
X1.1647 Y-0.8663
X1.1464 Y-0.8735
X1.1284 Y-0.8817
X1.1109 Y-0.8908
X1.0938 Y-0.9007
X1.0771 Y-0.9115
X1.061 Y-0.923
X1.0455 Y-0.9354
X1.0306 Y-0.9484
X1.0163 Y-0.9623
X1.0027 Y-0.9768
X0.9897 Y-0.992
X0.9776 Y-1.0078
X0.9662 Y-1.0241
X0.9556 Y-1.0411
X0.9458 Y-1.0585
X0.9369 Y-1.0764
X0.9289 Y-1.0947
X0.9218 Y-1.1135
X0.9156 Y-1.1325
X0.9103 Y-1.1518
X0.9059 Y-1.1714
X0.9026 Y-1.1912
X0.9001 Y-1.2111
X0.8987 Y-1.2312
X0.8982 Y-1.2512
X0.8987 Y-1.2713
X0.9002 Y-1.2914
X0.9027 Y-1.3113
X0.9061 Y-1.3312
X0.9105 Y-1.3508
X0.9158 Y-1.3702
X0.9221 Y-1.3893
X0.9293 Y-1.4081
X0.9374 Y-1.4266
X0.9465 Y-1.4446
X0.9563 Y-1.4622
X0.967 Y-1.4792
X0.9786 Y-1.4958
X0.9909 Y-1.5117
X1.004 Y-1.527
X1.0178 Y-1.5417
X1.0324 Y-1.5557
X1.0475 Y-1.569
X1.0634 Y-1.5815
X1.0798 Y-1.5932
X1.0967 Y-1.6041
X1.1142 Y-1.6142
X1.1322 Y-1.6234
X1.1505 Y-1.6318
X1.1693 Y-1.6392
X1.1884 Y-1.6457
X1.2078 Y-1.6513
X1.2275 Y-1.6559
X1.2474 Y-1.6596
X1.2674 Y-1.6623
X1.2876 Y-1.664
X1.3079 Y-1.6647
X1.3282 Y-1.6645
X1.3485 Y-1.6632
X1.3687 Y-1.661
X1.3889 Y-1.6578
X1.4089 Y-1.6536
X1.4288 Y-1.6484
X1.4484 Y-1.6422
X1.4678 Y-1.6351
X1.4868 Y-1.627
X1.5055 Y-1.618
X1.5238 Y-1.608
X1.5416 Y-1.5971
X1.5589 Y-1.5854
X1.5757 Y-1.5728
X1.5918 Y-1.5593
X1.6073 Y-1.5451
X1.6222 Y-1.5301
X1.6363 Y-1.5144
X1.6496 Y-1.498
X1.6621 Y-1.4809
X1.6738 Y-1.4632
X1.6847 Y-1.445
X1.6946 Y-1.4263
X1.7036 Y-1.4071
X1.7117 Y-1.3875
X1.7188 Y-1.3675
X1.7249 Y-1.3472
X1.73 Y-1.3267
X1.7341 Y-1.3059
X1.7372 Y-1.285
X1.7393 Y-1.264
X1.7403 Y-1.2429
Y-1.2218
X1.7393 Y-1.2008
X1.7373 Y-1.1798
X1.7342 Y-1.159
X1.7302 Y-1.1384
X1.7251 Y-1.118
X1.7191 Y-1.0978
X1.7121 Y-1.078
X1.7041 Y-1.0586
X1.6952 Y-1.0395
X1.6854 Y-1.0209
X1.6747 Y-1.0028
X1.6631 Y-0.9853
X1.6506 Y-0.9683
X1.6374 Y-0.952
X1.6234 Y-0.9362
X1.6085 Y-0.9212
X1.593 Y-0.9069
X1.5768 Y-0.8934
X1.5599 Y-0.8806
X1.5424 Y-0.8687
X1.5243 Y-0.8577
X1.5057 Y-0.8475
X1.4866 Y-0.8382
X1.467 Y-0.8298
X1.447 Y-0.8224
X1.4266 Y-0.816
X1.406 Y-0.8106
X1.385 Y-0.8061
X1.3639 Y-0.8027
X1.3425 Y-0.8004
X1.3211 Y-0.799
X1.2995 Y-0.7987
X1.278 Y-0.7995
X1.2565 Y-0.8013
X1.235 Y-0.8041
X1.2137 Y-0.808
X1.1926 Y-0.813
X1.1717 Y-0.8189
X1.1512 Y-0.8259
X1.1309 Y-0.8339
X1.1111 Y-0.8429
X1.0916 Y-0.8528
X1.0727 Y-0.8637
X1.0543 Y-0.8755
X1.0365 Y-0.8882
X1.0193 Y-0.9018
X1.0027 Y-0.9162
X0.9869 Y-0.9314
X0.9718 Y-0.9474
X0.9575 Y-0.9641
X0.944 Y-0.9814
X0.9314 Y-0.9995
X0.9196 Y-1.0181
X0.9088 Y-1.0373
X0.8989 Y-1.0571
X0.89 Y-1.0773
X0.882 Y-1.0979
X0.8751 Y-1.1189
X0.8692 Y-1.1402
X0.8644 Y-1.1618
X0.8605 Y-1.1836
X0.8578 Y-1.2056
X0.8561 Y-1.2276
X0.8555 Y-1.2498
X0.856 Y-1.272
X0.8576 Y-1.2941
X0.8602 Y-1.3161
X0.8639 Y-1.338
X0.8687 Y-1.3597
X0.8745 Y-1.3811
X0.8814 Y-1.4022
X0.8893 Y-1.423
X0.8982 Y-1.4434
X0.908 Y-1.4633
X0.9189 Y-1.4827
X0.9306 Y-1.5015
X0.9433 Y-1.5198
X0.9568 Y-1.5375
X0.9712 Y-1.5544
X0.9864 Y-1.5707
X1.0024 Y-1.5861
X1.0191 Y-1.6008
X1.0365 Y-1.6147
X1.0545 Y-1.6277
X1.0732 Y-1.6398
X1.0924 Y-1.651
X1.1122 Y-1.6612
X1.1325 Y-1.6705
X1.1531 Y-1.6787
X1.1742 Y-1.686
X1.1956 Y-1.6922
X1.2173 Y-1.6974
X1.2392 Y-1.7015
X1.2613 Y-1.7046
X1.2836 Y-1.7066
X1.3059 Y-1.7074
X1.3283 Y-1.7072
X1.3508 Y-1.706
X1.3731 Y-1.7036
X1.3954 Y-1.7001
X1.4175 Y-1.6955
X1.4394 Y-1.6899
X1.461 Y-1.6832
X1.4824 Y-1.6754
X1.5034 Y-1.6665
X1.524 Y-1.6567
X1.5441 Y-1.6458
X1.5638 Y-1.6339
X1.5828 Y-1.621
X1.6013 Y-1.6072
X1.6191 Y-1.5925
X1.6362 Y-1.577
X1.6525 Y-1.5605
X1.6681 Y-1.5433
X1.6828 Y-1.5254
X1.6966 Y-1.5067
X1.7095 Y-1.4873
X1.7214 Y-1.4674
X1.7324 Y-1.4469
X1.7423 Y-1.4258
X1.7513 Y-1.4043
X1.7591 Y-1.3825
X1.7659 Y-1.3602
X1.7716 Y-1.3377
X1.7762 Y-1.3149
X1.7797 Y-1.2919
X1.782 Y-1.2689
X1.7833 Y-1.2457
Y-1.2225
X1.7823 Y-1.1994
X1.7802 Y-1.1763
X1.7769 Y-1.1534
X1.7725 Y-1.1307
X1.767 Y-1.1082
X1.7604 Y-1.086
X1.7528 Y-1.0642
X1.7441 Y-1.0428
X1.7344 Y-1.0218
X1.7237 Y-1.0013
X1.7119 Y-0.9814
X1.6993 Y-0.962
X1.6856 Y-0.9433
X1.6711 Y-0.9253
X1.6557 Y-0.9079
X1.6395 Y-0.8914
X1.6225 Y-0.8756
X1.6047 Y-0.8606
X1.5862 Y-0.8466
X1.567 Y-0.8334
X1.5471 Y-0.8212
X1.5267 Y-0.8099
X1.5057 Y-0.7996
X1.4843 Y-0.7904
X1.4623 Y-0.7822
X1.44 Y-0.7751
X1.4173 Y-0.769
X1.3943 Y-0.7641
X1.3711 Y-0.7602
X1.3477 Y-0.7576
X1.3241 Y-0.756
X1.3005 Y-0.7556
X1.2769 Y-0.7563
X1.2533 Y-0.7582
X1.2297 Y-0.7613
X1.2064 Y-0.7655
X1.1832 Y-0.7708
X1.1603 Y-0.7773
X1.1377 Y-0.7849
X1.1155 Y-0.7936
X1.0937 Y-0.8033
X1.0723 Y-0.8141
X1.0515 Y-0.826
X1.0313 Y-0.8389
X1.0117 Y-0.8527
X0.9928 Y-0.8675
X0.9747 Y-0.8832
X0.9573 Y-0.8998
X0.9407 Y-0.9173
X0.925 Y-0.9355
X0.9101 Y-0.9545
X0.8962 Y-0.9742
X0.8833 Y-0.9946
X0.8713 Y-1.0156
X0.8604 Y-1.0372
X0.8506 Y-1.0593
X0.8418 Y-1.0818
X0.8341 Y-1.1048
X0.8276 Y-1.1281
X0.8222 Y-1.1517
X0.818 Y-1.1756
X0.8149 Y-1.1996
X0.813 Y-1.2238
X0.8122 Y-1.2481
X0.8127 Y-1.2723
X0.8143 Y-1.2966
X0.8171 Y-1.3207
X0.8211 Y-1.3447
X0.8262 Y-1.3684
X0.8325 Y-1.3919
X0.84 Y-1.4151
X0.8485 Y-1.4378
X0.8582 Y-1.4602
X0.8689 Y-1.482
X0.8807 Y-1.5033
X0.8935 Y-1.524
X0.9073 Y-1.544
X0.9221 Y-1.5634
X0.9377 Y-1.582
X0.9543 Y-1.5998
X0.9717 Y-1.6168
X0.99 Y-1.633
X1.009 Y-1.6482
X1.0287 Y-1.6625
X1.0491 Y-1.6759
X1.0701 Y-1.6882
X1.0917 Y-1.6994
X1.1138 Y-1.7097
X1.1365 Y-1.7188
X1.1595 Y-1.7268
X1.1829 Y-1.7337
X1.2066 Y-1.7395
X1.2306 Y-1.7441
X1.2548 Y-1.7475
X1.2792 Y-1.7497
X1.3037 Y-1.7508
X1.3283 Y-1.7507
X1.3528 Y-1.7493
X1.3773 Y-1.7468
X1.4017 Y-1.7431
X1.4259 Y-1.7382
X1.4499 Y-1.7321
X1.4736 Y-1.7248
X1.497 Y-1.7163
X1.52 Y-1.7068
X1.5425 Y-1.6961
X1.5645 Y-1.6842
X1.586 Y-1.6713
X1.6069 Y-1.6574
X1.6271 Y-1.6424
X1.6465 Y-1.6264
X1.6652 Y-1.6095
X1.6831 Y-1.5916
X1.7001 Y-1.5729
X1.7162 Y-1.5534
X1.7313 Y-1.5331
X1.7455 Y-1.512
X1.7586 Y-1.4903
X1.7706 Y-1.468
X1.7816 Y-1.4451
X1.7914 Y-1.4217
X1.8 Y-1.3979
X1.8075 Y-1.3736
X1.8138 Y-1.3491
X1.8189 Y-1.3242
X1.8228 Y-1.2992
X1.8254 Y-1.274
X1.8268 Y-1.2487
X1.827 Y-1.2234
X1.826 Y-1.1982
X1.8237 Y-1.173
X1.8202 Y-1.148
X1.8155 Y-1.1231
X1.8096 Y-1.0986
X1.8025 Y-1.0743
X1.7942 Y-1.0505
X1.7848 Y-1.027
X1.7743 Y-1.0041
X1.7626 Y-0.9817
X1.7499 Y-0.9599
X1.7361 Y-0.9387
X1.7213 Y-0.9182
X1.7055 Y-0.8984
X1.6888 Y-0.8794
X1.6711 Y-0.8613
X1.6526 Y-0.844
X1.6332 Y-0.8276
X1.6131 Y-0.8122
X1.5922 Y-0.7977
X1.5706 Y-0.7843
X1.5483 Y-0.7719
X1.5254 Y-0.7606
X1.502 Y-0.7505
X1.4781 Y-0.7414
X1.4538 Y-0.7336
X1.4291 Y-0.7269
X1.404 Y-0.7214
X1.3787 Y-0.7172
X1.3532 Y-0.7141
X1.3276 Y-0.7124
X1.3018 Y-0.7118
X1.276 Y-0.7126
X1.2503 Y-0.7145
X1.2246 Y-0.7178
X1.1992 Y-0.7223
X1.1739 Y-0.728
X1.1489 Y-0.735
X1.1243 Y-0.7431
X1.1 Y-0.7525
X1.0762 Y-0.7631
X1.053 Y-0.7748
X1.0303 Y-0.7876
X1.0082 Y-0.8015
X0.9869 Y-0.8165
X0.9662 Y-0.8326
X0.9464 Y-0.8496
X0.9274 Y-0.8676
X0.9093 Y-0.8866
X0.8921 Y-0.9064
X0.8759 Y-0.927
X0.8607 Y-0.9484
X0.8465 Y-0.9705
X0.8335 Y-0.9933
X0.8215 Y-1.0168
X0.8107 Y-1.0408
X0.8011 Y-1.0653
X0.7927 Y-1.0902
X0.7854 Y-1.1156
X0.7795 Y-1.1412
X0.7748 Y-1.1672
X0.7713 Y-1.1934
X0.7692 Y-1.2197
X0.7683 Y-1.2461
X0.7687 Y-1.2725
X0.7704 Y-1.2988
X0.7733 Y-1.3251
X0.7776 Y-1.3512
X0.7831 Y-1.377
X0.7899 Y-1.4026
X0.7979 Y-1.4278
X0.8071 Y-1.4526
X0.8175 Y-1.4769
X0.8291 Y-1.5007
X0.8418 Y-1.5239
X0.8557 Y-1.5465
X0.8706 Y-1.5684
X0.8866 Y-1.5895
X0.9036 Y-1.6098
X0.9216 Y-1.6293
X0.9405 Y-1.6478
X0.9568 Y-1.6621
X0.9592 Y-1.6639
X0.9889 Y-1.6859
X1.0386 Y-1.7187
X1.0536 Y-1.7273
G3 X1.078 Y-1.6838 I0.0109 J0.0225
G1 X1.018 Y-1.6453
G3 X0.9889 Y-1.6859 I-0.0135 J-0.021
G1 X1.0141 Y-1.7046
X1.0225 Y-1.7103
X1.0572 Y-1.7292
X1.0646 Y-1.7331
X1.0814 Y-1.7417
X1.1097 Y-1.7544
X1.1668 Y-1.7739
X1.199 Y-1.7813
X1.2509 Y-1.7906
X1.2579 Y-1.7914
X1.3167 Y-1.7933
X1.3433 Y-1.7934
X1.4008 Y-1.7861
X1.426 Y-1.7818
X1.4351 Y-1.7797
X1.4848 Y-1.7655
X1.4932 Y-1.7627
X1.5184 Y-1.7529
X1.5713 Y-1.7286
X1.5773 Y-1.7256
X1.6361 Y-1.6869
X1.6529 Y-1.6742
X1.6949 Y-1.636
X1.7117 Y-1.6192
X1.7285 Y-1.599
X1.7538 Y-1.5678
X1.7622 Y-1.5565
X1.7958 Y-1.4992
X1.8099 Y-1.4686
X1.8299 Y-1.4181
X1.8329 Y-1.4097
X1.8464 Y-1.3509
X1.8511 Y-1.3257
X1.8538 Y-1.292
X1.8557 Y-1.2668
X1.8558 Y-1.2332
X1.8519 Y-1.1827
X1.851 Y-1.1743
X1.8462 Y-1.1479
X1.8327 Y-1.0903
X1.82 Y-1.0566
X1.8098 Y-1.0314
X1.7958 Y-1.0006
X1.7622 Y-0.9437
X1.7526 Y-0.9305
X1.7182 Y-0.8885
X1.7109 Y-0.8801
X1.6943 Y-0.8633
X1.6529 Y-0.8259
X1.6358 Y-0.8128
X1.5773 Y-0.7744
X1.5519 Y-0.7624
X1.5145 Y-0.7456
X1.4932 Y-0.7371
X1.4764 Y-0.7321
X1.4344 Y-0.7202
X1.426 Y-0.7183
X1.4008 Y-0.7138
X1.3419 Y-0.7066
X1.3167
X1.2579 Y-0.7085
X1.2495 Y-0.7095
X1.1906 Y-0.7206
X1.1654 Y-0.7263
X1.1066 Y-0.7469
X1.0814 Y-0.7582
X1.0393 Y-0.7804
X1.0225 Y-0.7895
X1.0131 Y-0.796
X0.9449 Y-0.8464
X0.9385 Y-0.8511
X0.9133 Y-0.8643
X0.9049 Y-0.8683
X0.8956 Y-0.8731
X0.8819 Y-0.8815
X0.8746 Y-0.8867
X0.8661 Y-0.8934
X0.8576 Y-0.9009
X0.8479 Y-0.9102
X0.8383 Y-0.9204
X0.8277 Y-0.9328
X0.8172 Y-0.9464
X0.8065 Y-0.9618
X0.7955 Y-0.9794
X0.7845 Y-0.9988
X0.7743 Y-1.0192
X0.7648 Y-1.041
X0.7558 Y-1.0644
X0.7477 Y-1.0891
X0.7407 Y-1.1148
X0.7348 Y-1.1412
X0.7301 Y-1.1683
X0.7267 Y-1.1959
X0.7246 Y-1.2238
X0.7239 Y-1.252
X0.7246 Y-1.2802
X0.7267 Y-1.3085
X0.7301 Y-1.3367
X0.7349 Y-1.3648
X0.7411 Y-1.3926
X0.7486 Y-1.4201
X0.7575 Y-1.4473
X0.7677 Y-1.474
X0.7792 Y-1.5002
X0.792 Y-1.5258
X0.8059 Y-1.5508
X0.8211 Y-1.575
X0.8285 Y-1.5856
X0.8386 Y-1.5977
X0.8506 Y-1.608
X0.8643 Y-1.616
X0.879 Y-1.6215
X0.8881 Y-1.6244
X0.9151 Y-1.6367
X0.9385 Y-1.6489
X0.9592 Y-1.6639
G3 X0.9981 Y-1.6413 I0.014 J0.0207
G1 X0.9393 Y-0.8895
G3 X0.9049 Y-0.8683 I-0.0249 J-0.0019
G1 X0.8881 Y-0.8759
X0.8628 Y-0.8831
X0.8614 Y-0.8832
X0.8561 Y-0.8842
X0.846 Y-0.888
X0.8349 Y-0.8937
X0.8219 Y-0.9019
X0.8145 Y-0.9074
X0.8071 Y-0.9135
X0.7988 Y-0.921
X0.7906 Y-0.9291
X0.7815 Y-0.9392
X0.7726 Y-0.95
X0.7633 Y-0.9625
X0.7534 Y-0.9771
X0.7441 Y-0.9926
X0.7347 Y-1.01
X0.7253 Y-1.0296
X0.7163 Y-1.0511
X0.7081 Y-1.0738
X0.7007 Y-1.0975
X0.6967 Y-1.1133
X0.6945 Y-1.1252
X0.6938 Y-1.1373
X0.6948 Y-1.1494
X0.696 Y-1.1575
X0.6977 Y-1.1827
X0.7001 Y-1.2752
Y-1.292
X0.6983 Y-1.3089
X0.6971 Y-1.3283
X0.697 Y-1.3421
X0.6976 Y-1.358
X0.6991 Y-1.3756
X0.7016 Y-1.3941
X0.7055 Y-1.415
X0.7108 Y-1.4375
X0.7174 Y-1.4603
X0.7256 Y-1.4841
X0.7354 Y-1.5088
X0.747 Y-1.5341
X0.7565 Y-1.5526
X0.7673 Y-1.5709
X0.7759 Y-1.5822
X0.7861 Y-1.5921
X0.7976 Y-1.6004
X0.8102 Y-1.607
X0.8237 Y-1.6115
X0.8376 Y-1.6141
X0.8628 Y-1.617
X0.879 Y-1.6215
G3 X0.9067 Y-1.5849 I0.0059 J0.0243
G1 X0.7447 Y-1.3001
G3 X0.6983 Y-1.3089 I-0.0217 J-0.0124
G1 X0.687 Y-1.4013
X0.6863 Y-1.4047
X0.685 Y-1.4149
X0.684 Y-1.4312
X0.6841 Y-1.4405
X0.6848 Y-1.4517
X0.686 Y-1.4632
X0.6882 Y-1.477
X0.6912 Y-1.4911
X0.6951 Y-1.5062
X0.6999 Y-1.5214
X0.7045 Y-1.5339
X0.7095 Y-1.5457
X0.714 Y-1.5551
X0.7192 Y-1.5646
X0.7237 Y-1.5721
X0.7294 Y-1.5804
X0.7399 Y-1.5921
X0.7523 Y-1.6018
X0.7662 Y-1.6092
X0.7811 Y-1.614
X0.7967 Y-1.6161
X0.8124 Y-1.6155
X0.8376 Y-1.6141
G3 X0.8559 Y-1.5749 I-0.0023 J0.0249
G1 X0.7313 Y-1.3959
G3 X0.6863 Y-1.4047 I-0.0205 J-0.0143
G1 X0.6823 Y-1.4266
X0.6729 Y-1.4602
X0.6697 Y-1.4753
X0.6684 Y-1.4878
Y-1.5025
X0.6699 Y-1.5188
X0.6714 Y-1.5273
X0.6732 Y-1.5359
X0.6777 Y-1.5512
X0.6837 Y-1.566
X0.6906 Y-1.579
X0.7 Y-1.5916
X0.7115 Y-1.6023
X0.7247 Y-1.6108
X0.7393 Y-1.6169
X0.7546 Y-1.6204
X0.7703 Y-1.6211
X0.7859 Y-1.619
G3 X0.8006 Y-1.5812 I-0.0063 J0.0242
G1 X0.7176 Y-1.4541
G3 X0.6729 Y-1.4602 I-0.0209 J-0.0137
G1 X0.6574 Y-1.5153
X0.6552 Y-1.5258
X0.6543 Y-1.5366
X0.6546 Y-1.5474
X0.6562 Y-1.5583
X0.6588 Y-1.5688
X0.6626 Y-1.5793
X0.6673 Y-1.589
X0.6734 Y-1.5989
X0.6827 Y-1.6096
X0.6939 Y-1.6183
X0.7065 Y-1.6247
X0.7201 Y-1.6287
X0.7343 Y-1.63
X0.7484 Y-1.6287
X0.762 Y-1.6247
X0.7859 Y-1.619
G3 X0.7943 Y-1.5746 I-0.0063 J0.0242
G1 X0.6958 Y-1.5029
G3 X0.6574 Y-1.5153 I-0.0147 J-0.0202
G1 X0.6514 Y-1.5359
X0.6476 Y-1.5457
X0.6457 Y-1.5507
X0.6443 Y-1.5559
X0.6434 Y-1.5613
X0.6431 Y-1.5666
Y-1.572
X0.6435 Y-1.5774
X0.6456 Y-1.588
X0.649 Y-1.5982
X0.6556 Y-1.6097
X0.6642 Y-1.6198
X0.6745 Y-1.628
X0.6862 Y-1.6341
X0.6989 Y-1.6379
X0.7121 Y-1.6392
X0.7252 Y-1.638
X0.7379 Y-1.6343
G3 X0.7451 Y-1.5933 I-0.0101 J0.0229
G1 X0.6874 Y-1.5383
G3 X0.6476 Y-1.5457 I-0.0172 J-0.0181
G1 X0.637 Y-1.5695
X0.635 Y-1.5745
X0.6335 Y-1.5797
X0.6327 Y-1.585
X0.6325 Y-1.5904
X0.6328 Y-1.5958
X0.6336 Y-1.6012
X0.6381 Y-1.6136
X0.6451 Y-1.6247
X0.6544 Y-1.6341
X0.6655 Y-1.6413
X0.6778 Y-1.6459
X0.6909 Y-1.6478
X0.704 Y-1.6469
X0.7167 Y-1.6431
G3 X0.7224 Y-1.6014 I-0.0104 J0.0227
G1 X0.6756 Y-1.5615
G3 X0.637 Y-1.5695 I-0.0162 J-0.019
G1 X0.6275 Y-1.5904
X0.6255 Y-1.5955
X0.6243 Y-1.6007
X0.6238 Y-1.6061
X0.6241 Y-1.6115
X0.6272 Y-1.6229
X0.6328 Y-1.6333
X0.6406 Y-1.6422
X0.6503 Y-1.6491
X0.6612 Y-1.6537
X0.6728 Y-1.6557
X0.6846 Y-1.655
X0.696 Y-1.6517
G3 X0.7182 Y-1.6264 I-0.0171 J0.0373
X0.6275 Y-1.5904 I-0.0468 J0.0142
G1 X0.6196 Y-1.6079
X0.6177 Y-1.6129
X0.6167 Y-1.6182
X0.6166 Y-1.6236
X0.6171 Y-1.6289
X0.621 Y-1.6392
X0.6273 Y-1.6482
X0.6355 Y-1.6553
X0.6453 Y-1.6603
X0.656 Y-1.6627
X0.6669 Y-1.6624
X0.6774 Y-1.6595
G3 X0.6961 Y-1.6381 I-0.0144 J0.0314
X0.6196 Y-1.6079 I-0.0395 J0.0119
G1 X0.6131 Y-1.6223
X0.6112 Y-1.6273
X0.6102 Y-1.6326
Y-1.638
X0.613 Y-1.6472
X0.618 Y-1.6553
X0.6249 Y-1.6619
X0.6333 Y-1.6665
X0.6425 Y-1.6688
X0.6521 Y-1.6687
X0.6613 Y-1.6662
G3 X0.6772 Y-1.6484 I-0.0124 J0.0271
X0.6131 Y-1.6223 I-0.033 J0.0108
G1 X0.6069 Y-1.636
X0.605 Y-1.641
X0.6044 Y-1.6464
X0.6068 Y-1.6557
X0.612 Y-1.6639
X0.6194 Y-1.67
X0.6284 Y-1.6736
X0.638 Y-1.6743
X0.6474 Y-1.672
G3 X0.6604 Y-1.6571 I-0.0101 J0.0219
X0.6069 Y-1.636 I-0.0276 J0.0083
G1 X0.603 Y-1.6451
X0.602 Y-1.6508
X0.6023 Y-1.657
X0.6037 Y-1.662
X0.6059 Y-1.6662
X0.6091 Y-1.6704
X0.6128 Y-1.6736
X0.617 Y-1.676
X0.6233 Y-1.678
X0.6275 Y-1.6783
X0.6317 Y-1.6779
X0.6359 Y-1.6768
X0.7452 Y-1.6314
X0.762 Y-1.6247
G3 X0.7766 Y-1.6058 I-0.0101 J0.0229
G1 X0.8884 Y-0.9121
G3 X0.8614 Y-0.8832 I-0.0247 J0.004
G1 X0.8376 Y-0.8858
X0.8362 Y-0.8857
X0.8308 Y-0.8856
X0.8255 Y-0.8861
X0.8149 Y-0.8883
X0.8047 Y-0.8917
X0.7934 Y-0.8968
X0.7806 Y-0.9042
X0.7734 Y-0.9091
X0.7662 Y-0.9145
X0.7583 Y-0.9211
X0.7504 Y-0.9284
X0.7421 Y-0.9368
X0.7331 Y-0.9468
X0.7245 Y-0.9574
X0.7153 Y-0.97
X0.7058 Y-0.9842
X0.6969 Y-0.9993
X0.6899 Y-1.0125
X0.6839 Y-1.0266
X0.6803 Y-1.0415
X0.6792 Y-1.0567
X0.6807 Y-1.072
X0.6948 Y-1.1494
G3 X0.7418 Y-1.1559 I0.0246 J0.0045
G1 X0.8563 Y-0.9215
G3 X0.8362 Y-0.8857 I-0.0225 J0.011
G1 X0.8124 Y-0.8842
X0.804 Y-0.8832
X0.7986 Y-0.8828
X0.7932 Y-0.883
X0.7825 Y-0.8844
X0.7721 Y-0.8872
X0.7607 Y-0.8915
X0.748 Y-0.8977
X0.7412 Y-0.9017
X0.7339 Y-0.9064
X0.7261 Y-0.9121
X0.7184 Y-0.9183
X0.71 Y-0.9257
X0.7015 Y-0.9339
X0.6901 Y-0.9465
X0.6814 Y-0.9588
X0.6748 Y-0.9723
X0.6704 Y-0.9868
X0.6686 Y-1.0018
X0.6692 Y-1.0168
X0.6722 Y-1.0316
X0.6746 Y-1.0398
X0.6807 Y-1.072
G3 X0.7266 Y-1.0795 I0.0244 J0.0054
G1 X0.8217 Y-0.9208
G3 X0.804 Y-0.8832 I-0.0214 J0.0129
G1 X0.7872 Y-0.8812
X0.7763 Y-0.8788
X0.7709 Y-0.8778
X0.7656 Y-0.8773
X0.7602 Y-0.8772
X0.7494 Y-0.8783
X0.7388 Y-0.8806
X0.7273 Y-0.8843
X0.7147 Y-0.8898
X0.7025 Y-0.8967
X0.6917 Y-0.9041
X0.6804 Y-0.915
X0.6711 Y-0.9278
X0.6642 Y-0.9419
X0.6598 Y-0.9571
X0.6582 Y-0.9728
X0.6593 Y-0.9885
X0.6631 Y-1.0038
X0.6722 Y-1.0316
G3 X0.7173 Y-1.0367 I0.0237 J0.0079
G1 X0.7911 Y-0.9159
G3 X0.7763 Y-0.8788 I-0.0213 J0.013
G1 X0.762 Y-0.8753
X0.7536 Y-0.872
X0.7485 Y-0.8702
X0.7432 Y-0.8689
X0.7379 Y-0.868
X0.7325 Y-0.8677
X0.7217 Y-0.8681
X0.7111 Y-0.87
X0.7008 Y-0.8731
X0.6909 Y-0.8774
X0.6861 Y-0.8799
X0.6739 Y-0.889
X0.6636 Y-0.9003
X0.6558 Y-0.9133
X0.6506 Y-0.9276
X0.6482 Y-0.9427
X0.6488 Y-0.9579
X0.6524 Y-0.9727
X0.6631 Y-1.0038
G3 X0.7081 Y-1.0072 I0.0233 J0.009
G1 X0.7652 Y-0.9072
G3 X0.7536 Y-0.872 I-0.0217 J0.0124
G1 X0.7258 Y-0.8607
X0.7207 Y-0.8589
X0.7155 Y-0.8576
X0.7101 Y-0.8569
X0.7047 Y-0.8567
X0.6993 Y-0.8571
X0.6937 Y-0.8579
X0.68 Y-0.8625
X0.6676 Y-0.8698
X0.657 Y-0.8796
X0.6486 Y-0.8914
X0.6429 Y-0.9047
X0.6402 Y-0.9188
X0.6404 Y-0.9333
X0.6436 Y-0.9473
G3 X0.6857 Y-0.9549 I0.0233 J0.009
G1 X0.7342 Y-0.9
G3 X0.7258 Y-0.8607 I-0.0188 J0.0165
G1 X0.7032 Y-0.8512
X0.6981 Y-0.8494
X0.6928 Y-0.8483
X0.6874 Y-0.8478
X0.682 Y-0.848
X0.6767 Y-0.8487
X0.6714 Y-0.8499
X0.6608 Y-0.8547
X0.6513 Y-0.8615
X0.6434 Y-0.8701
X0.6374 Y-0.8801
X0.6335 Y-0.8911
X0.6319 Y-0.9026
X0.6326 Y-0.9143
X0.6357 Y-0.9256
G3 X0.6781 Y-0.9316 I0.023 J0.0098
G1 X0.7121 Y-0.8897
G3 X0.7032 Y-0.8512 I-0.0194 J0.0158
G1 X0.6838 Y-0.8432
X0.6787 Y-0.8413
X0.6734 Y-0.8403
X0.668 Y-0.8401
X0.6627 Y-0.8405
X0.6524 Y-0.8439
X0.6431 Y-0.8495
X0.6353 Y-0.857
X0.6294 Y-0.8661
X0.6256 Y-0.8762
X0.6242 Y-0.8869
X0.6252 Y-0.8977
X0.6285 Y-0.908
G3 X0.6524 Y-0.9279 I0.0345 J0.0172
X0.6838 Y-0.8432 I0.0125 J0.0435
G1 X0.667 Y-0.8362
X0.6619 Y-0.8343
X0.6566 Y-0.8335
X0.6512 Y-0.8337
X0.6458 Y-0.8345
X0.6364 Y-0.8388
X0.6283 Y-0.8453
X0.622 Y-0.8536
X0.6181 Y-0.8632
X0.6166 Y-0.8735
X0.6176 Y-0.8838
X0.6212 Y-0.8936
G3 X0.6405 Y-0.9087 I0.0278 J0.0157
X0.667 Y-0.8362 I0.0103 J0.0373
G1 X0.6527 Y-0.8302
X0.6476 Y-0.8284
X0.6423 Y-0.8277
X0.6369 Y-0.8281
X0.6283 Y-0.8314
X0.6208 Y-0.8368
X0.615 Y-0.8439
X0.6112 Y-0.8523
X0.6097 Y-0.8614
X0.6105 Y-0.8705
X0.6137 Y-0.8792
G3 X0.63 Y-0.8919 I0.0237 J0.0135
X0.6527 Y-0.8302 I0.0089 J0.0318
G1 X0.6397 Y-0.8248
X0.6346 Y-0.8229
X0.6292 Y-0.8226
X0.6202 Y-0.8256
X0.6124 Y-0.8312
X0.6069 Y-0.8389
X0.604 Y-0.848
X0.6041 Y-0.8576
X0.6071 Y-0.8666
G3 X0.6211 Y-0.8773 I0.0196 J0.0111
X0.6397 Y-0.8248 I0.007 J0.0271
G1 X0.6327 Y-0.822
X0.6275 Y-0.821
X0.6243 Y-0.8209
X0.6191 Y-0.8217
X0.6149 Y-0.8232
X0.6107 Y-0.8256
X0.6063 Y-0.8296
X0.6041 Y-0.8327
X0.6014 Y-0.838
X0.6002 Y-0.8422
X0.5999 Y-0.8464
X0.6002 Y-0.8506
X0.6012 Y-0.8549
X0.6054 Y-0.8633
X0.6281 Y-0.907
X0.6317 Y-0.9151
X0.6407 Y-0.9389
X0.6524 Y-0.9727
X0.653 Y-0.9737 Z-0.1797
X0.6536 Y-0.9748 Z-0.1795
X0.6542 Y-0.9758 Z-0.1791
X0.6548 Y-0.9767 Z-0.1786
X0.6553 Y-0.9776 Z-0.178
X0.6558 Y-0.9784 Z-0.1772
X0.6562 Y-0.9791 Z-0.1763
X0.6566 Y-0.9797 Z-0.1753
X0.6569 Y-0.9802 Z-0.1743
X0.6572 Y-0.9805 Z-0.1732
X0.6574 Y-0.9808 Z-0.1722
X0.6575 Y-0.9809 Z-0.1711
X0.6576 Y-0.981 Z-0.17
G0 Z0.1401
X1.3231 Y-1.1317
Z-0.0548
G1 Z-0.0798 F10.
G3 X1.3019 Y-1.3682 Z-0.0928 I-0.0106 J-0.1183 F3.333
X1.3231 Y-1.1317 Z-0.1059 I0.0106 J0.1183
X1.3019 Y-1.3682 Z-0.1189 I-0.0106 J-0.1183
X1.3231 Y-1.1317 Z-0.1319 I0.0106 J0.1183
X1.3019 Y-1.3682 Z-0.1449 I-0.0106 J-0.1183
X1.3231 Y-1.1317 Z-0.158 I0.0106 J0.1183
X1.3019 Y-1.3682 Z-0.171 I-0.0106 J-0.1183
X1.3231 Y-1.1317 Z-0.184 I0.0106 J0.1183
X1.3019 Y-1.3682 Z-0.1971 I-0.0106 J-0.1183
X1.3231 Y-1.1317 Z-0.2101 I0.0106 J0.1183
X1.3019 Y-1.3682 Z-0.2231 I-0.0106 J-0.1183
X1.4313 Y-1.25 Z-0.23 I0.0106 J0.1183
X1.1938 I-0.1188 J0.
X1.4313 I0.1188 J0.
G1 X1.4319 Y-1.213 F10.
X1.4327 Y-1.2084
X1.4331 Y-1.203
X1.433 Y-1.1976
X1.4324 Y-1.1923
X1.43 Y-1.1817
X1.4262 Y-1.1716
X1.4212 Y-1.162
X1.4153 Y-1.153
X1.4084 Y-1.1445
X1.4003 Y-1.1364
X1.3911 Y-1.1288
X1.3809 Y-1.1218
X1.3697 Y-1.1158
X1.3577 Y-1.1107
X1.3451 Y-1.1067
X1.3319 Y-1.104
X1.3183 Y-1.1025
X1.3045 Y-1.1024
X1.2906 Y-1.1036
X1.2768 Y-1.1061
X1.2633 Y-1.11
X1.2501 Y-1.1153
X1.2374 Y-1.1218
X1.2254 Y-1.1296
X1.2142 Y-1.1385
X1.2038 Y-1.1484
X1.1945 Y-1.1594
X1.1863 Y-1.1712
X1.1792 Y-1.1838
X1.1734 Y-1.197
X1.1689 Y-1.2108
X1.1658 Y-1.2249
X1.164 Y-1.2392
X1.1637 Y-1.2537
X1.1647 Y-1.2681
X1.1672 Y-1.2824
X1.171 Y-1.2964
X1.1762 Y-1.3099
X1.1827 Y-1.3229
X1.1904 Y-1.3351
X1.1992 Y-1.3466
X1.2091 Y-1.3572
X1.22 Y-1.3667
X1.2318 Y-1.3751
X1.2444 Y-1.3824
X1.2576 Y-1.3884
X1.2713 Y-1.3931
X1.2854 Y-1.3964
X1.2998 Y-1.3983
X1.3142 Y-1.3989
X1.3287 Y-1.398
X1.343 Y-1.3957
X1.357 Y-1.3921
X1.3707 Y-1.3871
X1.3837 Y-1.3808
X1.3961 Y-1.3732
X1.4077 Y-1.3645
X1.4184 Y-1.3547
X1.428 Y-1.3439
X1.4366 Y-1.3323
X1.444 Y-1.3198
X1.4506 Y-1.3058
X1.4542 Y-1.2964
X1.4592 Y-1.2812
X1.4626 Y-1.2691
X1.4649 Y-1.2587
X1.4665 Y-1.2492
X1.4676 Y-1.2405
X1.4684 Y-1.2242
X1.4677 Y-1.209
X1.4656 Y-1.1946
X1.4622 Y-1.1806
X1.4574 Y-1.1671
X1.4513 Y-1.1541
X1.444 Y-1.1416
X1.4353 Y-1.1298
X1.4254 Y-1.1187
X1.4142 Y-1.1084
X1.402 Y-1.0991
X1.3886 Y-1.0909
X1.3743 Y-1.084
X1.3592 Y-1.0784
X1.3435 Y-1.0743
X1.3354 Y-1.0727
X1.3272 Y-1.0716
X1.319 Y-1.0709
X1.3106 Y-1.0706
X1.3022 Y-1.0707
X1.2939 Y-1.0711
X1.2855 Y-1.0721
X1.2771 Y-1.0734
X1.2688 Y-1.0751
X1.2605 Y-1.0772
X1.2523 Y-1.0798
X1.2443 Y-1.0827
X1.2364 Y-1.0861
X1.2286 Y-1.0898
X1.221 Y-1.0939
X1.2136 Y-1.0984
X1.2064 Y-1.1033
X1.1995 Y-1.1085
X1.1928 Y-1.114
X1.1863 Y-1.1199
X1.1802 Y-1.1261
X1.1743 Y-1.1326
X1.1688 Y-1.1393
X1.1636 Y-1.1464
X1.1587 Y-1.1537
X1.1542 Y-1.1612
X1.1501 Y-1.169
X1.1464 Y-1.1769
X1.143 Y-1.185
X1.14 Y-1.1933
X1.1375 Y-1.2017
X1.1353 Y-1.2103
X1.1336 Y-1.2189
X1.1323 Y-1.2276
X1.1314 Y-1.2364
X1.1309 Y-1.2452
Y-1.254
X1.1313 Y-1.2628
X1.1321 Y-1.2716
X1.1334 Y-1.2803
X1.1351 Y-1.289
X1.1372 Y-1.2976
X1.1397 Y-1.3061
X1.1426 Y-1.3144
X1.146 Y-1.3226
X1.1497 Y-1.3306
X1.1538 Y-1.3384
X1.1583 Y-1.346
X1.1631 Y-1.3534
X1.1683 Y-1.3606
X1.1739 Y-1.3674
X1.1798 Y-1.374
X1.1859 Y-1.3804
X1.1924 Y-1.3864
X1.1992 Y-1.392
X1.2063 Y-1.3974
X1.2136 Y-1.4024
X1.2211 Y-1.407
X1.2288 Y-1.4113
X1.2368 Y-1.4152
X1.2449 Y-1.4186
X1.2532 Y-1.4217
X1.2616 Y-1.4244
X1.2702 Y-1.4267
X1.2788 Y-1.4285
X1.2876 Y-1.43
X1.2963 Y-1.431
X1.3052 Y-1.4315
X1.314 Y-1.4317
X1.3229 Y-1.4314
X1.3317 Y-1.4307
X1.3404 Y-1.4295
X1.3491 Y-1.428
X1.3578 Y-1.426
X1.3663 Y-1.4236
X1.3747 Y-1.4207
X1.3829 Y-1.4175
X1.391 Y-1.4139
X1.3989 Y-1.4099
X1.4065 Y-1.4055
X1.414 Y-1.4007
X1.4212 Y-1.3956
X1.4282 Y-1.3902
X1.4349 Y-1.3844
X1.4412 Y-1.3783
X1.4474 Y-1.3717
X1.4535 Y-1.3647
X1.4598 Y-1.3566
X1.4658 Y-1.3481
X1.4717 Y-1.3388
X1.4772 Y-1.3291
X1.4822 Y-1.3192
X1.4867 Y-1.309
X1.4907 Y-1.2988
X1.494 Y-1.2886
X1.4969 Y-1.2785
X1.4992 Y-1.2685
X1.5009 Y-1.2585
X1.5022 Y-1.2487
X1.5029 Y-1.239
X1.5032 Y-1.2294
X1.503 Y-1.2198
X1.5024 Y-1.2104
X1.5013 Y-1.2011
X1.4998 Y-1.1919
X1.4978 Y-1.1829
X1.4954 Y-1.174
X1.4926 Y-1.1653
X1.4894 Y-1.1567
X1.4857 Y-1.1483
X1.4817 Y-1.1401
X1.4772 Y-1.1321
X1.4724 Y-1.1243
X1.4672 Y-1.1167
X1.4616 Y-1.1094
X1.4556 Y-1.1023
X1.4493 Y-1.0955
X1.4426 Y-1.089
X1.4355 Y-1.0828
X1.4282 Y-1.0769
X1.4205 Y-1.0713
X1.4126 Y-1.0662
X1.4043 Y-1.0613
X1.3958 Y-1.0569
X1.387 Y-1.0529
X1.3781 Y-1.0492
X1.3689 Y-1.0461
X1.3595 Y-1.0433
X1.35 Y-1.041
X1.3403 Y-1.0392
X1.3305 Y-1.0378
X1.3206 Y-1.0369
X1.3106 Y-1.0365
X1.3006
X1.2906 Y-1.0371
X1.2806 Y-1.0381
X1.2706 Y-1.0397
X1.2607 Y-1.0417
X1.2509 Y-1.0442
X1.2411 Y-1.0472
X1.2315 Y-1.0507
X1.2221 Y-1.0546
X1.2128 Y-1.059
X1.2038 Y-1.0639
X1.195 Y-1.0692
X1.1864 Y-1.0749
X1.1781 Y-1.0811
X1.1701 Y-1.0877
X1.1624 Y-1.0946
X1.1551 Y-1.102
X1.1481 Y-1.1097
X1.1415 Y-1.1177
X1.1353 Y-1.1261
X1.1295 Y-1.1348
X1.1241 Y-1.1437
X1.1191 Y-1.1529
X1.1146 Y-1.1624
X1.1106 Y-1.172
X1.107 Y-1.1819
X1.1039 Y-1.1919
X1.1013 Y-1.202
X1.0992 Y-1.2123
X1.0976 Y-1.2227
X1.0966 Y-1.2331
X1.096 Y-1.2436
X1.0959 Y-1.2541
X1.0964 Y-1.2647
X1.0973 Y-1.2751
X1.0988 Y-1.2855
X1.1007 Y-1.2959
X1.1032 Y-1.3061
X1.1062 Y-1.3162
X1.1096 Y-1.3262
X1.1136 Y-1.3359
X1.118 Y-1.3455
X1.1228 Y-1.3549
X1.1282 Y-1.364
X1.1339 Y-1.3728
X1.1401 Y-1.3813
X1.1467 Y-1.3896
X1.1537 Y-1.3975
X1.161 Y-1.405
X1.1687 Y-1.4122
X1.1768 Y-1.419
X1.1852 Y-1.4254
X1.1939 Y-1.4314
X1.2028 Y-1.437
X1.2121 Y-1.4421
X1.2215 Y-1.4467
X1.2312 Y-1.4509
X1.2411 Y-1.4546
X1.2511 Y-1.4579
X1.2613 Y-1.4606
X1.2716 Y-1.4629
X1.282 Y-1.4646
X1.2925 Y-1.4658
X1.303 Y-1.4665
X1.3136 Y-1.4668
X1.3241 Y-1.4664
X1.3346 Y-1.4656
X1.3451 Y-1.4643
X1.3555 Y-1.4625
X1.3658 Y-1.4601
X1.376 Y-1.4573
X1.386 Y-1.4539
X1.3958 Y-1.4501
X1.4054 Y-1.4458
X1.4149 Y-1.4411
X1.4241 Y-1.4359
X1.4331 Y-1.4302
X1.4419 Y-1.4239
X1.4506 Y-1.4172
X1.4591 Y-1.4098
X1.4675 Y-1.4019
X1.4755 Y-1.3935
X1.4833 Y-1.3845
X1.4907 Y-1.3751
X1.4977 Y-1.3652
X1.5042 Y-1.355
X1.5102 Y-1.3445
X1.5157 Y-1.3338
X1.5206 Y-1.3228
X1.5249 Y-1.3117
X1.5287 Y-1.3004
X1.5319 Y-1.2891
X1.5346 Y-1.2777
X1.5366 Y-1.2663
X1.5381 Y-1.2548
X1.5391 Y-1.2434
X1.5394 Y-1.232
X1.5393 Y-1.2207
X1.5385 Y-1.2095
X1.5373 Y-1.1983
X1.5355 Y-1.1873
X1.5331 Y-1.1765
X1.5303 Y-1.1657
X1.5269 Y-1.1552
X1.5231 Y-1.1448
X1.5187 Y-1.1347
X1.5138 Y-1.1247
X1.5085 Y-1.1151
X1.5027 Y-1.1056
X1.4965 Y-1.0965
X1.4898 Y-1.0877
X1.4826 Y-1.0792
X1.4751 Y-1.071
X1.4671 Y-1.0632
X1.4587 Y-1.0557
X1.45 Y-1.0487
X1.4409 Y-1.0421
X1.4315 Y-1.0358
X1.4217 Y-1.0301
X1.4116 Y-1.0248
X1.4013 Y-1.02
X1.3907 Y-1.0157
X1.3798 Y-1.0119
X1.3688 Y-1.0086
X1.3575 Y-1.0058
X1.3461 Y-1.0036
X1.3346 Y-1.002
X1.323 Y-1.0009
X1.3113 Y-1.0003
X1.2996 Y-1.0004
X1.2878 Y-1.001
X1.276 Y-1.0022
X1.2643 Y-1.0039
X1.2527 Y-1.0063
X1.2411 Y-1.0092
X1.2297 Y-1.0126
X1.2185 Y-1.0167
X1.2074 Y-1.0213
X1.1966 Y-1.0264
X1.1859 Y-1.032
X1.1756 Y-1.0382
X1.1656 Y-1.0449
X1.1558 Y-1.0521
X1.1465 Y-1.0597
X1.1374 Y-1.0679
X1.1288 Y-1.0764
X1.1206 Y-1.0854
X1.1129 Y-1.0948
X1.1056 Y-1.1045
X1.0987 Y-1.1146
X1.0924 Y-1.1251
X1.0866 Y-1.1358
X1.0813 Y-1.1468
X1.0765 Y-1.1581
X1.0723 Y-1.1696
X1.0687 Y-1.1813
X1.0656 Y-1.1932
X1.0631 Y-1.2052
X1.0612 Y-1.2173
X1.0599 Y-1.2295
X1.0592 Y-1.2418
X1.0591 Y-1.2541
X1.0595 Y-1.2664
X1.0606 Y-1.2786
X1.0623 Y-1.2908
X1.0645 Y-1.3029
X1.0674 Y-1.3149
X1.0708 Y-1.3267
X1.0748 Y-1.3384
X1.0794 Y-1.3498
X1.0845 Y-1.3611
X1.0902 Y-1.372
X1.0964 Y-1.3827
X1.103 Y-1.393
X1.1102 Y-1.403
X1.1179 Y-1.4127
X1.1261 Y-1.422
X1.1346 Y-1.4308
X1.1436 Y-1.4393
X1.153 Y-1.4473
X1.1628 Y-1.4548
X1.173 Y-1.4618
X1.1834 Y-1.4684
X1.1942 Y-1.4744
X1.2053 Y-1.4799
X1.2166 Y-1.4848
X1.2281 Y-1.4892
X1.2398 Y-1.493
X1.2518 Y-1.4963
X1.2638 Y-1.499
X1.276 Y-1.501
X1.2882 Y-1.5025
X1.3006 Y-1.5034
X1.3129 Y-1.5037
X1.3252 Y-1.5034
X1.3376 Y-1.5024
X1.3498 Y-1.5009
X1.362 Y-1.4988
X1.374 Y-1.4961
X1.386 Y-1.4928
X1.3977 Y-1.489
X1.4094 Y-1.4845
X1.4208 Y-1.4794
X1.4321 Y-1.4738
X1.4432 Y-1.4675
X1.4541 Y-1.4607
X1.4647 Y-1.4533
X1.4751 Y-1.4453
X1.4851 Y-1.4367
X1.4948 Y-1.4275
X1.5041 Y-1.4178
X1.513 Y-1.4077
X1.5214 Y-1.397
X1.5293 Y-1.3859
X1.5367 Y-1.3745
X1.5435 Y-1.3627
X1.5497 Y-1.3506
X1.5553 Y-1.3382
X1.5603 Y-1.3256
X1.5647 Y-1.3128
X1.5684 Y-1.2999
X1.5714 Y-1.2868
X1.5739 Y-1.2737
X1.5756 Y-1.2605
X1.5768 Y-1.2473
X1.5772 Y-1.2341
X1.5771 Y-1.2209
X1.5763 Y-1.2078
X1.5748 Y-1.1948
X1.5728 Y-1.1819
X1.5701 Y-1.1692
X1.5668 Y-1.1566
X1.5629 Y-1.1442
X1.5584 Y-1.1321
X1.5533 Y-1.1202
X1.5477 Y-1.1085
X1.5415 Y-1.0971
X1.5347 Y-1.0861
X1.5274 Y-1.0753
X1.5196 Y-1.065
X1.5113 Y-1.055
X1.5025 Y-1.0454
X1.4932 Y-1.0362
X1.4835 Y-1.0275
X1.4733 Y-1.0192
X1.4627 Y-1.0115
X1.4517 Y-1.0042
X1.4404 Y-0.9975
X1.4287 Y-0.9913
X1.4167 Y-0.9856
X1.4044 Y-0.9806
X1.3918 Y-0.9761
X1.379 Y-0.9723
X1.366 Y-0.969
X1.3528 Y-0.9664
X1.3395 Y-0.9645
X1.326 Y-0.9632
X1.3125 Y-0.9625
X1.2989
X1.2853 Y-0.9632
X1.2717 Y-0.9645
X1.2582 Y-0.9665
X1.2448 Y-0.9691
X1.2314 Y-0.9724
X1.2183 Y-0.9764
X1.2053 Y-0.981
X1.1925 Y-0.9862
X1.1799 Y-0.9921
X1.1677 Y-0.9986
X1.1557 Y-1.0057
X1.1441 Y-1.0133
X1.1329 Y-1.0216
X1.1221 Y-1.0304
X1.1117 Y-1.0397
X1.1017 Y-1.0495
X1.0922 Y-1.0598
X1.0833 Y-1.0706
X1.0748 Y-1.0818
X1.0669 Y-1.0934
X1.0596 Y-1.1054
X1.0528 Y-1.1177
X1.0467 Y-1.1304
X1.0412 Y-1.1433
X1.0363 Y-1.1566
X1.032 Y-1.17
X1.0285 Y-1.1837
X1.0255 Y-1.1975
X1.0233 Y-1.2115
X1.0217 Y-1.2255
X1.0209 Y-1.2396
X1.0207 Y-1.2538
X1.0212 Y-1.2679
X1.0224 Y-1.282
X1.0242 Y-1.2961
X1.0268 Y-1.31
X1.03 Y-1.3238
X1.0339 Y-1.3375
X1.0385 Y-1.3509
X1.0437 Y-1.3641
X1.0496 Y-1.377
X1.056 Y-1.3896
X1.0631 Y-1.402
X1.0708 Y-1.4139
X1.079 Y-1.4255
X1.0878 Y-1.4366
X1.0972 Y-1.4473
X1.107 Y-1.4576
X1.1173 Y-1.4673
X1.1281 Y-1.4765
X1.1394 Y-1.4852
X1.151 Y-1.4934
X1.163 Y-1.501
X1.1754 Y-1.5079
X1.1881 Y-1.5143
X1.2011 Y-1.52
X1.2144 Y-1.5251
X1.2279 Y-1.5296
X1.2416 Y-1.5334
X1.2555 Y-1.5365
X1.2695 Y-1.5389
X1.2836 Y-1.5407
X1.2978 Y-1.5417
X1.312 Y-1.5421
X1.3262 Y-1.5418
X1.3404 Y-1.5408
X1.3545 Y-1.5391
X1.3686 Y-1.5367
X1.3826 Y-1.5336
X1.3964 Y-1.5298
X1.4102 Y-1.5254
X1.4237 Y-1.5202
X1.4371 Y-1.5144
X1.4502 Y-1.5079
X1.4631 Y-1.5007
X1.4757 Y-1.4928
X1.4879 Y-1.4843
X1.4999 Y-1.4752
X1.5114 Y-1.4654
X1.5225 Y-1.455
X1.5331 Y-1.4441
X1.5431 Y-1.4326
X1.5527 Y-1.4206
X1.5616 Y-1.4081
X1.57 Y-1.3952
X1.5777 Y-1.382
X1.5848 Y-1.3683
X1.5911 Y-1.3544
X1.5968 Y-1.3401
X1.6018 Y-1.3257
X1.6061 Y-1.311
X1.6096 Y-1.2962
X1.6124 Y-1.2813
X1.6145 Y-1.2662
X1.6158 Y-1.2512
X1.6164 Y-1.2361
X1.6162 Y-1.221
X1.6154 Y-1.206
X1.6138 Y-1.1911
X1.6114 Y-1.1763
X1.6084 Y-1.1617
X1.6047 Y-1.1472
X1.6002 Y-1.1329
X1.5951 Y-1.1189
X1.5893 Y-1.1052
X1.5829 Y-1.0918
X1.5758 Y-1.0786
X1.5681 Y-1.0659
X1.5597 Y-1.0535
X1.5508 Y-1.0416
X1.5412 Y-1.03
X1.5311 Y-1.019
X1.5205 Y-1.0084
X1.5094 Y-0.9983
X1.4977 Y-0.9888
X1.4856 Y-0.9799
X1.473 Y-0.9715
X1.4601 Y-0.9637
X1.4467 Y-0.9566
X1.433 Y-0.9501
X1.4189 Y-0.9443
X1.4045 Y-0.9391
X1.3899 Y-0.9347
X1.3751 Y-0.9309
X1.36 Y-0.9279
X1.3448 Y-0.9256
X1.3295 Y-0.9241
X1.314 Y-0.9232
X1.2985
X1.283 Y-0.9239
X1.2675 Y-0.9253
X1.2521 Y-0.9276
X1.2368 Y-0.9305
X1.2216 Y-0.9342
X1.2066 Y-0.9387
X1.1918 Y-0.9439
X1.1772 Y-0.9498
X1.1629 Y-0.9564
X1.149 Y-0.9638
X1.1353 Y-0.9718
X1.1221 Y-0.9804
X1.1093 Y-0.9898
X1.097 Y-0.9997
X1.0851 Y-1.0103
X1.0738 Y-1.0214
X1.0629 Y-1.0331
X1.0527 Y-1.0453
X1.0431 Y-1.058
X1.034 Y-1.0711
X1.0257 Y-1.0847
X1.0179 Y-1.0987
X1.0109 Y-1.1131
X1.0046 Y-1.1278
X0.999 Y-1.1428
X0.9941 Y-1.1581
X0.99 Y-1.1736
X0.9866 Y-1.1893
X0.984 Y-1.2051
X0.9822 Y-1.2211
X0.9812 Y-1.2371
X0.9809 Y-1.2532
X0.9814 Y-1.2693
X0.9827 Y-1.2853
X0.9848 Y-1.3013
X0.9876 Y-1.3171
X0.9912 Y-1.3328
X0.9956 Y-1.3483
X1.0008 Y-1.3636
X1.0066 Y-1.3786
X1.0132 Y-1.3933
X1.0205 Y-1.4077
X1.0285 Y-1.4217
X1.0372 Y-1.4353
X1.0465 Y-1.4485
X1.0565 Y-1.4612
X1.0671 Y-1.4734
X1.0782 Y-1.4851
X1.0899 Y-1.4962
X1.1021 Y-1.5067
X1.1149 Y-1.5167
X1.1281 Y-1.526
X1.1417 Y-1.5346
X1.1557 Y-1.5426
X1.1702 Y-1.5499
X1.1849 Y-1.5564
X1.2 Y-1.5623
X1.2153 Y-1.5674
X1.2309 Y-1.5718
X1.2466 Y-1.5753
X1.2625 Y-1.5782
X1.2785 Y-1.5802
X1.2947 Y-1.5815
X1.3108 Y-1.582
X1.327 Y-1.5817
X1.3432 Y-1.5806
X1.3593 Y-1.5787
X1.3754 Y-1.576
X1.3914 Y-1.5725
X1.4072 Y-1.5683
X1.4229 Y-1.5632
X1.4383 Y-1.5574
X1.4535 Y-1.5508
X1.4685 Y-1.5435
X1.4831 Y-1.5354
X1.4974 Y-1.5265
X1.5113 Y-1.5169
X1.5248 Y-1.5066
X1.5378 Y-1.4957
X1.5503 Y-1.484
X1.5623 Y-1.4718
X1.5737 Y-1.4589
X1.5844 Y-1.4455
X1.5945 Y-1.4315
X1.604 Y-1.4171
X1.6127 Y-1.4022
X1.6206 Y-1.3869
X1.6278 Y-1.3713
X1.6343 Y-1.3553
X1.6399 Y-1.3391
X1.6448 Y-1.3226
X1.6488 Y-1.3059
X1.652 Y-1.2891
X1.6544 Y-1.2722
X1.656 Y-1.2552
X1.6567 Y-1.2381
X1.6566 Y-1.2211
X1.6557 Y-1.2041
X1.6539 Y-1.1873
X1.6514 Y-1.1705
X1.648 Y-1.1539
X1.6438 Y-1.1375
X1.6388 Y-1.1213
X1.6331 Y-1.1054
X1.6266 Y-1.0898
X1.6193 Y-1.0746
X1.6113 Y-1.0597
X1.6026 Y-1.0452
X1.5932 Y-1.0311
X1.5831 Y-1.0175
X1.5723 Y-1.0044
X1.5609 Y-0.9919
X1.5489 Y-0.9799
X1.5364 Y-0.9684
X1.5232 Y-0.9576
X1.5095 Y-0.9475
X1.4954 Y-0.9379
X1.4807 Y-0.9291
X1.4656 Y-0.921
X1.4501 Y-0.9136
X1.4343 Y-0.907
X1.4181 Y-0.9011
X1.4016 Y-0.896
X1.3848 Y-0.8917
X1.3679 Y-0.8882
X1.3507 Y-0.8856
X1.3334 Y-0.8838
X1.316 Y-0.8828
X1.2986 Y-0.8827
X1.2811 Y-0.8834
X1.2637 Y-0.885
X1.2463 Y-0.8874
X1.229 Y-0.8907
X1.2119 Y-0.8948
X1.195 Y-0.8998
X1.1783 Y-0.9056
X1.1619 Y-0.9122
X1.1458 Y-0.9196
X1.13 Y-0.9278
X1.1147 Y-0.9367
X1.0998 Y-0.9464
X1.0854 Y-0.9569
X1.0715 Y-0.968
X1.0581 Y-0.9798
X1.0453 Y-0.9923
X1.0331 Y-1.0054
X1.0215 Y-1.019
X1.0106 Y-1.0333
X1.0005 Y-1.048
X0.991 Y-1.0633
X0.9823 Y-1.079
X0.9743 Y-1.0951
X0.9672 Y-1.1116
X0.9608 Y-1.1284
X0.9553 Y-1.1456
X0.9506 Y-1.163
X0.9468 Y-1.1806
X0.9438 Y-1.1984
X0.9417 Y-1.2163
X0.9404 Y-1.2343
X0.9401 Y-1.2524
X0.9406 Y-1.2704
X0.942 Y-1.2884
X0.9442 Y-1.3064
X0.9474 Y-1.3242
X0.9514 Y-1.3418
X0.9563 Y-1.3593
X0.962 Y-1.3764
X0.9685 Y-1.3933
X0.9759 Y-1.4099
X0.984 Y-1.426
X0.9929 Y-1.4418
X1.0026 Y-1.4571
X1.013 Y-1.4719
X1.0242 Y-1.4862
X1.036 Y-1.5
X1.0485 Y-1.5131
X1.0616 Y-1.5257
X1.0753 Y-1.5375
X1.0895 Y-1.5487
X1.1043 Y-1.5592
X1.1196 Y-1.569
X1.1353 Y-1.578
X1.1515 Y-1.5862
X1.1681 Y-1.5937
X1.1849 Y-1.6003
X1.2021 Y-1.6061
X1.2196 Y-1.6111
X1.2373 Y-1.6152
X1.2551 Y-1.6184
X1.2732 Y-1.6208
X1.2913 Y-1.6222
X1.3095 Y-1.6228
X1.3277 Y-1.6226
X1.3459 Y-1.6214
X1.3641 Y-1.6193
X1.3822 Y-1.6164
X1.4002 Y-1.6125
X1.418 Y-1.6078
X1.4356 Y-1.6022
X1.453 Y-1.5957
X1.4701 Y-1.5884
X1.4869 Y-1.5802
X1.5034 Y-1.5711
X1.5194 Y-1.5613
X1.535 Y-1.5506
X1.5501 Y-1.5392
X1.5647 Y-1.527
X1.5786 Y-1.5141
X1.592 Y-1.5004
X1.6047 Y-1.4862
X1.6167 Y-1.4713
X1.628 Y-1.4558
X1.6386 Y-1.4398
X1.6483 Y-1.4232
X1.6573 Y-1.4063
X1.6653 Y-1.3889
X1.6726 Y-1.3711
X1.6789 Y-1.353
X1.6844 Y-1.3347
X1.689 Y-1.3161
X1.6926 Y-1.2973
X1.6953 Y-1.2784
X1.6971 Y-1.2594
X1.698 Y-1.2404
Y-1.2214
X1.697 Y-1.2024
X1.6951 Y-1.1835
X1.6923 Y-1.1647
X1.6886 Y-1.1461
X1.6839 Y-1.1277
X1.6784 Y-1.1096
X1.6721 Y-1.0918
X1.6648 Y-1.0743
X1.6567 Y-1.0572
X1.6478 Y-1.0404
X1.6381 Y-1.0242
X1.6276 Y-1.0084
X1.6164 Y-0.9931
X1.6044 Y-0.9784
X1.5917 Y-0.9643
X1.5783 Y-0.9508
X1.5642 Y-0.938
X1.5496 Y-0.9258
X1.5343 Y-0.9144
X1.5185 Y-0.9037
X1.5021 Y-0.8937
X1.4853 Y-0.8846
X1.468 Y-0.8763
X1.4503 Y-0.8688
X1.4322 Y-0.8622
X1.4138 Y-0.8564
X1.3951 Y-0.8516
X1.3762 Y-0.8476
X1.357 Y-0.8446
X1.3377 Y-0.8425
X1.3183 Y-0.8414
X1.2989 Y-0.8412
X1.2794 Y-0.8419
X1.2599 Y-0.8436
X1.2405 Y-0.8463
X1.2213 Y-0.8499
X1.2022 Y-0.8544
X1.1833 Y-0.8599
X1.1647 Y-0.8663
X1.1464 Y-0.8735
X1.1284 Y-0.8817
X1.1109 Y-0.8908
X1.0938 Y-0.9007
X1.0771 Y-0.9115
X1.061 Y-0.923
X1.0455 Y-0.9354
X1.0306 Y-0.9484
X1.0163 Y-0.9623
X1.0027 Y-0.9768
X0.9897 Y-0.992
X0.9776 Y-1.0078
X0.9662 Y-1.0241
X0.9556 Y-1.0411
X0.9458 Y-1.0585
X0.9369 Y-1.0764
X0.9289 Y-1.0947
X0.9218 Y-1.1135
X0.9156 Y-1.1325
X0.9103 Y-1.1518
X0.9059 Y-1.1714
X0.9026 Y-1.1912
X0.9001 Y-1.2111
X0.8987 Y-1.2312
X0.8982 Y-1.2512
X0.8987 Y-1.2713
X0.9002 Y-1.2914
X0.9027 Y-1.3113
X0.9061 Y-1.3312
X0.9105 Y-1.3508
X0.9158 Y-1.3702
X0.9221 Y-1.3893
X0.9293 Y-1.4081
X0.9374 Y-1.4266
X0.9465 Y-1.4446
X0.9563 Y-1.4622
X0.967 Y-1.4792
X0.9786 Y-1.4958
X0.9909 Y-1.5117
X1.004 Y-1.527
X1.0178 Y-1.5417
X1.0324 Y-1.5557
X1.0475 Y-1.569
X1.0634 Y-1.5815
X1.0798 Y-1.5932
X1.0967 Y-1.6041
X1.1142 Y-1.6142
X1.1322 Y-1.6234
X1.1505 Y-1.6318
X1.1693 Y-1.6392
X1.1884 Y-1.6457
X1.2078 Y-1.6513
X1.2275 Y-1.6559
X1.2474 Y-1.6596
X1.2674 Y-1.6623
X1.2876 Y-1.664
X1.3079 Y-1.6647
X1.3282 Y-1.6645
X1.3485 Y-1.6632
X1.3687 Y-1.661
X1.3889 Y-1.6578
X1.4089 Y-1.6536
X1.4288 Y-1.6484
X1.4484 Y-1.6422
X1.4678 Y-1.6351
X1.4868 Y-1.627
X1.5055 Y-1.618
X1.5238 Y-1.608
X1.5416 Y-1.5971
X1.5589 Y-1.5854
X1.5757 Y-1.5728
X1.5918 Y-1.5593
X1.6073 Y-1.5451
X1.6222 Y-1.5301
X1.6363 Y-1.5144
X1.6496 Y-1.498
X1.6621 Y-1.4809
X1.6738 Y-1.4632
X1.6847 Y-1.445
X1.6946 Y-1.4263
X1.7036 Y-1.4071
X1.7117 Y-1.3875
X1.7188 Y-1.3675
X1.7249 Y-1.3472
X1.73 Y-1.3267
X1.7341 Y-1.3059
X1.7372 Y-1.285
X1.7393 Y-1.264
X1.7403 Y-1.2429
Y-1.2218
X1.7393 Y-1.2008
X1.7373 Y-1.1798
X1.7342 Y-1.159
X1.7302 Y-1.1384
X1.7251 Y-1.118
X1.7191 Y-1.0978
X1.7121 Y-1.078
X1.7041 Y-1.0586
X1.6952 Y-1.0395
X1.6854 Y-1.0209
X1.6747 Y-1.0028
X1.6631 Y-0.9853
X1.6506 Y-0.9683
X1.6374 Y-0.952
X1.6234 Y-0.9362
X1.6085 Y-0.9212
X1.593 Y-0.9069
X1.5768 Y-0.8934
X1.5599 Y-0.8806
X1.5424 Y-0.8687
X1.5243 Y-0.8577
X1.5057 Y-0.8475
X1.4866 Y-0.8382
X1.467 Y-0.8298
X1.447 Y-0.8224
X1.4266 Y-0.816
X1.406 Y-0.8106
X1.385 Y-0.8061
X1.3639 Y-0.8027
X1.3425 Y-0.8004
X1.3211 Y-0.799
X1.2995 Y-0.7987
X1.278 Y-0.7995
X1.2565 Y-0.8013
X1.235 Y-0.8041
X1.2137 Y-0.808
X1.1926 Y-0.813
X1.1717 Y-0.8189
X1.1512 Y-0.8259
X1.1309 Y-0.8339
X1.1111 Y-0.8429
X1.0916 Y-0.8528
X1.0727 Y-0.8637
X1.0543 Y-0.8755
X1.0365 Y-0.8882
X1.0193 Y-0.9018
X1.0027 Y-0.9162
X0.9869 Y-0.9314
X0.9718 Y-0.9474
X0.9575 Y-0.9641
X0.944 Y-0.9814
X0.9314 Y-0.9995
X0.9196 Y-1.0181
X0.9088 Y-1.0373
X0.8989 Y-1.0571
X0.89 Y-1.0773
X0.882 Y-1.0979
X0.8751 Y-1.1189
X0.8692 Y-1.1402
X0.8644 Y-1.1618
X0.8605 Y-1.1836
X0.8578 Y-1.2056
X0.8561 Y-1.2276
X0.8555 Y-1.2498
X0.856 Y-1.272
X0.8576 Y-1.2941
X0.8602 Y-1.3161
X0.8639 Y-1.338
X0.8687 Y-1.3597
X0.8745 Y-1.3811
X0.8814 Y-1.4022
X0.8893 Y-1.423
X0.8982 Y-1.4434
X0.908 Y-1.4633
X0.9189 Y-1.4827
X0.9306 Y-1.5015
X0.9433 Y-1.5198
X0.9568 Y-1.5375
X0.9712 Y-1.5544
X0.9864 Y-1.5707
X1.0024 Y-1.5861
X1.0191 Y-1.6008
X1.0365 Y-1.6147
X1.0545 Y-1.6277
X1.0732 Y-1.6398
X1.0924 Y-1.651
X1.1122 Y-1.6612
X1.1325 Y-1.6705
X1.1531 Y-1.6787
X1.1742 Y-1.686
X1.1956 Y-1.6922
X1.2173 Y-1.6974
X1.2392 Y-1.7015
X1.2613 Y-1.7046
X1.2836 Y-1.7066
X1.3059 Y-1.7074
X1.3283 Y-1.7072
X1.3508 Y-1.706
X1.3731 Y-1.7036
X1.3954 Y-1.7001
X1.4175 Y-1.6955
X1.4394 Y-1.6899
X1.461 Y-1.6832
X1.4824 Y-1.6754
X1.5034 Y-1.6665
X1.524 Y-1.6567
X1.5441 Y-1.6458
X1.5638 Y-1.6339
X1.5828 Y-1.621
X1.6013 Y-1.6072
X1.6191 Y-1.5925
X1.6362 Y-1.577
X1.6525 Y-1.5605
X1.6681 Y-1.5433
X1.6828 Y-1.5254
X1.6966 Y-1.5067
X1.7095 Y-1.4873
X1.7214 Y-1.4674
X1.7324 Y-1.4469
X1.7423 Y-1.4258
X1.7513 Y-1.4043
X1.7591 Y-1.3825
X1.7659 Y-1.3602
X1.7716 Y-1.3377
X1.7762 Y-1.3149
X1.7797 Y-1.2919
X1.782 Y-1.2689
X1.7833 Y-1.2457
Y-1.2225
X1.7823 Y-1.1994
X1.7802 Y-1.1763
X1.7769 Y-1.1534
X1.7725 Y-1.1307
X1.767 Y-1.1082
X1.7604 Y-1.086
X1.7528 Y-1.0642
X1.7441 Y-1.0428
X1.7344 Y-1.0218
X1.7237 Y-1.0013
X1.7119 Y-0.9814
X1.6993 Y-0.962
X1.6856 Y-0.9433
X1.6711 Y-0.9253
X1.6557 Y-0.9079
X1.6395 Y-0.8914
X1.6225 Y-0.8756
X1.6047 Y-0.8606
X1.5862 Y-0.8466
X1.567 Y-0.8334
X1.5471 Y-0.8212
X1.5267 Y-0.8099
X1.5057 Y-0.7996
X1.4843 Y-0.7904
X1.4623 Y-0.7822
X1.44 Y-0.7751
X1.4173 Y-0.769
X1.3943 Y-0.7641
X1.3711 Y-0.7602
X1.3477 Y-0.7576
X1.3241 Y-0.756
X1.3005 Y-0.7556
X1.2769 Y-0.7563
X1.2533 Y-0.7582
X1.2297 Y-0.7613
X1.2064 Y-0.7655
X1.1832 Y-0.7708
X1.1603 Y-0.7773
X1.1377 Y-0.7849
X1.1155 Y-0.7936
X1.0937 Y-0.8033
X1.0723 Y-0.8141
X1.0515 Y-0.826
X1.0313 Y-0.8389
X1.0117 Y-0.8527
X0.9928 Y-0.8675
X0.9747 Y-0.8832
X0.9573 Y-0.8998
X0.9407 Y-0.9173
X0.925 Y-0.9355
X0.9101 Y-0.9545
X0.8962 Y-0.9742
X0.8833 Y-0.9946
X0.8713 Y-1.0156
X0.8604 Y-1.0372
X0.8506 Y-1.0593
X0.8418 Y-1.0818
X0.8341 Y-1.1048
X0.8276 Y-1.1281
X0.8222 Y-1.1517
X0.818 Y-1.1756
X0.8149 Y-1.1996
X0.813 Y-1.2238
X0.8122 Y-1.2481
X0.8127 Y-1.2723
X0.8143 Y-1.2966
X0.8171 Y-1.3207
X0.8211 Y-1.3447
X0.8262 Y-1.3684
X0.8325 Y-1.3919
X0.84 Y-1.4151
X0.8485 Y-1.4378
X0.8582 Y-1.4602
X0.8689 Y-1.482
X0.8807 Y-1.5033
X0.8935 Y-1.524
X0.9073 Y-1.544
X0.9221 Y-1.5634
X0.9377 Y-1.582
X0.9543 Y-1.5998
X0.9717 Y-1.6168
X0.99 Y-1.633
X1.009 Y-1.6482
X1.0287 Y-1.6625
X1.0491 Y-1.6759
X1.0701 Y-1.6882
X1.0917 Y-1.6994
X1.1138 Y-1.7097
X1.1365 Y-1.7188
X1.1595 Y-1.7268
X1.1829 Y-1.7337
X1.2066 Y-1.7395
X1.2306 Y-1.7441
X1.2548 Y-1.7475
X1.2792 Y-1.7497
X1.3037 Y-1.7508
X1.3283 Y-1.7507
X1.3528 Y-1.7493
X1.3773 Y-1.7468
X1.4017 Y-1.7431
X1.4259 Y-1.7382
X1.4499 Y-1.7321
X1.4736 Y-1.7248
X1.497 Y-1.7163
X1.52 Y-1.7068
X1.5425 Y-1.6961
X1.5645 Y-1.6842
X1.586 Y-1.6713
X1.6069 Y-1.6574
X1.6271 Y-1.6424
X1.6465 Y-1.6264
X1.6652 Y-1.6095
X1.6831 Y-1.5916
X1.7001 Y-1.5729
X1.7162 Y-1.5534
X1.7313 Y-1.5331
X1.7455 Y-1.512
X1.7586 Y-1.4903
X1.7706 Y-1.468
X1.7816 Y-1.4451
X1.7914 Y-1.4217
X1.8 Y-1.3979
X1.8075 Y-1.3736
X1.8138 Y-1.3491
X1.8189 Y-1.3242
X1.8228 Y-1.2992
X1.8254 Y-1.274
X1.8268 Y-1.2487
X1.827 Y-1.2234
X1.826 Y-1.1982
X1.8237 Y-1.173
X1.8202 Y-1.148
X1.8155 Y-1.1231
X1.8096 Y-1.0986
X1.8025 Y-1.0743
X1.7942 Y-1.0505
X1.7848 Y-1.027
X1.7743 Y-1.0041
X1.7626 Y-0.9817
X1.7499 Y-0.9599
X1.7361 Y-0.9387
X1.7213 Y-0.9182
X1.7055 Y-0.8984
X1.6888 Y-0.8794
X1.6711 Y-0.8613
X1.6526 Y-0.844
X1.6332 Y-0.8276
X1.6131 Y-0.8122
X1.5922 Y-0.7977
X1.5706 Y-0.7843
X1.5483 Y-0.7719
X1.5254 Y-0.7606
X1.502 Y-0.7505
X1.4781 Y-0.7414
X1.4538 Y-0.7336
X1.4291 Y-0.7269
X1.404 Y-0.7214
X1.3787 Y-0.7172
X1.3532 Y-0.7141
X1.3276 Y-0.7124
X1.3018 Y-0.7118
X1.276 Y-0.7126
X1.2503 Y-0.7145
X1.2246 Y-0.7178
X1.1992 Y-0.7223
X1.1739 Y-0.728
X1.1489 Y-0.735
X1.1243 Y-0.7431
X1.1 Y-0.7525
X1.0762 Y-0.7631
X1.053 Y-0.7748
X1.0303 Y-0.7876
X1.0082 Y-0.8015
X0.9869 Y-0.8165
X0.9662 Y-0.8326
X0.9464 Y-0.8496
X0.9274 Y-0.8676
X0.9093 Y-0.8866
X0.8921 Y-0.9064
X0.8759 Y-0.927
X0.8607 Y-0.9484
X0.8465 Y-0.9705
X0.8335 Y-0.9933
X0.8215 Y-1.0168
X0.8107 Y-1.0408
X0.8011 Y-1.0653
X0.7927 Y-1.0902
X0.7854 Y-1.1156
X0.7795 Y-1.1412
X0.7748 Y-1.1672
X0.7713 Y-1.1934
X0.7692 Y-1.2197
X0.7683 Y-1.2461
X0.7687 Y-1.2725
X0.7704 Y-1.2988
X0.7733 Y-1.3251
X0.7776 Y-1.3512
X0.7831 Y-1.377
X0.7899 Y-1.4026
X0.7979 Y-1.4278
X0.8071 Y-1.4526
X0.8175 Y-1.4769
X0.8291 Y-1.5007
X0.8418 Y-1.5239
X0.8557 Y-1.5465
X0.8706 Y-1.5684
X0.8866 Y-1.5895
X0.9036 Y-1.6098
X0.9216 Y-1.6293
X0.9405 Y-1.6478
X0.9568 Y-1.6621
X0.9592 Y-1.6639
X0.9889 Y-1.6859
X1.0386 Y-1.7187
X1.0536 Y-1.7273
G3 X1.078 Y-1.6838 I0.0109 J0.0225
G1 X1.018 Y-1.6453
G3 X0.9889 Y-1.6859 I-0.0135 J-0.021
G1 X1.0141 Y-1.7046
X1.0225 Y-1.7103
X1.0572 Y-1.7292
X1.0646 Y-1.7331
X1.0814 Y-1.7417
X1.1097 Y-1.7544
X1.1668 Y-1.7739
X1.199 Y-1.7813
X1.2509 Y-1.7906
X1.2579 Y-1.7914
X1.3167 Y-1.7933
X1.3433 Y-1.7934
X1.4008 Y-1.7861
X1.426 Y-1.7818
X1.4351 Y-1.7797
X1.4848 Y-1.7655
X1.4932 Y-1.7627
X1.5184 Y-1.7529
X1.5713 Y-1.7286
X1.5773 Y-1.7256
X1.6361 Y-1.6869
X1.6529 Y-1.6742
X1.6949 Y-1.636
X1.7117 Y-1.6192
X1.7285 Y-1.599
X1.7538 Y-1.5678
X1.7622 Y-1.5565
X1.7958 Y-1.4992
X1.8099 Y-1.4686
X1.8299 Y-1.4181
X1.8329 Y-1.4097
X1.8464 Y-1.3509
X1.8511 Y-1.3257
X1.8538 Y-1.292
X1.8557 Y-1.2668
X1.8558 Y-1.2332
X1.8519 Y-1.1827
X1.851 Y-1.1743
X1.8462 Y-1.1479
X1.8327 Y-1.0903
X1.82 Y-1.0566
X1.8098 Y-1.0314
X1.7958 Y-1.0006
X1.7622 Y-0.9437
X1.7526 Y-0.9305
X1.7182 Y-0.8885
X1.7109 Y-0.8801
X1.6943 Y-0.8633
X1.6529 Y-0.8259
X1.6358 Y-0.8128
X1.5773 Y-0.7744
X1.5519 Y-0.7624
X1.5145 Y-0.7456
X1.4932 Y-0.7371
X1.4764 Y-0.7321
X1.4344 Y-0.7202
X1.426 Y-0.7183
X1.4008 Y-0.7138
X1.3419 Y-0.7066
X1.3167
X1.2579 Y-0.7085
X1.2495 Y-0.7095
X1.1906 Y-0.7206
X1.1654 Y-0.7263
X1.1066 Y-0.7469
X1.0814 Y-0.7582
X1.0393 Y-0.7804
X1.0225 Y-0.7895
X1.0131 Y-0.796
X0.9449 Y-0.8464
X0.9385 Y-0.8511
X0.9133 Y-0.8643
X0.9049 Y-0.8683
X0.8956 Y-0.8731
X0.8819 Y-0.8815
X0.8746 Y-0.8867
X0.8661 Y-0.8934
X0.8576 Y-0.9009
X0.8479 Y-0.9102
X0.8383 Y-0.9204
X0.8277 Y-0.9328
X0.8172 Y-0.9464
X0.8065 Y-0.9618
X0.7955 Y-0.9794
X0.7845 Y-0.9988
X0.7743 Y-1.0192
X0.7648 Y-1.041
X0.7558 Y-1.0644
X0.7477 Y-1.0891
X0.7407 Y-1.1148
X0.7348 Y-1.1412
X0.7301 Y-1.1683
X0.7267 Y-1.1959
X0.7246 Y-1.2238
X0.7239 Y-1.252
X0.7246 Y-1.2802
X0.7267 Y-1.3085
X0.7301 Y-1.3367
X0.7349 Y-1.3648
X0.7411 Y-1.3926
X0.7486 Y-1.4201
X0.7575 Y-1.4473
X0.7677 Y-1.474
X0.7792 Y-1.5002
X0.792 Y-1.5258
X0.8059 Y-1.5508
X0.8211 Y-1.575
X0.8285 Y-1.5856
X0.8386 Y-1.5977
X0.8506 Y-1.608
X0.8643 Y-1.616
X0.879 Y-1.6215
X0.8881 Y-1.6244
X0.9151 Y-1.6367
X0.9385 Y-1.6489
X0.9592 Y-1.6639
G3 X0.9981 Y-1.6413 I0.014 J0.0207
G1 X0.9393 Y-0.8895
G3 X0.9049 Y-0.8683 I-0.0249 J-0.0019
G1 X0.8881 Y-0.8759
X0.8628 Y-0.8831
X0.8614 Y-0.8832
X0.8561 Y-0.8842
X0.846 Y-0.888
X0.8349 Y-0.8937
X0.8219 Y-0.9019
X0.8145 Y-0.9074
X0.8071 Y-0.9135
X0.7988 Y-0.921
X0.7906 Y-0.9291
X0.7815 Y-0.9392
X0.7726 Y-0.95
X0.7633 Y-0.9625
X0.7534 Y-0.9771
X0.7441 Y-0.9926
X0.7347 Y-1.01
X0.7253 Y-1.0296
X0.7163 Y-1.0511
X0.7081 Y-1.0738
X0.7007 Y-1.0975
X0.6967 Y-1.1133
X0.6945 Y-1.1252
X0.6938 Y-1.1373
X0.6948 Y-1.1494
X0.696 Y-1.1575
X0.6977 Y-1.1827
X0.7001 Y-1.2752
Y-1.292
X0.6983 Y-1.3089
X0.6971 Y-1.3283
X0.697 Y-1.3421
X0.6976 Y-1.358
X0.6991 Y-1.3756
X0.7016 Y-1.3941
X0.7055 Y-1.415
X0.7108 Y-1.4375
X0.7174 Y-1.4603
X0.7256 Y-1.4841
X0.7354 Y-1.5088
X0.747 Y-1.5341
X0.7565 Y-1.5526
X0.7673 Y-1.5709
X0.7759 Y-1.5822
X0.7861 Y-1.5921
X0.7976 Y-1.6004
X0.8102 Y-1.607
X0.8237 Y-1.6115
X0.8376 Y-1.6141
X0.8628 Y-1.617
X0.879 Y-1.6215
G3 X0.9067 Y-1.5849 I0.0059 J0.0243
G1 X0.7447 Y-1.3001
G3 X0.6983 Y-1.3089 I-0.0217 J-0.0124
G1 X0.687 Y-1.4013
X0.6863 Y-1.4047
X0.685 Y-1.4149
X0.684 Y-1.4312
X0.6841 Y-1.4405
X0.6848 Y-1.4517
X0.686 Y-1.4632
X0.6882 Y-1.477
X0.6912 Y-1.4911
X0.6951 Y-1.5062
X0.6999 Y-1.5214
X0.7045 Y-1.5339
X0.7095 Y-1.5457
X0.714 Y-1.5551
X0.7192 Y-1.5646
X0.7237 Y-1.5721
X0.7294 Y-1.5804
X0.7399 Y-1.5921
X0.7523 Y-1.6018
X0.7662 Y-1.6092
X0.7811 Y-1.614
X0.7967 Y-1.6161
X0.8124 Y-1.6155
X0.8376 Y-1.6141
G3 X0.8559 Y-1.5749 I-0.0023 J0.0249
G1 X0.7313 Y-1.3959
G3 X0.6863 Y-1.4047 I-0.0205 J-0.0143
G1 X0.6823 Y-1.4266
X0.6729 Y-1.4602
X0.6697 Y-1.4753
X0.6684 Y-1.4878
Y-1.5025
X0.6699 Y-1.5188
X0.6714 Y-1.5273
X0.6732 Y-1.5359
X0.6777 Y-1.5512
X0.6837 Y-1.566
X0.6906 Y-1.579
X0.7 Y-1.5916
X0.7115 Y-1.6023
X0.7247 Y-1.6108
X0.7393 Y-1.6169
X0.7546 Y-1.6204
X0.7703 Y-1.6211
X0.7859 Y-1.619
G3 X0.8006 Y-1.5812 I-0.0063 J0.0242
G1 X0.7176 Y-1.4541
G3 X0.6729 Y-1.4602 I-0.0209 J-0.0137
G1 X0.6574 Y-1.5153
X0.6552 Y-1.5258
X0.6543 Y-1.5366
X0.6546 Y-1.5474
X0.6562 Y-1.5583
X0.6588 Y-1.5688
X0.6626 Y-1.5793
X0.6673 Y-1.589
X0.6734 Y-1.5989
X0.6827 Y-1.6096
X0.6939 Y-1.6183
X0.7065 Y-1.6247
X0.7201 Y-1.6287
X0.7343 Y-1.63
X0.7484 Y-1.6287
X0.762 Y-1.6247
X0.7859 Y-1.619
G3 X0.7943 Y-1.5746 I-0.0063 J0.0242
G1 X0.6958 Y-1.5029
G3 X0.6574 Y-1.5153 I-0.0147 J-0.0202
G1 X0.6514 Y-1.5359
X0.6476 Y-1.5457
X0.6457 Y-1.5507
X0.6443 Y-1.5559
X0.6434 Y-1.5613
X0.6431 Y-1.5666
Y-1.572
X0.6435 Y-1.5774
X0.6456 Y-1.588
X0.649 Y-1.5982
X0.6556 Y-1.6097
X0.6642 Y-1.6198
X0.6745 Y-1.628
X0.6862 Y-1.6341
X0.6989 Y-1.6379
X0.7121 Y-1.6392
X0.7252 Y-1.638
X0.7379 Y-1.6343
G3 X0.7451 Y-1.5933 I-0.0101 J0.0229
G1 X0.6874 Y-1.5383
G3 X0.6476 Y-1.5457 I-0.0172 J-0.0181
G1 X0.637 Y-1.5695
X0.635 Y-1.5745
X0.6335 Y-1.5797
X0.6327 Y-1.585
X0.6325 Y-1.5904
X0.6328 Y-1.5958
X0.6336 Y-1.6012
X0.6381 Y-1.6136
X0.6451 Y-1.6247
X0.6544 Y-1.6341
X0.6655 Y-1.6413
X0.6778 Y-1.6459
X0.6909 Y-1.6478
X0.704 Y-1.6469
X0.7167 Y-1.6431
G3 X0.7224 Y-1.6014 I-0.0104 J0.0227
G1 X0.6756 Y-1.5615
G3 X0.637 Y-1.5695 I-0.0162 J-0.019
G1 X0.6275 Y-1.5904
X0.6255 Y-1.5955
X0.6243 Y-1.6007
X0.6238 Y-1.6061
X0.6241 Y-1.6115
X0.6272 Y-1.6229
X0.6328 Y-1.6333
X0.6406 Y-1.6422
X0.6503 Y-1.6491
X0.6612 Y-1.6537
X0.6728 Y-1.6557
X0.6846 Y-1.655
X0.696 Y-1.6517
G3 X0.7182 Y-1.6264 I-0.0171 J0.0373
X0.6275 Y-1.5904 I-0.0468 J0.0142
G1 X0.6196 Y-1.6079
X0.6177 Y-1.6129
X0.6167 Y-1.6182
X0.6166 Y-1.6236
X0.6171 Y-1.6289
X0.621 Y-1.6392
X0.6273 Y-1.6482
X0.6355 Y-1.6553
X0.6453 Y-1.6603
X0.656 Y-1.6627
