%
(BEZEL)
(T2  D=0.25 CR=0. - ZMIN=-0.6722 - FLAT END MILL)
G90 G94 G17 G91.1
G20
G53 G0 Z0.
(ADAPTIVE2)
M9
T2 M6
S1970 M3
G54
M8
G0 X-2.1742 Y-1.7713
G43 Z0.5906 H2
G0 Z0.1969
Z-0.3437
G1 Z-0.3687 F15.
X-2.1741 Z-0.3707
Y-1.771 Z-0.3726
X-2.174 Y-1.7707 Z-0.3745
X-2.1738 Y-1.7701 Z-0.3764
X-2.1737 Y-1.7695 Z-0.3783
X-2.1735 Y-1.7687 Z-0.3801
X-2.1732 Y-1.7678 Z-0.3818
X-2.173 Y-1.7667 Z-0.3834
X-2.1727 Y-1.7655 Z-0.3849
X-2.1723 Y-1.7642 Z-0.3864
X-2.172 Y-1.7628 Z-0.3877
X-2.1716 Y-1.7613 Z-0.3889
X-2.1712 Y-1.7598 Z-0.39
X-2.1708 Y-1.7581 Z-0.391
X-2.1703 Y-1.7564 Z-0.3918
X-2.1699 Y-1.7546 Z-0.3925
X-2.1694 Y-1.7528 Z-0.393
X-2.1689 Y-1.7509 Z-0.3934
X-2.1684 Y-1.749 Z-0.3936
X-2.1679 Y-1.7471 Z-0.3937
G3 X-2.1484 Y-1.611 I-0.6183 J0.1584
G1 Y-1.6057
X-2.1556 Y-1.5698
X-2.1608 Y-1.5334
X-2.1645 Y-1.497
X-2.167 Y-1.4604
X-2.1689 Y-1.4237
X-2.171 Y-1.3504
X-2.1724 Y-1.2404
X-2.1731 Y-0.9837
X-2.1733 Y0.3731
Y1.3724
X-2.1718 Y1.3815
X-2.1661 Y1.3989
X-2.1453 Y1.4291
X-2.1165 Y1.4519
X-2.0839 Y1.4686
X-2.0493 Y1.4808
X-2.0137 Y1.4895
X-1.9776 Y1.4957
X-1.9412 Y1.5001
X-1.9046 Y1.5032
X-1.868 Y1.5054
X-1.8314 Y1.507
X-1.7581 Y1.5088
X-1.648 Y1.51
X-1.3547 Y1.5106
X-1.2447
X0.7356
X2.0375
X2.0553 Y1.5061
X2.0873 Y1.4882
X2.1117 Y1.4608
X2.1297 Y1.4289
X2.1428 Y1.3946
X2.1522 Y1.3592
X2.1589 Y1.3231
X2.1637 Y1.2868
X2.167 Y1.2503
X2.1694 Y1.2137
X2.1711 Y1.177
X2.1731 Y1.1037
X2.1744 Y0.9937
X2.1748 Y0.8837
X2.175 Y-1.0966
Y-1.3716
X2.171 Y-1.3895
X2.1536 Y-1.4218
X2.1264 Y-1.4464
X2.0946 Y-1.4646
X2.0604 Y-1.4779
X2.025 Y-1.4874
X1.989 Y-1.4942
X1.9526 Y-1.499
X1.9161 Y-1.5025
X1.8795 Y-1.5049
X1.8429 Y-1.5066
X1.7696 Y-1.5086
X1.6596 Y-1.5099
X1.4029 Y-1.5105
X0.5227 Y-1.5106
X-1.4576 Y-1.5107
X-1.9343
X-1.9517 Y-1.5049
X-1.9831 Y-1.486
X-2.0074 Y-1.4585
X-2.0255 Y-1.4266
X-2.0388 Y-1.3925
X-2.0486 Y-1.3571
X-2.0556 Y-1.3211
X-2.0606 Y-1.2848
X-2.0642 Y-1.2483
X-2.0668 Y-1.2117
X-2.0687 Y-1.1751
X-2.0709 Y-1.1018
X-2.0724 Y-0.9918
X-2.0731 Y-0.7718
X-2.0732 Y-0.4736
X-2.0735 Y-0.4677
X-2.0744 Y-0.4619
X-2.0758 Y-0.4563
X-2.097 Y-0.3872
X-2.1204 Y-0.2873
X-2.1341 Y-0.204
X-2.1382 Y-0.1707
X-2.1454 Y-0.0958
X-2.1481 Y-0.0126
X-2.1479 Y0.0207
X-2.1454 Y0.0957
X-2.1373 Y0.1789
X-2.1332 Y0.2092
X-2.1204 Y0.2872
X-2.0999 Y0.3752
X-2.0932 Y0.4113
X-2.0871 Y0.4474
X-2.0829 Y0.4839
X-2.08 Y0.5204
X-2.078 Y0.557
X-2.0766 Y0.5937
X-2.0749 Y0.667
X-2.0739 Y0.777
X-2.0734 Y1.1071
Y1.2537
X-2.0616 Y1.2885
X-2.0393 Y1.3176
X-2.0109 Y1.3408
X-1.9789 Y1.3587
X-1.9448 Y1.3723
X-1.9096 Y1.3825
X-1.8737 Y1.39
X-1.8375 Y1.3956
X-1.801 Y1.3997
X-1.7645 Y1.4027
X-1.7279 Y1.4049
X-1.6912 Y1.4065
X-1.6179 Y1.4085
X-1.5079 Y1.4098
X-1.2512 Y1.4105
X-1.134 Y1.4106
X-1.1281 Y1.4109
X-1.1223 Y1.4117
X-1.1166 Y1.4132
X-1.0583 Y1.4304
X-0.9999 Y1.445
X-0.95 Y1.4557
X-0.8916 Y1.4659
X-0.8416 Y1.4729
X-0.7916 Y1.478
X-0.7 Y1.4831
X-0.675 Y1.4837
X-0.5916 Y1.4823
X-0.5583 Y1.4802
X-0.4916 Y1.4746
X-0.45 Y1.4687
X-0.3916 Y1.4596
X-0.3666 Y1.4543
X-0.3 Y1.4393
X-0.2917 Y1.437
X-0.2559 Y1.4288
X-0.2197 Y1.4232
X-0.1832 Y1.4194
X-0.1466 Y1.4168
X-0.11 Y1.4149
X-0.0367 Y1.4127
X0.0733 Y1.4113
X0.33 Y1.4107
X1.6869 Y1.4106
X1.9069
X1.9249 Y1.4069
X1.9588 Y1.393
X1.9869 Y1.3694
X2.009 Y1.3401
X2.026 Y1.3077
X2.0389 Y1.2733
X2.0485 Y1.2379
X2.0561 Y1.1991
X2.0581 Y1.1901
X2.0616 Y1.1815
X2.0663 Y1.1736
X2.0749 Y1.1611
X2.0916 Y1.1334
X2.1034 Y1.1113
X2.1166 Y1.081
X2.1249 Y1.0601
X2.1342 Y1.0281
X2.1385 Y1.0114
X2.1402 Y1.0031
X2.1425 Y0.9865
X2.1429 Y0.9781
X2.1424 Y0.9615
X2.1412 Y0.9532
X2.1379 Y0.9365
X2.1285 Y0.9115
X2.1269 Y0.9084
X2.1193 Y0.8932
X2.1107 Y0.8722
X2.1018 Y0.8439
X2.0936 Y0.8081
X2.0879 Y0.7719
X2.084 Y0.7354
X2.0813 Y0.6989
X2.0794 Y0.6622
X2.0781 Y0.6256
X2.0765 Y0.5523
X2.0754 Y0.4056
X2.075 Y-0.2178
Y-0.8238
X2.0763 Y-0.8358
X2.08 Y-0.8473
X2.086 Y-0.8578
X2.094 Y-0.8668
X2.0999 Y-0.8723
X2.1082 Y-0.8814
X2.1127 Y-0.8867
X2.1184 Y-0.895
X2.1269 Y-0.9084
X2.1286 Y-0.9117
X2.138 Y-0.9366
X2.1416 Y-0.9553
X2.1425 Y-0.9616
X2.1429 Y-0.9783
X2.1425 Y-0.9866
X2.1402 Y-1.0033
X2.1385 Y-1.0116
X2.1318 Y-1.0366
X2.1243 Y-1.0615
X2.1177 Y-1.0782
X2.1058 Y-1.1129
X2.1011 Y-1.1306
X2.0931 Y-1.1664
X2.0876 Y-1.2026
X2.0838 Y-1.2391
X2.0763 Y-1.275
X2.0572 Y-1.3063
X2.0308 Y-1.3317
X1.9999 Y-1.3516
X1.9666 Y-1.3668
X1.9318 Y-1.3783
X1.8961 Y-1.3869
X1.86 Y-1.3932
X1.8236 Y-1.3979
X1.7871 Y-1.4014
X1.7505 Y-1.4039
X1.7139 Y-1.4057
X1.6406 Y-1.408
X1.5306 Y-1.4096
X1.3106 Y-1.4104
X0.3204 Y-1.4106
X-0.1942
X-0.2004 Y-1.411
X-0.2064 Y-1.4119
X-0.2124 Y-1.4135
X-0.2917 Y-1.437
X-0.3083 Y-1.4411
X-0.3833 Y-1.458
X-0.4083 Y-1.4623
X-0.4833 Y-1.4737
X-0.5083 Y-1.476
X-0.575 Y-1.4814
X-0.6 Y-1.4826
X-0.6833 Y-1.4836
X-0.7166 Y-1.4823
X-0.7916 Y-1.478
X-0.8416 Y-1.4729
X-0.9 Y-1.4646
X-0.9583 Y-1.454
X-1.0083 Y-1.4431
X-1.0249 Y-1.4389
X-1.0609 Y-1.4318
X-1.097 Y-1.4254
X-1.1334 Y-1.4209
X-1.17 Y-1.4178
X-1.2066 Y-1.4157
X-1.2432 Y-1.4142
X-1.3165 Y-1.4124
X-1.4265 Y-1.4113
X-1.7199 Y-1.4107
X-1.7933
X-1.8115 Y-1.4087
X-1.8465 Y-1.398
X-1.8763 Y-1.3765
X-1.9001 Y-1.3486
X-1.9186 Y-1.3169
X-1.9326 Y-1.2831
X-1.9433 Y-1.248
X-1.9512 Y-1.2122
X-1.9571 Y-1.176
X-1.9614 Y-1.1395
X-1.9646 Y-1.103
X-1.9669 Y-1.0664
X-1.9686 Y-1.0298
X-1.9708 Y-0.9565
X-1.9723 Y-0.8465
X-1.9729 Y-0.7141
X-1.9737 Y-0.705
X-1.9758 Y-0.6961
X-1.9794 Y-0.6876
X-2.0047 Y-0.6369
X-2.0274 Y-0.587
X-2.0599 Y-0.5037
X-2.0688 Y-0.4788
X-2.0758 Y-0.4563
X-2.0787 Y-0.4469
X-2.0947 Y-0.3955
X-2.097 Y-0.3872
X-2.101 Y-0.3705
X-2.1147 Y-0.3123
X-2.1204 Y-0.2873
X-2.1218 Y-0.279
X-2.1332 Y-0.2092
X-2.1341 Y-0.204
X-2.1373 Y-0.1791
X-2.1382 Y-0.1707
X-2.143 Y-0.1208
X-2.1454 Y-0.0958
X-2.1463 Y-0.0708
X-2.1479 Y-0.0209
X-2.1481 Y-0.0126
Y0.0124
X-2.1479 Y0.0207
X-2.1463 Y0.0707
X-2.1457 Y0.0873
X-2.1454 Y0.0957
X-2.1382 Y0.1706
X-2.1373 Y0.1789
X-2.1341 Y0.2039
X-2.1332 Y0.2092
X-2.1218 Y0.2788
X-2.1204 Y0.2872
X-2.1147 Y0.3121
X-2.1022 Y0.3657
X-2.101 Y0.3704
X-2.0999 Y0.3752
X-2.0971 Y0.3871
X-2.0792 Y0.4453
X-2.0688 Y0.4786
X-2.0568 Y0.5119
X-2.0275 Y0.5869
X-2.02 Y0.6035
X-2.0083 Y0.6335
X-1.999 Y0.6642
X-1.9913 Y0.7
X-1.986 Y0.7363
X-1.9822 Y0.7728
X-1.9796 Y0.8094
X-1.9777 Y0.846
X-1.9755 Y0.9193
X-1.9741 Y1.0293
X-1.9736 Y1.1393
X-1.9632 Y1.1745
X-1.9427 Y1.2049
X-1.9157 Y1.2298
X-1.8848 Y1.2494
X-1.8514 Y1.2646
X-1.8166 Y1.2762
X-1.781 Y1.285
X-1.7449 Y1.2916
X-1.7086 Y1.2966
X-1.6721 Y1.3003
X-1.6355 Y1.303
X-1.5989 Y1.305
X-1.5256 Y1.3076
X-1.4156 Y1.3094
X-1.376 Y1.3098
X-1.3667 Y1.3106
X-1.3576 Y1.3129
X-1.349 Y1.3166
X-1.3272 Y1.3278
X-1.2833 Y1.3489
X-1.2249 Y1.3741
X-1.1666 Y1.3963
X-1.1166 Y1.4132
X-1.1083 Y1.4157
X-1.1072 Y1.416
X-1.0916 Y1.4207
X-1.0833 Y1.4232
X-1.0666 Y1.428
X-1.0583 Y1.4304
X-1.0333 Y1.4369
X-1.0083 Y1.4431
X-1.003 Y1.4444
X-0.9833 Y1.4487
X-0.975 Y1.4505
X-0.9583 Y1.454
X-0.95 Y1.4557
X-0.925 Y1.4603
X-0.9 Y1.4646
X-0.8916 Y1.4659
X-0.875 Y1.4683
X-0.8679 Y1.4693
X-0.85 Y1.4718
X-0.8416 Y1.4729
X-0.8166 Y1.4756
X-0.7916 Y1.478
X-0.7833 Y1.4786
X-0.7083 Y1.4827
X-0.7 Y1.4831
X-0.6833 Y1.4836
X-0.675 Y1.4837
X-0.6 Y1.4826
X-0.5916 Y1.4823
X-0.575 Y1.4814
X-0.5666 Y1.4809
X-0.4916 Y1.4746
X-0.4833 Y1.4736
X-0.4666 Y1.4712
X-0.4583 Y1.47
X-0.4083 Y1.4623
X-0.3916 Y1.4596
X-0.3833 Y1.4581
X-0.375 Y1.4562
X-0.3011 Y1.4395
X-0.3 Y1.4393
X-0.2917 Y1.437
X-0.2167 Y1.4149
X-0.1833 Y1.4037
X-0.1 Y1.3726
X-0.05 Y1.3531
X-0.0152 Y1.3415
X0.0203 Y1.3322
X0.0564 Y1.3257
X0.0928 Y1.3212
X0.1293 Y1.3181
X0.1659 Y1.3159
X0.2025 Y1.3143
X0.2758 Y1.3125
X0.3859 Y1.3113
X0.6792 Y1.3107
X1.3591
X1.3663 Y1.3116
X1.5666 Y1.3479
X1.6166 Y1.3572
X1.6418 Y1.3611
X1.6499 Y1.3622
X1.6833 Y1.3645
X1.6999 Y1.3651
X1.7082
X1.7416 Y1.3632
X1.7582 Y1.3618
X1.7916 Y1.3556
X1.8082 Y1.3522
X1.8249 Y1.3473
X1.8584 Y1.3361
X1.8666 Y1.3329
X1.8999 Y1.3174
X1.9166 Y1.3091
X1.9416 Y1.2936
X1.9666 Y1.2769
X2.0054 Y1.2446
X2.0249 Y1.2244
X2.0445 Y1.2029
X2.0512 Y1.1946
X2.0663 Y1.1736
X2.0691 Y1.1696
X2.0719 Y1.1655
X2.0747 Y1.1613
X2.085 Y1.1446
X2.09 Y1.1363
X2.0999 Y1.1179
X2.1034 Y1.1113
X2.1144 Y1.0864
X2.1166 Y1.081
X2.1249 Y1.0601
X2.127 Y1.0531
X2.1319 Y1.0364
X2.1332 Y1.0317
X2.1385 Y1.0114
X2.1402 Y1.0031
X2.1425 Y0.9865
X2.1429 Y0.9781
X2.1424 Y0.9615
X2.1416 Y0.9552
X2.1379 Y0.9365
X2.1349 Y0.9282
X2.1307 Y0.9174
X2.1285 Y0.9115
X2.1269 Y0.9084
X2.1166 Y0.8921
X2.1127 Y0.8866
X2.1055 Y0.8782
X2.0973 Y0.8699
X2.0916 Y0.8646
X2.0792 Y0.8556
X2.0717 Y0.8498
X2.0647 Y0.8436
X2.0568 Y0.8353
X2.0485 Y0.825
X2.0398 Y0.8122
X2.0306 Y0.796
X2.0209 Y0.7755
X2.011 Y0.749
X2.001 Y0.7138
X1.9938 Y0.6778
X1.9886 Y0.6415
X1.9848 Y0.605
X1.9821 Y0.5685
X1.9801 Y0.5318
X1.9787 Y0.4952
X1.9769 Y0.4219
X1.9757 Y0.3119
X1.9751 Y0.0552
X1.975 Y-0.7149
X1.9753 Y-0.7516
X1.977 Y-0.781
X1.9775 Y-0.7844
X1.9805 Y-0.7962
X1.9858 Y-0.8071
X1.9933 Y-0.8167
X2.0026 Y-0.8245
X2.0133 Y-0.8302
X2.0249 Y-0.8336
G3 X2.0347 Y-0.8331 I0.0036 J0.0247
G1 X2.0366 Y-0.8326 Z-0.3936
X2.0385 Y-0.8321 Z-0.3934
X2.0403 Y-0.8317 Z-0.393
X2.0422 Y-0.8312 Z-0.3925
X2.0439 Y-0.8307 Z-0.3918
X2.0457 Y-0.8303 Z-0.391
X2.0473 Y-0.8299 Z-0.39
X2.0489 Y-0.8295 Z-0.3889
X2.0504 Y-0.8291 Z-0.3877
X2.0518 Y-0.8287 Z-0.3864
X2.0531 Y-0.8284 Z-0.3849
X2.0543 Y-0.8281 Z-0.3834
X2.0553 Y-0.8278 Z-0.3818
X2.0563 Y-0.8276 Z-0.3801
X2.0571 Y-0.8274 Z-0.3783
X2.0577 Y-0.8272 Z-0.3764
X2.0582 Y-0.8271 Z-0.3745
X2.0586 Y-0.827 Z-0.3726
X2.0588 Z-0.3707
X2.0589 Y-0.8269 Z-0.3687
G0 Z0.1969
X2.1065 Y0.8366
Z-0.3437
G1 Z-0.3687 F15.
X2.1064 Y0.8367 Z-0.3707
X2.1062 Y0.8369 Z-0.3726
X2.106 Y0.8371 Z-0.3745
X2.1056 Y0.8375 Z-0.3764
X2.1051 Y0.838 Z-0.3783
X2.1045 Y0.8386 Z-0.3801
X2.1039 Y0.8393 Z-0.3818
X2.1031 Y0.84 Z-0.3834
X2.1022 Y0.8409 Z-0.3849
X2.1013 Y0.8419 Z-0.3864
X2.1003 Y0.8429 Z-0.3877
X2.0992 Y0.844 Z-0.3889
X2.0981 Y0.8451 Z-0.39
X2.0969 Y0.8464 Z-0.391
X2.0956 Y0.8476 Z-0.3918
X2.0943 Y0.8489 Z-0.3925
X2.093 Y0.8503 Z-0.393
X2.0917 Y0.8517 Z-0.3934
X2.0903 Y0.853 Z-0.3936
X2.0889 Y0.8544 Z-0.3937
G3 X2.0792 Y0.8556 I-0.0056 J-0.0055
G1 X2.0666 Y0.8478
X2.0582 Y0.8438
X2.0499 Y0.8404
X2.0318 Y0.8349
X2.0267 Y0.8337
X2.0204 Y0.8315
X2.013 Y0.8282
X2.0055 Y0.8241
X1.9972 Y0.8187
X1.9879 Y0.8114
X1.9787 Y0.803
X1.9688 Y0.7924
X1.9583 Y0.7792
X1.9477 Y0.7634
X1.9367 Y0.7436
X1.9253 Y0.7188
X1.9139 Y0.6873
X1.9042 Y0.6519
X1.8968 Y0.616
X1.8913 Y0.5797
X1.8872 Y0.5433
X1.8841 Y0.5068
X1.8818 Y0.4702
X1.8801 Y0.4335
X1.8778 Y0.3602
X1.8761 Y0.2502
X1.8753 Y0.0669
X1.8751 Y-0.6666
X1.8758 Y-0.7032
X1.8778 Y-0.733
X1.8813 Y-0.7561
X1.8858 Y-0.775
X1.8909 Y-0.791
X1.8924 Y-0.7945
X1.8977 Y-0.8046
X1.905 Y-0.8135
X1.9138 Y-0.8207
X1.9239 Y-0.8261
X1.9349 Y-0.8295
X1.9463 Y-0.8306
X2.0013 Y-0.8309
X2.0082 Y-0.831
X2.0249 Y-0.8336
G3 X2.0347 Y-0.8331 I0.0036 J0.0247
G1 X2.0366 Y-0.8326 Z-0.3936
X2.0385 Y-0.8321 Z-0.3934
X2.0403 Y-0.8317 Z-0.393
X2.0422 Y-0.8312 Z-0.3925
X2.0439 Y-0.8307 Z-0.3918
X2.0457 Y-0.8303 Z-0.391
X2.0473 Y-0.8299 Z-0.39
X2.0489 Y-0.8295 Z-0.3889
X2.0504 Y-0.8291 Z-0.3877
X2.0518 Y-0.8287 Z-0.3864
X2.0531 Y-0.8284 Z-0.3849
X2.0543 Y-0.8281 Z-0.3834
X2.0553 Y-0.8278 Z-0.3818
X2.0563 Y-0.8276 Z-0.3801
X2.0571 Y-0.8274 Z-0.3783
X2.0577 Y-0.8272 Z-0.3764
X2.0582 Y-0.8271 Z-0.3745
X2.0586 Y-0.827 Z-0.3726
X2.0588 Z-0.3707
X2.0589 Y-0.8269 Z-0.3687
G0 Z0.1969
X2.049 Y0.8064
Z-0.3437
G1 Z-0.3687 F15.
X2.0489 Y0.8065 Z-0.3707
Y0.8067 Z-0.3726
X2.0487 Y0.8071 Z-0.3745
X2.0485 Y0.8076 Z-0.3764
X2.0483 Y0.8082 Z-0.3783
X2.048 Y0.809 Z-0.3801
X2.0477 Y0.8099 Z-0.3818
X2.0473 Y0.8109 Z-0.3834
X2.0469 Y0.812 Z-0.3849
X2.0464 Y0.8133 Z-0.3864
X2.0459 Y0.8146 Z-0.3877
X2.0454 Y0.8161 Z-0.3889
X2.0448 Y0.8176 Z-0.39
X2.0442 Y0.8192 Z-0.391
X2.0436 Y0.8209 Z-0.3918
X2.043 Y0.8226 Z-0.3925
X2.0423 Y0.8244 Z-0.393
X2.0416 Y0.8262 Z-0.3934
X2.041 Y0.828 Z-0.3936
X2.0403 Y0.8298 Z-0.3937
G3 X2.0318 Y0.8349 I-0.0073 J-0.0027
G1 X2.0082 Y0.831
X1.9787 Y0.8306
X1.9725 Y0.8303
X1.9657 Y0.8294
X1.9586 Y0.8278
X1.9503 Y0.8253
X1.9418 Y0.822
X1.9324 Y0.8174
X1.9222 Y0.8114
X1.9119 Y0.8041
X1.9001 Y0.7943
X1.8889 Y0.7833
X1.8764 Y0.7689
X1.8643 Y0.7524
X1.8513 Y0.7314
X1.8385 Y0.7066
X1.8256 Y0.6754
X1.8143 Y0.6406
X1.8054 Y0.605
X1.7985 Y0.569
X1.7931 Y0.5327
X1.7889 Y0.4963
X1.7857 Y0.4597
X1.7832 Y0.4231
X1.7812 Y0.3865
X1.7786 Y0.3132
X1.7766 Y0.2032
X1.7755 Y0.0565
X1.775 Y-0.4202
X1.7752 Y-0.6035
X1.7757 Y-0.6402
X1.7773 Y-0.6769
X1.7806 Y-0.7134
X1.7853 Y-0.743
X1.7906 Y-0.7648
X1.7969 Y-0.7839
X1.8016 Y-0.7949
X1.807 Y-0.8049
X1.8143 Y-0.8137
X1.8231 Y-0.8208
X1.8331 Y-0.8262
X1.844 Y-0.8295
X1.8553 Y-0.8306
X1.9463
G3 X1.9558 Y-0.8283 I-0.0009 J0.025
G1 X1.9576 Y-0.8275 Z-0.3936
X1.9593 Y-0.8267 Z-0.3934
X1.9611 Y-0.8259 Z-0.393
X1.9628 Y-0.8251 Z-0.3925
X1.9645 Y-0.8244 Z-0.3918
X1.9661 Y-0.8236 Z-0.391
X1.9677 Y-0.8229 Z-0.39
X1.9691 Y-0.8223 Z-0.3889
X1.9705 Y-0.8216 Z-0.3877
X1.9719 Y-0.821 Z-0.3864
X1.9731 Y-0.8205 Z-0.3849
X1.9742 Y-0.82 Z-0.3834
X1.9752 Y-0.8195 Z-0.3818
X1.976 Y-0.8191 Z-0.3801
X1.9768 Y-0.8188 Z-0.3783
X1.9774 Y-0.8185 Z-0.3764
X1.9779 Y-0.8183 Z-0.3745
X1.9782 Y-0.8181 Z-0.3726
X1.9785 Y-0.818 Z-0.3707
Z-0.3687
G0 Z0.1969
X1.9906 Y0.7996
Z-0.3437
G1 Z-0.3687 F15.
X1.9905 Y0.7997 Z-0.3707
Y0.7999 Z-0.3726
X1.9904 Y0.8003 Z-0.3745
X1.9903 Y0.8008 Z-0.3764
X1.9902 Y0.8015 Z-0.3783
X1.9901 Y0.8023 Z-0.3801
X1.9899 Y0.8032 Z-0.3818
X1.9897 Y0.8043 Z-0.3834
X1.9895 Y0.8055 Z-0.3849
X1.9892 Y0.8068 Z-0.3864
X1.989 Y0.8082 Z-0.3877
X1.9887 Y0.8097 Z-0.3889
X1.9884 Y0.8113 Z-0.39
X1.9881 Y0.813 Z-0.391
X1.9878 Y0.8148 Z-0.3918
X1.9875 Y0.8166 Z-0.3925
X1.9871 Y0.8184 Z-0.393
X1.9868 Y0.8203 Z-0.3934
X1.9864 Y0.8222 Z-0.3936
X1.9861 Y0.8242 Z-0.3937
G3 X1.9787 Y0.8306 I-0.0077 J-0.0014
G1 X1.9082
X1.8974 Y0.83
X1.8896 Y0.829
X1.8811 Y0.8272
X1.872 Y0.8245
X1.8617 Y0.8205
X1.8513 Y0.8154
X1.8394 Y0.8084
X1.8278 Y0.8003
X1.8146 Y0.7893
X1.8018 Y0.7769
X1.7877 Y0.7606
X1.7742 Y0.7424
X1.7598 Y0.7192
X1.7452 Y0.6911
X1.7311 Y0.6572
X1.7196 Y0.6224
X1.7104 Y0.5869
X1.703 Y0.551
X1.6971 Y0.5148
X1.6924 Y0.4784
X1.6887 Y0.4419
X1.6857 Y0.4054
X1.6833 Y0.3688
X1.6815 Y0.3321
X1.6789 Y0.2589
X1.6768 Y0.1489
X1.6756 Y0.0022
X1.6751 Y-0.4012
X1.6752 Y-0.5479
X1.6758 Y-0.5846
X1.6769 Y-0.6212
X1.679 Y-0.6578
X1.6827 Y-0.6943
X1.6884 Y-0.7306
X1.6948 Y-0.758
X1.7016 Y-0.7789
X1.7086 Y-0.7958
X1.7102 Y-0.7989
X1.7172 Y-0.8095
X1.7264 Y-0.8184
X1.7373 Y-0.8251
X1.7494 Y-0.8292
X1.7621 Y-0.8306
X1.8553
G3 X1.8648 Y-0.8283 I-0.0009 J0.025
G1 X1.8666 Y-0.8275 Z-0.3936
X1.8684 Y-0.8267 Z-0.3934
X1.8701 Y-0.8259 Z-0.393
X1.8719 Y-0.8251 Z-0.3925
X1.8735 Y-0.8244 Z-0.3918
X1.8752 Y-0.8236 Z-0.391
X1.8767 Y-0.8229 Z-0.39
X1.8782 Y-0.8223 Z-0.3889
X1.8796 Y-0.8216 Z-0.3877
X1.8809 Y-0.821 Z-0.3864
X1.8821 Y-0.8205 Z-0.3849
X1.8832 Y-0.82 Z-0.3834
X1.8842 Y-0.8195 Z-0.3818
X1.8851 Y-0.8191 Z-0.3801
X1.8859 Y-0.8188 Z-0.3783
X1.8865 Y-0.8185 Z-0.3764
X1.887 Y-0.8183 Z-0.3745
X1.8873 Y-0.8181 Z-0.3726
X1.8875 Y-0.818 Z-0.3707
X1.8876 Z-0.3687
G0 Z0.1969
X1.9201 Y0.7995
Z-0.3437
G1 Z-0.3687 F15.
Y0.7996 Z-0.3707
X1.92 Y0.7998 Z-0.3726
X1.9199 Y0.8002 Z-0.3745
Y0.8007 Z-0.3764
X1.9197 Y0.8014 Z-0.3783
X1.9196 Y0.8022 Z-0.3801
X1.9194 Y0.8032 Z-0.3818
X1.9192 Y0.8042 Z-0.3834
X1.919 Y0.8054 Z-0.3849
X1.9188 Y0.8068 Z-0.3864
X1.9185 Y0.8082 Z-0.3877
X1.9183 Y0.8097 Z-0.3889
X1.918 Y0.8113 Z-0.39
X1.9177 Y0.813 Z-0.391
X1.9173 Y0.8147 Z-0.3918
X1.917 Y0.8165 Z-0.3925
X1.9167 Y0.8184 Z-0.393
X1.9163 Y0.8203 Z-0.3934
X1.916 Y0.8222 Z-0.3936
X1.9157 Y0.8242 Z-0.3937
G3 X1.9082 Y0.8306 I-0.0077 J-0.0014
G1 X1.8249
X1.8149 Y0.8301
X1.8069 Y0.829
X1.7975 Y0.827
X1.7878 Y0.8241
X1.777 Y0.8199
X1.7654 Y0.8143
X1.7533 Y0.8071
X1.7399 Y0.7977
X1.7266 Y0.7867
X1.7117 Y0.7722
X1.6974 Y0.7557
X1.6822 Y0.7352
X1.6665 Y0.71
X1.651 Y0.68
X1.6369 Y0.6462
X1.6252 Y0.6114
X1.6157 Y0.576
X1.6078 Y0.5402
X1.6014 Y0.5041
X1.5962 Y0.4678
X1.5919 Y0.4314
X1.5885 Y0.3949
X1.5857 Y0.3583
X1.5835 Y0.3217
X1.5803 Y0.2484
X1.5783 Y0.1751
X1.5766 Y0.0651
X1.5755 Y-0.1183
X1.5751 Y-0.4483
X1.5756 Y-0.5217
X1.5763 Y-0.5583
X1.5777 Y-0.595
X1.5798 Y-0.6316
X1.5831 Y-0.6681
X1.5881 Y-0.7044
X1.5952 Y-0.7404
X1.6024 Y-0.7662
X1.6095 Y-0.7855
X1.6148 Y-0.7968
X1.6216 Y-0.8081
X1.6309 Y-0.8175
X1.6421 Y-0.8247
X1.6545 Y-0.8291
X1.6677 Y-0.8306
X1.7621
G3 X1.7716 Y-0.8283 I-0.0009 J0.025
G1 X1.7734 Y-0.8275 Z-0.3936
X1.7752 Y-0.8267 Z-0.3934
X1.7769 Y-0.8259 Z-0.393
X1.7786 Y-0.8251 Z-0.3925
X1.7803 Y-0.8244 Z-0.3918
X1.7819 Y-0.8236 Z-0.391
X1.7835 Y-0.8229 Z-0.39
X1.785 Y-0.8223 Z-0.3889
X1.7864 Y-0.8216 Z-0.3877
X1.7877 Y-0.821 Z-0.3864
X1.7889 Y-0.8205 Z-0.3849
X1.79 Y-0.82 Z-0.3834
X1.791 Y-0.8195 Z-0.3818
X1.7919 Y-0.8191 Z-0.3801
X1.7926 Y-0.8188 Z-0.3783
X1.7932 Y-0.8185 Z-0.3764
X1.7937 Y-0.8183 Z-0.3745
X1.7941 Y-0.8181 Z-0.3726
X1.7943 Y-0.818 Z-0.3707
Z-0.3687
G0 Z0.1969
X1.8367 Y0.7995
Z-0.3437
G1 Z-0.3687 F15.
Y0.7996 Z-0.3707
Y0.7998 Z-0.3726
X1.8366 Y0.8002 Z-0.3745
X1.8365 Y0.8007 Z-0.3764
X1.8364 Y0.8014 Z-0.3783
X1.8363 Y0.8022 Z-0.3801
X1.8361 Y0.8032 Z-0.3818
X1.8359 Y0.8042 Z-0.3834
X1.8357 Y0.8054 Z-0.3849
X1.8354 Y0.8068 Z-0.3864
X1.8352 Y0.8082 Z-0.3877
X1.8349 Y0.8097 Z-0.3889
X1.8346 Y0.8113 Z-0.39
X1.8343 Y0.813 Z-0.391
X1.834 Y0.8147 Z-0.3918
X1.8337 Y0.8165 Z-0.3925
X1.8334 Y0.8184 Z-0.393
X1.833 Y0.8203 Z-0.3934
X1.8327 Y0.8222 Z-0.3936
X1.8323 Y0.8242 Z-0.3937
G3 X1.8249 Y0.8306 I-0.0077 J-0.0014
G1 X1.737
X1.7288 Y0.8302
X1.7202 Y0.829
X1.7108 Y0.827
X1.7001 Y0.8238
X1.6893 Y0.8196
X1.6767 Y0.8135
X1.6643 Y0.8062
X1.6501 Y0.7962
X1.6361 Y0.7846
X1.6206 Y0.7694
X1.6055 Y0.7522
X1.5893 Y0.7302
X1.5728 Y0.7037
X1.5564 Y0.672
X1.5422 Y0.6381
X1.5304 Y0.6034
X1.5206 Y0.5681
X1.5123 Y0.5324
X1.5055 Y0.4963
X1.4999 Y0.4601
X1.4952 Y0.4237
X1.4914 Y0.3872
X1.4882 Y0.3507
X1.4857 Y0.3141
X1.4836 Y0.2775
X1.4805 Y0.2042
X1.4785 Y0.1309
X1.4767 Y0.0209
X1.4755 Y-0.1624
X1.4753 Y-0.4191
X1.4759 Y-0.4925
X1.4767 Y-0.5291
X1.4781 Y-0.5658
X1.4801 Y-0.6024
X1.483 Y-0.639
X1.4873 Y-0.6754
X1.4931 Y-0.7116
X1.5007 Y-0.7458
X1.5086 Y-0.771
X1.5165 Y-0.7907
X1.5202 Y-0.7982
X1.5272 Y-0.8091
X1.5364 Y-0.8181
X1.5473 Y-0.8249
X1.5596 Y-0.8291
X1.5724 Y-0.8306
X1.6677
G3 X1.6772 Y-0.8283 I-0.0009 J0.025
G1 X1.679 Y-0.8275 Z-0.3936
X1.6807 Y-0.8267 Z-0.3934
X1.6825 Y-0.8259 Z-0.393
X1.6842 Y-0.8251 Z-0.3925
X1.6859 Y-0.8244 Z-0.3918
X1.6875 Y-0.8236 Z-0.391
X1.6891 Y-0.8229 Z-0.39
X1.6905 Y-0.8223 Z-0.3889
X1.6919 Y-0.8216 Z-0.3877
X1.6933 Y-0.821 Z-0.3864
X1.6945 Y-0.8205 Z-0.3849
X1.6956 Y-0.82 Z-0.3834
X1.6966 Y-0.8195 Z-0.3818
X1.6974 Y-0.8191 Z-0.3801
X1.6982 Y-0.8188 Z-0.3783
X1.6988 Y-0.8185 Z-0.3764
X1.6993 Y-0.8183 Z-0.3745
X1.6996 Y-0.8181 Z-0.3726
X1.6998 Y-0.818 Z-0.3707
X1.6999 Z-0.3687
G0 Z0.1969
X1.7488 Y0.7995
Z-0.3437
G1 Z-0.3687 F15.
Y0.7996 Z-0.3707
Y0.7998 Z-0.3726
X1.7487 Y0.8002 Z-0.3745
X1.7486 Y0.8007 Z-0.3764
X1.7485 Y0.8014 Z-0.3783
X1.7483 Y0.8022 Z-0.3801
X1.7482 Y0.8032 Z-0.3818
X1.748 Y0.8042 Z-0.3834
X1.7478 Y0.8054 Z-0.3849
X1.7475 Y0.8068 Z-0.3864
X1.7473 Y0.8082 Z-0.3877
X1.747 Y0.8097 Z-0.3889
X1.7467 Y0.8113 Z-0.39
X1.7464 Y0.813 Z-0.391
X1.7461 Y0.8147 Z-0.3918
X1.7458 Y0.8165 Z-0.3925
X1.7454 Y0.8184 Z-0.393
X1.7451 Y0.8203 Z-0.3934
X1.7448 Y0.8222 Z-0.3936
X1.7444 Y0.8242 Z-0.3937
G3 X1.737 Y0.8306 I-0.0077 J-0.0014
G1 X1.6499
X1.64 Y0.8301
X1.6309 Y0.8289
X1.6215 Y0.8269
X1.6104 Y0.8236
X1.5992 Y0.8192
X1.5865 Y0.813
X1.5733 Y0.8053
X1.5591 Y0.7953
X1.5441 Y0.7828
X1.5285 Y0.7676
X1.5125 Y0.7493
X1.4956 Y0.7263
X1.4785 Y0.6989
X1.4617 Y0.6663
X1.4475 Y0.6325
X1.4355 Y0.5979
X1.4253 Y0.5626
X1.4168 Y0.527
X1.4096 Y0.491
X1.4036 Y0.4548
X1.3985 Y0.4185
X1.3943 Y0.3821
X1.3908 Y0.3456
X1.3879 Y0.309
X1.3855 Y0.2724
X1.3819 Y0.1992
X1.3795 Y0.1259
X1.3773 Y0.0159
X1.3759 Y-0.1308
X1.3753 Y-0.3508
X1.3757 Y-0.4242
X1.377 Y-0.4975
X1.3782 Y-0.5341
X1.3801 Y-0.5708
X1.3827 Y-0.6074
X1.3862 Y-0.6439
X1.3911 Y-0.6802
X1.3976 Y-0.7163
X1.4057 Y-0.7496
X1.4138 Y-0.7743
X1.422 Y-0.7937
X1.4247 Y-0.7991
X1.4318 Y-0.8097
X1.441 Y-0.8185
X1.4518 Y-0.8251
X1.4639 Y-0.8292
X1.4765 Y-0.8306
X1.5724
G3 X1.5819 Y-0.8283 I-0.0009 J0.025
G1 X1.5837 Y-0.8275 Z-0.3936
X1.5855 Y-0.8267 Z-0.3934
X1.5872 Y-0.8259 Z-0.393
X1.5889 Y-0.8251 Z-0.3925
X1.5906 Y-0.8244 Z-0.3918
X1.5922 Y-0.8236 Z-0.391
X1.5938 Y-0.8229 Z-0.39
X1.5953 Y-0.8223 Z-0.3889
X1.5967 Y-0.8216 Z-0.3877
X1.598 Y-0.821 Z-0.3864
X1.5992 Y-0.8205 Z-0.3849
X1.6003 Y-0.82 Z-0.3834
X1.6013 Y-0.8195 Z-0.3818
X1.6022 Y-0.8191 Z-0.3801
X1.6029 Y-0.8188 Z-0.3783
X1.6035 Y-0.8185 Z-0.3764
X1.604 Y-0.8183 Z-0.3745
X1.6044 Y-0.8181 Z-0.3726
X1.6046 Y-0.818 Z-0.3707
Z-0.3687
G0 Z0.1969
X1.6617 Y0.7995
Z-0.3437
G1 Z-0.3687 F15.
Y0.7996 Z-0.3707
Y0.7998 Z-0.3726
X1.6616 Y0.8002 Z-0.3745
X1.6615 Y0.8007 Z-0.3764
X1.6614 Y0.8014 Z-0.3783
X1.6613 Y0.8022 Z-0.3801
X1.6611 Y0.8032 Z-0.3818
X1.6609 Y0.8042 Z-0.3834
X1.6607 Y0.8054 Z-0.3849
X1.6605 Y0.8068 Z-0.3864
X1.6602 Y0.8082 Z-0.3877
X1.6599 Y0.8097 Z-0.3889
X1.6596 Y0.8113 Z-0.39
X1.6593 Y0.813 Z-0.391
X1.659 Y0.8147 Z-0.3918
X1.6587 Y0.8165 Z-0.3925
X1.6584 Y0.8184 Z-0.393
X1.658 Y0.8203 Z-0.3934
X1.6577 Y0.8222 Z-0.3936
X1.6573 Y0.8242 Z-0.3937
G3 X1.6499 Y0.8306 I-0.0077 J-0.0014
G1 X1.5583
X1.5496 Y0.8301
X1.5402 Y0.8289
X1.5306 Y0.8269
X1.5195 Y0.8235
X1.5078 Y0.819
X1.4951 Y0.8128
X1.4812 Y0.8046
X1.467 Y0.7947
X1.4512 Y0.7815
X1.4356 Y0.7663
X1.4189 Y0.7471
X1.4013 Y0.7234
X1.3837 Y0.6952
X1.3669 Y0.6626
X1.3526 Y0.6288
X1.3404 Y0.5943
X1.33 Y0.5591
X1.3211 Y0.5235
X1.3136 Y0.4876
X1.3072 Y0.4515
X1.3018 Y0.4152
X1.2973 Y0.3788
X1.2935 Y0.3424
X1.2902 Y0.3058
X1.2876 Y0.2693
X1.2834 Y0.196
X1.2806 Y0.1227
X1.278 Y0.0128
X1.2763 Y-0.1339
X1.2756 Y-0.3173
X1.2764 Y-0.4273
X1.2783 Y-0.5006
X1.2799 Y-0.5372
X1.2821 Y-0.5738
X1.2852 Y-0.6104
X1.2893 Y-0.6468
X1.2946 Y-0.6831
X1.3016 Y-0.7191
X1.31 Y-0.7522
X1.3183 Y-0.7764
X1.3266 Y-0.7957
X1.3287 Y-0.7997
X1.3358 Y-0.8101
X1.345 Y-0.8187
X1.3558 Y-0.8252
X1.3677 Y-0.8292
X1.3802 Y-0.8306
X1.4765
G3 X1.486 Y-0.8283 I-0.0009 J0.025
G1 X1.4878 Y-0.8275 Z-0.3936
X1.4896 Y-0.8267 Z-0.3934
X1.4913 Y-0.8259 Z-0.393
X1.4931 Y-0.8251 Z-0.3925
X1.4947 Y-0.8244 Z-0.3918
X1.4964 Y-0.8236 Z-0.391
X1.4979 Y-0.8229 Z-0.39
X1.4994 Y-0.8223 Z-0.3889
X1.5008 Y-0.8216 Z-0.3877
X1.5021 Y-0.821 Z-0.3864
X1.5033 Y-0.8205 Z-0.3849
X1.5044 Y-0.82 Z-0.3834
X1.5054 Y-0.8195 Z-0.3818
X1.5063 Y-0.8191 Z-0.3801
X1.507 Y-0.8188 Z-0.3783
X1.5077 Y-0.8185 Z-0.3764
X1.5082 Y-0.8183 Z-0.3745
X1.5085 Y-0.8181 Z-0.3726
X1.5087 Y-0.818 Z-0.3707
X1.5088 Z-0.3687
G0 Z0.1969
X1.5701 Y0.7995
Z-0.3437
G1 Z-0.3687 F15.
Y0.7996 Z-0.3707
X1.57 Y0.7998 Z-0.3726
Y0.8002 Z-0.3745
X1.5699 Y0.8007 Z-0.3764
X1.5698 Y0.8014 Z-0.3783
X1.5696 Y0.8022 Z-0.3801
X1.5694 Y0.8032 Z-0.3818
X1.5692 Y0.8042 Z-0.3834
X1.569 Y0.8054 Z-0.3849
X1.5688 Y0.8068 Z-0.3864
X1.5685 Y0.8082 Z-0.3877
X1.5683 Y0.8097 Z-0.3889
X1.568 Y0.8113 Z-0.39
X1.5677 Y0.813 Z-0.391
X1.5674 Y0.8147 Z-0.3918
X1.567 Y0.8165 Z-0.3925
X1.5667 Y0.8184 Z-0.393
X1.5664 Y0.8203 Z-0.3934
X1.566 Y0.8222 Z-0.3936
X1.5657 Y0.8242 Z-0.3937
G3 X1.5583 Y0.8306 I-0.0077 J-0.0014
G1 X1.4666
X1.4578 Y0.8301
X1.4483 Y0.8289
X1.4385 Y0.8268
X1.4274 Y0.8235
X1.4152 Y0.8187
X1.4025 Y0.8126
X1.3881 Y0.8041
X1.3739 Y0.7941
X1.3576 Y0.7806
X1.3418 Y0.7652
X1.3247 Y0.7455
X1.3067 Y0.7212
X1.2885 Y0.692
X1.2717 Y0.6594
X1.2573 Y0.6257
X1.2449 Y0.5912
X1.2343 Y0.5561
X1.2252 Y0.5206
X1.2174 Y0.4847
X1.2107 Y0.4487
X1.2051 Y0.4125
X1.2002 Y0.3761
X1.1961 Y0.3397
X1.1926 Y0.3032
X1.1896 Y0.2666
X1.1871 Y0.23
X1.1833 Y0.1568
X1.1806 Y0.0835
X1.1781 Y-0.0265
X1.1763 Y-0.1732
X1.176 Y-0.3199
X1.1766 Y-0.3932
X1.1783 Y-0.4665
X1.1797 Y-0.5032
X1.1816 Y-0.5398
X1.1842 Y-0.5764
X1.1877 Y-0.6129
X1.1922 Y-0.6493
X1.1979 Y-0.6855
X1.2052 Y-0.7214
X1.2139 Y-0.7544
X1.2223 Y-0.7782
X1.2308 Y-0.7973
X1.2323 Y-0.8002
X1.2395 Y-0.8104
X1.2486 Y-0.8189
X1.2593 Y-0.8253
X1.2712 Y-0.8292
X1.2836 Y-0.8306
X1.3802
G3 X1.3897 Y-0.8283 I-0.0009 J0.025
G1 X1.3915 Y-0.8275 Z-0.3936
X1.3933 Y-0.8267 Z-0.3934
X1.395 Y-0.8259 Z-0.393
X1.3967 Y-0.8251 Z-0.3925
X1.3984 Y-0.8244 Z-0.3918
X1.4 Y-0.8236 Z-0.391
X1.4016 Y-0.8229 Z-0.39
X1.4031 Y-0.8223 Z-0.3889
X1.4045 Y-0.8216 Z-0.3877
X1.4058 Y-0.821 Z-0.3864
X1.407 Y-0.8205 Z-0.3849
X1.4081 Y-0.82 Z-0.3834
X1.4091 Y-0.8195 Z-0.3818
X1.41 Y-0.8191 Z-0.3801
X1.4107 Y-0.8188 Z-0.3783
X1.4114 Y-0.8185 Z-0.3764
X1.4118 Y-0.8183 Z-0.3745
X1.4122 Y-0.8181 Z-0.3726
X1.4124 Y-0.818 Z-0.3707
X1.4125 Z-0.3687
G0 Z0.1969
X1.4784 Y0.7995
Z-0.3437
G1 Z-0.3687 F15.
Y0.7996 Z-0.3707
Y0.7998 Z-0.3726
X1.4783 Y0.8002 Z-0.3745
X1.4782 Y0.8007 Z-0.3764
X1.4781 Y0.8014 Z-0.3783
X1.4779 Y0.8022 Z-0.3801
X1.4778 Y0.8032 Z-0.3818
X1.4776 Y0.8042 Z-0.3834
X1.4774 Y0.8054 Z-0.3849
X1.4771 Y0.8068 Z-0.3864
X1.4769 Y0.8082 Z-0.3877
X1.4766 Y0.8097 Z-0.3889
X1.4763 Y0.8113 Z-0.39
X1.476 Y0.813 Z-0.391
X1.4757 Y0.8147 Z-0.3918
X1.4754 Y0.8165 Z-0.3925
X1.475 Y0.8184 Z-0.393
X1.4747 Y0.8203 Z-0.3934
X1.4744 Y0.8222 Z-0.3936
X1.474 Y0.8242 Z-0.3937
G3 X1.4666 Y0.8306 I-0.0077 J-0.0014
G1 X1.3749
X1.365 Y0.8301
X1.3555 Y0.8288
X1.3455 Y0.8267
X1.3343 Y0.8234
X1.3218 Y0.8185
X1.3091 Y0.8123
X1.2944 Y0.8037
X1.28 Y0.7936
X1.2635 Y0.7799
X1.2475 Y0.7642
X1.2299 Y0.7441
X1.2116 Y0.7193
X1.193 Y0.6894
X1.1761 Y0.6568
X1.1617 Y0.6231
X1.1492 Y0.5886
X1.1384 Y0.5536
X1.129 Y0.5181
X1.121 Y0.4823
X1.1141 Y0.4463
X1.1081 Y0.4101
X1.103 Y0.3738
X1.0986 Y0.3374
X1.0949 Y0.3009
X1.0917 Y0.2644
X1.089 Y0.2278
X1.0847 Y0.1546
X1.0817 Y0.0813
X1.0787 Y-0.0287
X1.0771 Y-0.1387
X1.0764 Y-0.2487
X1.0768 Y-0.3587
X1.0783 Y-0.432
X1.0795 Y-0.4687
X1.0812 Y-0.5053
X1.0834 Y-0.5419
X1.0864 Y-0.5785
X1.0901 Y-0.6149
X1.0949 Y-0.6513
X1.1009 Y-0.6875
X1.1085 Y-0.7233
X1.1175 Y-0.7561
X1.1259 Y-0.7796
X1.1356 Y-0.8006
X1.1428 Y-0.8107
X1.1519 Y-0.8191
X1.1625 Y-0.8254
X1.1743 Y-0.8293
X1.1866 Y-0.8306
X1.2836
G3 X1.2931 Y-0.8283 I-0.0009 J0.025
G1 X1.2948 Y-0.8275 Z-0.3936
X1.2966 Y-0.8267 Z-0.3934
X1.2984 Y-0.8259 Z-0.393
X1.3001 Y-0.8251 Z-0.3925
X1.3018 Y-0.8244 Z-0.3918
X1.3034 Y-0.8236 Z-0.391
X1.3049 Y-0.8229 Z-0.39
X1.3064 Y-0.8223 Z-0.3889
X1.3078 Y-0.8216 Z-0.3877
X1.3091 Y-0.821 Z-0.3864
X1.3104 Y-0.8205 Z-0.3849
X1.3115 Y-0.82 Z-0.3834
X1.3125 Y-0.8195 Z-0.3818
X1.3133 Y-0.8191 Z-0.3801
X1.3141 Y-0.8188 Z-0.3783
X1.3147 Y-0.8185 Z-0.3764
X1.3152 Y-0.8183 Z-0.3745
X1.3155 Y-0.8181 Z-0.3726
X1.3157 Y-0.818 Z-0.3707
X1.3158 Z-0.3687
G0 Z0.1969
X1.3868 Y0.7995
Z-0.3437
G1 Z-0.3687 F15.
X1.3867 Y0.7996 Z-0.3707
Y0.7998 Z-0.3726
X1.3866 Y0.8002 Z-0.3745
X1.3865 Y0.8007 Z-0.3764
X1.3864 Y0.8014 Z-0.3783
X1.3863 Y0.8022 Z-0.3801
X1.3861 Y0.8032 Z-0.3818
X1.3859 Y0.8042 Z-0.3834
X1.3857 Y0.8054 Z-0.3849
X1.3855 Y0.8068 Z-0.3864
X1.3852 Y0.8082 Z-0.3877
X1.3849 Y0.8097 Z-0.3889
X1.3847 Y0.8113 Z-0.39
X1.3844 Y0.813 Z-0.391
X1.384 Y0.8147 Z-0.3918
X1.3837 Y0.8165 Z-0.3925
X1.3834 Y0.8184 Z-0.393
X1.383 Y0.8203 Z-0.3934
X1.3827 Y0.8222 Z-0.3936
X1.3824 Y0.8242 Z-0.3937
G3 X1.3749 Y0.8306 I-0.0077 J-0.0014
G1 X1.2833
X1.2714 Y0.83
X1.2619 Y0.8287
X1.2517 Y0.8266
X1.2405 Y0.8232
X1.2278 Y0.8183
X1.2151 Y0.8121
X1.2002 Y0.8033
X1.1856 Y0.7931
X1.1689 Y0.7792
X1.1526 Y0.7633
X1.1347 Y0.7428
X1.1161 Y0.7176
X1.0971 Y0.6871
X1.0803 Y0.6545
X1.0657 Y0.6208
X1.0531 Y0.5864
X1.0421 Y0.5514
X1.0327 Y0.516
X1.0244 Y0.4802
X1.0167 Y0.4406
X1.0164 Y0.434
Y-0.6536
X1.0182 Y-0.6902
X1.0213 Y-0.721
X1.0263 Y-0.7483
X1.0322 Y-0.7704
X1.0384 Y-0.7878
X1.0422 Y-0.7961
X1.0477 Y-0.8058
X1.0549 Y-0.8143
X1.0637 Y-0.8212
X1.0736 Y-0.8264
X1.0843 Y-0.8295
X1.0954 Y-0.8306
G3 X1.1181 Y-0.7973 I-0.0009 J0.025
G1 X1.0649 Y-0.6462
G3 X1.0164 Y-0.6536 I-0.0236 J-0.0083
G1 Y-0.8034
X1.0168 Y-0.8095
X1.018 Y-0.8139
X1.02 Y-0.818
X1.023 Y-0.8221
X1.0249 Y-0.8241
X1.0283 Y-0.8266
X1.0333 Y-0.8291
X1.0374 Y-0.8302
X1.0416 Y-0.8306
X1.1866
G3 X1.1961 Y-0.8283 I-0.0009 J0.025
G1 X1.1979 Y-0.8275 Z-0.3936
X1.1997 Y-0.8267 Z-0.3934
X1.2014 Y-0.8259 Z-0.393
X1.2032 Y-0.8251 Z-0.3925
X1.2048 Y-0.8244 Z-0.3918
X1.2065 Y-0.8236 Z-0.391
X1.208 Y-0.8229 Z-0.39
X1.2095 Y-0.8223 Z-0.3889
X1.2109 Y-0.8216 Z-0.3877
X1.2122 Y-0.821 Z-0.3864
X1.2134 Y-0.8205 Z-0.3849
X1.2145 Y-0.82 Z-0.3834
X1.2155 Y-0.8195 Z-0.3818
X1.2164 Y-0.8191 Z-0.3801
X1.2171 Y-0.8188 Z-0.3783
X1.2178 Y-0.8185 Z-0.3764
X1.2182 Y-0.8183 Z-0.3745
X1.2186 Y-0.8181 Z-0.3726
X1.2188 Y-0.818 Z-0.3707
X1.2189 Z-0.3687
G0 Z0.1969
X1.2951 Y0.7995
Z-0.3437
G1 Z-0.3687 F15.
Y0.7996 Z-0.3707
X1.295 Y0.7998 Z-0.3726
Y0.8002 Z-0.3745
X1.2949 Y0.8007 Z-0.3764
X1.2948 Y0.8014 Z-0.3783
X1.2946 Y0.8022 Z-0.3801
X1.2945 Y0.8032 Z-0.3818
X1.2943 Y0.8042 Z-0.3834
X1.294 Y0.8054 Z-0.3849
X1.2938 Y0.8068 Z-0.3864
X1.2936 Y0.8082 Z-0.3877
X1.2933 Y0.8097 Z-0.3889
X1.293 Y0.8113 Z-0.39
X1.2927 Y0.813 Z-0.391
X1.2924 Y0.8147 Z-0.3918
X1.2921 Y0.8165 Z-0.3925
X1.2917 Y0.8184 Z-0.393
X1.2914 Y0.8203 Z-0.3934
X1.291 Y0.8222 Z-0.3936
X1.2907 Y0.8242 Z-0.3937
G3 X1.2833 Y0.8306 I-0.0077 J-0.0014
G1 X1.1833
X1.1776 Y0.8303
X1.168 Y0.829
X1.1576 Y0.8268
X1.1465 Y0.8235
X1.1335 Y0.8184
X1.1207 Y0.8122
X1.1057 Y0.8034
X1.0908 Y0.7929
X1.0741 Y0.779
X1.0575 Y0.7628
X1.0393 Y0.742
X1.0278 Y0.7265
X1.0216 Y0.7158
X1.0177 Y0.7041
X1.0164 Y0.6918
G3 X1.057 Y0.6731 I0.025 J0.0009
G1 X1.198 Y0.7861
G3 X1.1833 Y0.8306 I-0.0156 J0.0195
G1 X1.0916
X1.0827 Y0.8301
X1.0732 Y0.8289
X1.0626 Y0.8266
X1.058 Y0.8252
X1.0465 Y0.8204
X1.0363 Y0.8133
X1.0279 Y0.8042
X1.0216 Y0.7935
X1.0177 Y0.7817
X1.0164 Y0.7694
G3 X1.0559 Y0.7499 I0.025 J0.0009
G1 X1.1053 Y0.7853
G3 X1.0916 Y0.8306 I-0.0146 J0.0203
G1 X1.0416
X1.0374 Y0.8302
X1.0313 Y0.8283
X1.0281 Y0.8265
X1.0249 Y0.8241
X1.0213 Y0.82
X1.0188 Y0.8158
X1.0172 Y0.8116
X1.0166 Y0.8086
X1.0164 Y0.7867
Y0.434
G3 X1.0186 Y0.4245 I0.025 J0.0009
G1 X1.0194 Y0.4227 Z-0.3936
X1.0202 Y0.421 Z-0.3934
X1.021 Y0.4192 Z-0.393
X1.0218 Y0.4175 Z-0.3925
X1.0226 Y0.4158 Z-0.3918
X1.0233 Y0.4142 Z-0.391
X1.024 Y0.4126 Z-0.39
X1.0247 Y0.4112 Z-0.3889
X1.0253 Y0.4098 Z-0.3877
X1.0259 Y0.4084 Z-0.3864
X1.0265 Y0.4072 Z-0.3849
X1.027 Y0.4061 Z-0.3834
X1.0275 Y0.4051 Z-0.3818
X1.0278 Y0.4043 Z-0.3801
X1.0282 Y0.4035 Z-0.3783
X1.0285 Y0.4029 Z-0.3764
X1.0287 Y0.4024 Z-0.3745
X1.0289 Y0.4021 Z-0.3726
Y0.4018 Z-0.3707
X1.029 Z-0.3687
G0 Z0.1969
X-0.0497 Y1.3863
Z-0.3437
G1 Z-0.3687 F15.
X-0.0498 Z-0.3707
Y1.386 Z-0.3726
X-0.0499 Y1.3857 Z-0.3745
X-0.05 Y1.3851 Z-0.3764
X-0.0501 Y1.3845 Z-0.3783
X-0.0503 Y1.3837 Z-0.3801
X-0.0505 Y1.3827 Z-0.3818
X-0.0507 Y1.3817 Z-0.3834
X-0.0509 Y1.3805 Z-0.3849
X-0.0512 Y1.3792 Z-0.3864
X-0.0514 Y1.3778 Z-0.3877
X-0.0517 Y1.3762 Z-0.3889
X-0.052 Y1.3746 Z-0.39
X-0.0524 Y1.373 Z-0.391
X-0.0527 Y1.3712 Z-0.3918
X-0.0531 Y1.3694 Z-0.3925
X-0.0534 Y1.3675 Z-0.393
X-0.0538 Y1.3657 Z-0.3934
X-0.0542 Y1.3637 Z-0.3936
X-0.0546 Y1.3618 Z-0.3937
G3 X-0.05 Y1.3531 I0.0077 J-0.0015
G1 X-0.0167 Y1.3407
X0.05 Y1.3181
X0.0917 Y1.3054
X0.1417 Y1.2909
X0.2273 Y1.2695
X0.3167 Y1.2512
X0.4083 Y1.2366
X0.4855 Y1.2279
X0.5333 Y1.2241
X0.575 Y1.2214
X0.6083 Y1.22
X0.675 Y1.2186
X0.7666 Y1.2203
X0.85 Y1.2254
X0.9333 Y1.234
X0.9833 Y1.2409
X1.0249 Y1.2473
X1.0749 Y1.2564
X1.3663 Y1.3116
G3 X1.3752 Y1.3156 I-0.0055 J0.0244
G1 X1.3768 Y1.3167 Z-0.3936
X1.3784 Y1.3179 Z-0.3934
X1.38 Y1.319 Z-0.393
X1.3815 Y1.3201 Z-0.3925
X1.383 Y1.3211 Z-0.3918
X1.3845 Y1.3221 Z-0.391
X1.3859 Y1.3231 Z-0.39
X1.3872 Y1.3241 Z-0.3889
X1.3884 Y1.325 Z-0.3877
X1.3896 Y1.3258 Z-0.3864
X1.3907 Y1.3266 Z-0.3849
X1.3917 Y1.3273 Z-0.3834
X1.3926 Y1.3279 Z-0.3818
X1.3934 Y1.3284 Z-0.3801
X1.3941 Y1.3289 Z-0.3783
X1.3946 Y1.3293 Z-0.3764
X1.395 Y1.3296 Z-0.3745
X1.3954 Y1.3298 Z-0.3726
X1.3955 Y1.33 Z-0.3707
X1.3956 Z-0.3687
G0 Z0.1969
X2.1509 Y-1.0787
Z-0.3437
G1 Z-0.3687 F15.
X2.1508 Z-0.3707
X2.1506 Z-0.3726
X2.1502 Y-1.0786 Z-0.3745
X2.1497 Y-1.0785 Z-0.3764
X2.149 Y-1.0783 Z-0.3783
X2.1482 Y-1.0782 Z-0.3801
X2.1473 Y-1.078 Z-0.3818
X2.1462 Y-1.0778 Z-0.3834
X2.145 Y-1.0775 Z-0.3849
X2.1437 Y-1.0772 Z-0.3864
X2.1423 Y-1.0769 Z-0.3877
X2.1408 Y-1.0766 Z-0.3889
X2.1392 Y-1.0763 Z-0.39
X2.1375 Y-1.076 Z-0.391
X2.1358 Y-1.0756 Z-0.3918
X2.134 Y-1.0752 Z-0.3925
X2.1321 Y-1.0749 Z-0.393
X2.1302 Y-1.0745 Z-0.3934
X2.1283 Y-1.0741 Z-0.3936
X2.1264 Y-1.0737 Z-0.3937
G3 X2.1177 Y-1.0782 I-0.0016 J-0.0077
G1 X2.107 Y-1.1032
X2.1033 Y-1.1115
X2.0899 Y-1.1365
X2.0747 Y-1.1614
X2.0572 Y-1.1864
X2.0499 Y-1.1962
X2.0416 Y-1.2062
X2.0166 Y-1.2333
X2.0053 Y-1.2447
X1.9666 Y-1.2769
X1.9399 Y-1.2946
X1.9166 Y-1.3091
X1.8916 Y-1.3214
X1.8666 Y-1.3329
X1.858 Y-1.3363
X1.8166 Y-1.3499
X1.8049 Y-1.3529
X1.7666 Y-1.3603
X1.7582 Y-1.3618
X1.7249 Y-1.3642
X1.7082 Y-1.365
X1.6833 Y-1.3643
X1.6499 Y-1.3618
X1.6249 Y-1.3581
X1.5833 Y-1.3502
X1.5333 Y-1.3405
X1.4749 Y-1.3301
X1.4022 Y-1.321
X1.3656 Y-1.3178
X1.329 Y-1.3156
X1.2924 Y-1.3141
X1.2191 Y-1.3123
X1.1091 Y-1.3112
X0.779 Y-1.3106
X0.0825
X0.0767 Y-1.3109
X0.071 Y-1.3118
X0.0653 Y-1.3132
X0.0333 Y-1.3236
X-0.0274 Y-1.3446
X-0.125 Y-1.3821
X-0.1917 Y-1.4067
X-0.2124 Y-1.4135
G3 X-0.2207 Y-1.4186 I0.0086 J-0.0235
G1 X-0.2221 Y-1.4199 Z-0.3936
X-0.2236 Y-1.4212 Z-0.3934
X-0.225 Y-1.4225 Z-0.393
X-0.2264 Y-1.4238 Z-0.3925
X-0.2277 Y-1.4251 Z-0.3918
X-0.2291 Y-1.4263 Z-0.391
X-0.2303 Y-1.4274 Z-0.39
X-0.2315 Y-1.4285 Z-0.3889
X-0.2327 Y-1.4296 Z-0.3877
X-0.2337 Y-1.4306 Z-0.3864
X-0.2347 Y-1.4315 Z-0.3849
X-0.2356 Y-1.4323 Z-0.3834
X-0.2364 Y-1.433 Z-0.3818
X-0.2371 Y-1.4337 Z-0.3801
X-0.2377 Y-1.4342 Z-0.3783
X-0.2382 Y-1.4347 Z-0.3764
X-0.2386 Y-1.4351 Z-0.3745
X-0.2389 Y-1.4353 Z-0.3726
X-0.239 Y-1.4355 Z-0.3707
X-0.2391 Z-0.3687
G0 Z0.1969
X1.4811 Y-1.3628
Z-0.3437
G1 Z-0.3687 F15.
Y-1.3627 Z-0.3707
Y-1.3625 Z-0.3726
Y-1.3621 Z-0.3745
Y-1.3616 Z-0.3764
Y-1.3609 Z-0.3783
Y-1.3601 Z-0.3801
Y-1.3591 Z-0.3818
Y-1.358 Z-0.3834
Y-1.3568 Z-0.3849
Y-1.3555 Z-0.3864
Y-1.354 Z-0.3877
Y-1.3525 Z-0.3889
Y-1.3508 Z-0.39
Y-1.3491 Z-0.391
Y-1.3473 Z-0.3918
Y-1.3455 Z-0.3925
Y-1.3436 Z-0.393
Y-1.3417 Z-0.3934
Y-1.3397 Z-0.3936
Y-1.3378 Z-0.3937
G3 X1.4749 Y-1.3301 I-0.0078 J0.
G1 X1.1999 Y-1.2806
X1.0333 Y-1.2491
X1.0071 Y-1.2447
X0.9416 Y-1.2351
X0.9 Y-1.2304
X0.85 Y-1.2254
X0.7666 Y-1.2202
X0.675 Y-1.2187
X0.5916 Y-1.2206
X0.55 Y-1.2231
X0.4916 Y-1.2274
X0.4333 Y-1.2338
X0.4 Y-1.2378
X0.3167 Y-1.2512
X0.225 Y-1.2701
X0.1417 Y-1.2909
X0.0653 Y-1.3132
G3 X0.0569 Y-1.3181 I0.0082 J-0.0236
G1 X0.0555 Y-1.3194 Z-0.3936
X0.054 Y-1.3207 Z-0.3934
X0.0526 Y-1.322 Z-0.393
X0.0512 Y-1.3233 Z-0.3925
X0.0498 Y-1.3245 Z-0.3918
X0.0484 Y-1.3257 Z-0.391
X0.0472 Y-1.3268 Z-0.39
X0.0459 Y-1.3279 Z-0.3889
X0.0448 Y-1.3289 Z-0.3877
X0.0437 Y-1.3299 Z-0.3864
X0.0427 Y-1.3308 Z-0.3849
X0.0418 Y-1.3316 Z-0.3834
X0.041 Y-1.3323 Z-0.3818
X0.0403 Y-1.3329 Z-0.3801
X0.0397 Y-1.3335 Z-0.3783
X0.0392 Y-1.3339 Z-0.3764
X0.0388 Y-1.3343 Z-0.3745
X0.0385 Y-1.3345 Z-0.3726
X0.0383 Y-1.3347 Z-0.3707
X0.0382 Z-0.3687
G0 Z0.1969
X-1.021 Y-1.4719
Z-0.3437
G1 Z-0.3687 F15.
Z-0.3707
Y-1.4716 Z-0.3726
Y-1.4712 Z-0.3745
X-1.0209 Y-1.4707 Z-0.3764
Y-1.47 Z-0.3783
X-1.0208 Y-1.4692 Z-0.3801
Y-1.4683 Z-0.3818
X-1.0207 Y-1.4672 Z-0.3834
X-1.0206 Y-1.466 Z-0.3849
X-1.0205 Y-1.4646 Z-0.3864
X-1.0204 Y-1.4632 Z-0.3877
X-1.0203 Y-1.4616 Z-0.3889
X-1.0202 Y-1.46 Z-0.39
X-1.0201 Y-1.4583 Z-0.391
X-1.02 Y-1.4565 Z-0.3918
X-1.0198 Y-1.4547 Z-0.3925
X-1.0197 Y-1.4528 Z-0.393
X-1.0196 Y-1.4509 Z-0.3934
X-1.0195 Y-1.4489 Z-0.3936
X-1.0193 Y-1.447 Z-0.3937
G3 X-1.0249 Y-1.4389 I-0.0078 J0.0005
G1 X-1.0673 Y-1.4278
X-1.1166 Y-1.4132
X-1.1749 Y-1.3933
X-1.2249 Y-1.3741
X-1.2666 Y-1.3562
X-1.299 Y-1.3441
X-1.3315 Y-1.3348
X-1.3675 Y-1.3276
X-1.4038 Y-1.3225
X-1.4403 Y-1.319
X-1.4769 Y-1.3166
X-1.5135 Y-1.3148
X-1.5868 Y-1.3128
X-1.6968 Y-1.3114
X-1.7323 Y-1.3019
X-1.7633 Y-1.2823
X-1.7887 Y-1.2559
X-1.809 Y-1.2254
X-1.8247 Y-1.1923
X-1.8368 Y-1.1576
X-1.846 Y-1.1221
X-1.853 Y-1.0861
X-1.8582 Y-1.0498
X-1.8621 Y-1.0134
X-1.865 Y-0.9768
X-1.8671 Y-0.9402
X-1.8694 Y-0.8826
X-1.8708 Y-0.8715
X-1.8744 Y-0.8608
X-1.8799 Y-0.851
X-1.8956 Y-0.8284
X-1.9277 Y-0.7785
X-1.9523 Y-0.7368
X-1.9754 Y-0.6952
X-1.9794 Y-0.6876
G3 X-1.9857 Y-0.6802 I-0.0218 J-0.0122
G1 X-1.9872 Y-0.679 Z-0.3936
X-1.9888 Y-0.6778 Z-0.3934
X-1.9903 Y-0.6766 Z-0.393
X-1.9918 Y-0.6754 Z-0.3925
X-1.9932 Y-0.6742 Z-0.3918
X-1.9946 Y-0.6731 Z-0.391
X-1.996 Y-0.6721 Z-0.39
X-1.9972 Y-0.6711 Z-0.3889
X-1.9984 Y-0.6701 Z-0.3877
X-1.9996 Y-0.6692 Z-0.3864
X-2.0006 Y-0.6684 Z-0.3849
X-2.0016 Y-0.6676 Z-0.3834
X-2.0024 Y-0.667 Z-0.3818
X-2.0032 Y-0.6664 Z-0.3801
X-2.0038 Y-0.6659 Z-0.3783
X-2.0044 Y-0.6654 Z-0.3764
X-2.0048 Y-0.6651 Z-0.3745
X-2.0051 Y-0.6649 Z-0.3726
X-2.0053 Y-0.6647 Z-0.3707
Z-0.3687
G0 Z0.1969
X-1.2681 Y-1.3894
Z-0.3437
G1 Z-0.3687 F15.
Z-0.3707
X-1.268 Y-1.3891 Z-0.3726
X-1.2679 Y-1.3888 Z-0.3745
X-1.2678 Y-1.3882 Z-0.3764
X-1.2677 Y-1.3876 Z-0.3783
X-1.2675 Y-1.3868 Z-0.3801
X-1.2672 Y-1.3858 Z-0.3818
X-1.267 Y-1.3848 Z-0.3834
X-1.2667 Y-1.3836 Z-0.3849
X-1.2664 Y-1.3823 Z-0.3864
X-1.2661 Y-1.3809 Z-0.3877
X-1.2657 Y-1.3794 Z-0.3889
X-1.2653 Y-1.3778 Z-0.39
X-1.265 Y-1.3761 Z-0.391
X-1.2645 Y-1.3744 Z-0.3918
X-1.2641 Y-1.3726 Z-0.3925
X-1.2637 Y-1.3708 Z-0.393
X-1.2632 Y-1.3689 Z-0.3934
X-1.2628 Y-1.367 Z-0.3936
X-1.2624 Y-1.3651 Z-0.3937
G3 X-1.2666 Y-1.3562 I-0.0076 J0.0018
G1 X-1.2916 Y-1.3449
X-1.3333 Y-1.3249
X-1.3916 Y-1.2937
X-1.4328 Y-1.2697
X-1.4535 Y-1.2589
X-1.4753 Y-1.2498
X-1.5041 Y-1.2403
X-1.5398 Y-1.2317
X-1.5759 Y-1.2256
X-1.6119 Y-1.2184
X-1.6447 Y-1.2019
X-1.6726 Y-1.1782
X-1.6955 Y-1.1495
X-1.7136 Y-1.1177
X-1.7279 Y-1.0839
X-1.7389 Y-1.0489
X-1.7434 Y-1.0297
X-1.7465 Y-1.0203
X-1.7512 Y-1.0115
X-1.7573 Y-1.0036
X-1.7916 Y-0.9653
X-1.8249 Y-0.925
X-1.8582 Y-0.8813
X-1.8799 Y-0.851
G3 X-1.8872 Y-0.8445 I-0.02 J-0.0151
G1 X-1.8889 Y-0.8435 Z-0.3936
X-1.8906 Y-0.8425 Z-0.3934
X-1.8923 Y-0.8416 Z-0.393
X-1.8939 Y-0.8406 Z-0.3925
X-1.8955 Y-0.8397 Z-0.3918
X-1.897 Y-0.8388 Z-0.391
X-1.8985 Y-0.8379 Z-0.39
X-1.8999 Y-0.8371 Z-0.3889
X-1.9012 Y-0.8363 Z-0.3877
X-1.9025 Y-0.8356 Z-0.3864
X-1.9036 Y-0.8349 Z-0.3849
X-1.9047 Y-0.8343 Z-0.3834
X-1.9056 Y-0.8337 Z-0.3818
X-1.9064 Y-0.8332 Z-0.3801
X-1.9071 Y-0.8328 Z-0.3783
X-1.9077 Y-0.8325 Z-0.3764
X-1.9082 Y-0.8322 Z-0.3745
X-1.9085 Y-0.832 Z-0.3726
X-1.9087 Y-0.8319 Z-0.3707
X-1.9088 Z-0.3687
G0 Z0.1969
X-1.4382 Y-1.3024
Z-0.3437
G1 Z-0.3687 F15.
Z-0.3707
X-1.4381 Y-1.3021 Z-0.3726
X-1.438 Y-1.3018 Z-0.3745
X-1.4378 Y-1.3013 Z-0.3764
X-1.4375 Y-1.3006 Z-0.3783
X-1.4373 Y-1.2999 Z-0.3801
X-1.4369 Y-1.299 Z-0.3818
X-1.4366 Y-1.2979 Z-0.3834
X-1.4361 Y-1.2968 Z-0.3849
X-1.4357 Y-1.2956 Z-0.3864
X-1.4352 Y-1.2942 Z-0.3877
X-1.4347 Y-1.2928 Z-0.3889
X-1.4341 Y-1.2912 Z-0.39
X-1.4335 Y-1.2896 Z-0.391
X-1.4329 Y-1.2879 Z-0.3918
X-1.4323 Y-1.2862 Z-0.3925
X-1.4316 Y-1.2844 Z-0.393
X-1.431 Y-1.2826 Z-0.3934
X-1.4303 Y-1.2808 Z-0.3936
X-1.4296 Y-1.2789 Z-0.3937
G3 X-1.4328 Y-1.2697 I-0.0073 J0.0027
G1 X-1.4833 Y-1.2376
X-1.5249 Y-1.209
X-1.5777 Y-1.1698
X-1.6285 Y-1.1281
X-1.6666 Y-1.0942
X-1.7011 Y-1.0615
X-1.7181 Y-1.0449
X-1.7423 Y-1.0199
X-1.7573 Y-1.0036
G3 X-1.7654 Y-0.9982 I-0.0178 J-0.0176
G1 X-1.7672 Y-0.9974 Z-0.3936
X-1.769 Y-0.9966 Z-0.3934
X-1.7707 Y-0.9959 Z-0.393
X-1.7725 Y-0.9952 Z-0.3925
X-1.7742 Y-0.9944 Z-0.3918
X-1.7758 Y-0.9938 Z-0.391
X-1.7774 Y-0.9931 Z-0.39
X-1.7789 Y-0.9925 Z-0.3889
X-1.7803 Y-0.9919 Z-0.3877
X-1.7816 Y-0.9913 Z-0.3864
X-1.7829 Y-0.9908 Z-0.3849
X-1.784 Y-0.9903 Z-0.3834
X-1.785 Y-0.9899 Z-0.3818
X-1.7859 Y-0.9895 Z-0.3801
X-1.7866 Y-0.9892 Z-0.3783
X-1.7873 Y-0.9889 Z-0.3764
X-1.7878 Y-0.9887 Z-0.3745
X-1.7881 Y-0.9886 Z-0.3726
X-1.7883 Y-0.9885 Z-0.3707
X-1.7884 Z-0.3687
G0 Z0.1969
X-2.0531 Y0.6054
Z-0.3437
G1 Z-0.3687 F15.
Z-0.3707
X-2.0528 Z-0.3726
X-2.0525 Y0.6053 Z-0.3745
X-2.052 Y0.6052 Z-0.3764
X-2.0513 Y0.605 Z-0.3783
X-2.0505 Y0.6048 Z-0.3801
X-2.0496 Y0.6046 Z-0.3818
X-2.0485 Y0.6043 Z-0.3834
X-2.0473 Y0.604 Z-0.3849
X-2.046 Y0.6037 Z-0.3864
X-2.0446 Y0.6033 Z-0.3877
X-2.0431 Y0.6029 Z-0.3889
X-2.0416 Y0.6026 Z-0.39
X-2.0399 Y0.6021 Z-0.391
X-2.0382 Y0.6017 Z-0.3918
X-2.0364 Y0.6013 Z-0.3925
X-2.0346 Y0.6008 Z-0.393
X-2.0327 Y0.6003 Z-0.3934
X-2.0308 Y0.5999 Z-0.3936
X-2.0289 Y0.5994 Z-0.3937
G3 X-2.02 Y0.6035 I0.0019 J0.0076
G1 X-1.9999 Y0.647
X-1.9749 Y0.6962
X-1.9524 Y0.7367
X-1.9332 Y0.7693
X-1.9228 Y0.789
X-1.9137 Y0.81
X-1.9042 Y0.8377
X-1.8952 Y0.8733
X-1.8889 Y0.9094
X-1.8844 Y0.9458
X-1.8812 Y0.9823
X-1.879 Y1.0189
X-1.8723 Y1.055
X-1.8554 Y1.0875
X-1.831 Y1.115
X-1.8018 Y1.1371
X-1.7696 Y1.1546
X-1.7355 Y1.1682
X-1.7004 Y1.1787
X-1.6646 Y1.1866
X-1.6284 Y1.1927
X-1.592 Y1.1972
X-1.551 Y1.2009
X-1.5407 Y1.2026
X-1.5308 Y1.2061
X-1.5217 Y1.2113
X-1.4833 Y1.2376
X-1.433 Y1.2695
X-1.3833 Y1.2983
X-1.349 Y1.3166
G3 X-1.3417 Y1.323 I-0.0125 J0.0217
G1 X-1.3405 Y1.3246 Z-0.3936
X-1.3393 Y1.3261 Z-0.3934
X-1.3381 Y1.3276 Z-0.393
X-1.337 Y1.3291 Z-0.3925
X-1.3358 Y1.3306 Z-0.3918
X-1.3347 Y1.332 Z-0.391
X-1.3337 Y1.3334 Z-0.39
X-1.3327 Y1.3347 Z-0.3889
X-1.3318 Y1.3359 Z-0.3877
X-1.3309 Y1.337 Z-0.3864
X-1.3301 Y1.3381 Z-0.3849
X-1.3293 Y1.339 Z-0.3834
X-1.3287 Y1.3399 Z-0.3818
X-1.3281 Y1.3407 Z-0.3801
X-1.3276 Y1.3413 Z-0.3783
X-1.3272 Y1.3419 Z-0.3764
X-1.3269 Y1.3423 Z-0.3745
X-1.3266 Y1.3426 Z-0.3726
X-1.3265 Y1.3428 Z-0.3707
X-1.3264 Z-0.3687
G0 Z0.1969
X-1.9659 Y0.7751
Z-0.3437
G1 Z-0.3687 F15.
Z-0.3707
X-1.9657 Y0.775 Z-0.3726
X-1.9653 Y0.7749 Z-0.3745
X-1.9648 Y0.7747 Z-0.3764
X-1.9642 Y0.7744 Z-0.3783
X-1.9634 Y0.7741 Z-0.3801
X-1.9625 Y0.7738 Z-0.3818
X-1.9615 Y0.7734 Z-0.3834
X-1.9603 Y0.773 Z-0.3849
X-1.9591 Y0.7725 Z-0.3864
X-1.9577 Y0.772 Z-0.3877
X-1.9563 Y0.7715 Z-0.3889
X-1.9548 Y0.7709 Z-0.39
X-1.9532 Y0.7703 Z-0.391
X-1.9515 Y0.7696 Z-0.3918
X-1.9498 Y0.769 Z-0.3925
X-1.948 Y0.7683 Z-0.393
X-1.9462 Y0.7676 Z-0.3934
X-1.9444 Y0.767 Z-0.3936
X-1.9426 Y0.7663 Z-0.3937
G3 X-1.9332 Y0.7693 I0.0028 J0.0073
G1 X-1.912 Y0.8033
X-1.89 Y0.8366
X-1.8544 Y0.8866
X-1.8499 Y0.8925
X-1.8373 Y0.9108
X-1.819 Y0.9425
X-1.7994 Y0.9735
X-1.7749 Y1.0009
X-1.7465 Y1.024
X-1.7291 Y1.0347
X-1.7252 Y1.0379
X-1.7215 Y1.0413
G3 X-1.7235 Y1.0768 I-0.0185 J0.0168
X-1.759 Y1.0744 I-0.0165 J-0.0187
G1 X-1.8882 Y0.9247
G3 X-1.8853 Y0.8892 I0.0189 J-0.0163
X-1.8499 Y0.8925 I0.0161 J0.0191
G1 X-1.8223 Y0.9282
X-1.7877 Y0.9698
X-1.7499 Y1.0116
X-1.7249 Y1.0378
X-1.7082 Y1.0547
X-1.6749 Y1.0865
X-1.6499 Y1.1092
X-1.6249 Y1.1313
X-1.5749 Y1.1718
X-1.5249 Y1.209
X-1.5217 Y1.2113
X-1.5208 Y1.2121 Z-0.3936
X-1.52 Y1.213 Z-0.3934
X-1.5192 Y1.2139 Z-0.393
X-1.5185 Y1.2147 Z-0.3925
X-1.5178 Y1.2154 Z-0.3918
X-1.5171 Y1.2161 Z-0.3911
X-1.5166 Y1.2167 Z-0.3902
X-1.5161 Y1.2173 Z-0.3892
X-1.5157 Y1.2177 Z-0.3882
X-1.5155 Y1.2181 Z-0.3871
X-1.5153 Y1.2183 Z-0.3861
X-1.5152 Y1.2185 Z-0.385
Z-0.3839
G0 Z0.1969
X-0.5737 Y0.077
Z0.1234
G1 Z0.0984 F15.
G3 X-0.7545 Y-0.077 Z0.0854 I-0.0904 J-0.077 F5.
X-0.5737 Y0.077 Z0.0724 I0.0904 J0.077
X-0.7545 Y-0.077 Z0.0593 I-0.0904 J-0.077
X-0.5737 Y0.077 Z0.0463 I0.0904 J0.077
X-0.7545 Y-0.077 Z0.0333 I-0.0904 J-0.077
X-0.5737 Y0.077 Z0.0203 I0.0904 J0.077
X-0.7545 Y-0.077 Z0.0072 I-0.0904 J-0.077
X-0.5737 Y0.077 Z-0.0058 I0.0904 J0.077
X-0.7545 Y-0.077 Z-0.0188 I-0.0904 J-0.077
X-0.5737 Y0.077 Z-0.0319 I0.0904 J0.077
X-0.7545 Y-0.077 Z-0.0449 I-0.0904 J-0.077
X-0.5737 Y0.077 Z-0.0579 I0.0904 J0.077
X-0.7545 Y-0.077 Z-0.0709 I-0.0904 J-0.077
X-0.5737 Y0.077 Z-0.084 I0.0904 J0.077
X-0.7545 Y-0.077 Z-0.097 I-0.0904 J-0.077
X-0.5737 Y0.077 Z-0.11 I0.0904 J0.077
X-0.7545 Y-0.077 Z-0.123 I-0.0904 J-0.077
X-0.5737 Y0.077 Z-0.1361 I0.0904 J0.077
X-0.7545 Y-0.077 Z-0.1491 I-0.0904 J-0.077
X-0.5737 Y0.077 Z-0.1621 I0.0904 J0.077
X-0.7545 Y-0.077 Z-0.1752 I-0.0904 J-0.077
X-0.5737 Y0.077 Z-0.1882 I0.0904 J0.077
X-0.7545 Y-0.077 Z-0.2012 I-0.0904 J-0.077
X-0.5737 Y0.077 Z-0.2142 I0.0904 J0.077
X-0.7545 Y-0.077 Z-0.2273 I-0.0904 J-0.077
X-0.5737 Y0.077 Z-0.2403 I0.0904 J0.077
X-0.7545 Y-0.077 Z-0.2533 I-0.0904 J-0.077
X-0.5737 Y0.077 Z-0.2664 I0.0904 J0.077
X-0.7545 Y-0.077 Z-0.2794 I-0.0904 J-0.077
X-0.5737 Y0.077 Z-0.2924 I0.0904 J0.077
X-0.7545 Y-0.077 Z-0.3054 I-0.0904 J-0.077
X-0.5737 Y0.077 Z-0.3185 I0.0904 J0.077
X-0.7545 Y-0.077 Z-0.3315 I-0.0904 J-0.077
X-0.5737 Y0.077 Z-0.3445 I0.0904 J0.077
X-0.7545 Y-0.077 Z-0.3575 I-0.0904 J-0.077
X-0.5737 Y0.077 Z-0.3706 I0.0904 J0.077
X-0.7545 Y-0.077 Z-0.3836 I-0.0904 J-0.077
X-0.5454 Y0. Z-0.3937 I0.0904 J0.077
X-0.7829 I-0.1188 J0.
X-0.5454 I0.1188 J0.
G1 X-0.5452 Y0.0091 F15.
X-0.5389 Y0.0453
X-0.5371 Y0.0503
X-0.5358 Y0.0554
X-0.5349 Y0.0607
X-0.5345 Y0.0663
Y0.0724
X-0.5351 Y0.079
X-0.5363 Y0.086
X-0.5381 Y0.0933
X-0.5406 Y0.1008
X-0.544 Y0.1085
X-0.5481 Y0.1164
X-0.5531 Y0.1242
X-0.559 Y0.132
X-0.5658 Y0.1396
X-0.5734 Y0.1469
X-0.5819 Y0.1538
X-0.5913 Y0.1602
X-0.6014 Y0.166
X-0.6122 Y0.1711
X-0.6238 Y0.1754
X-0.6359 Y0.1789
X-0.6485 Y0.1815
X-0.6615 Y0.1831
X-0.6749 Y0.1836
X-0.6884 Y0.183
X-0.7021 Y0.1813
X-0.7157 Y0.1786
X-0.7292 Y0.1746
X-0.7425 Y0.1696
X-0.7555 Y0.1634
X-0.768 Y0.1562
X-0.7799 Y0.148
X-0.7913 Y0.1387
X-0.8019 Y0.1285
X-0.8117 Y0.1175
X-0.8207 Y0.1056
X-0.8286 Y0.0931
X-0.8356 Y0.0798
X-0.8415 Y0.0661
X-0.8463 Y0.0518
X-0.8499 Y0.0372
X-0.8524 Y0.0223
X-0.8536 Y0.0073
X-0.8537 Y-0.0078
X-0.8525 Y-0.0229
X-0.8501 Y-0.0379
X-0.8466 Y-0.0526
X-0.8418 Y-0.0671
X-0.8359 Y-0.0811
X-0.8289 Y-0.0946
X-0.8208 Y-0.1075
X-0.8117 Y-0.1197
X-0.8017 Y-0.1311
X-0.7908 Y-0.1417
X-0.779 Y-0.1514
X-0.7665 Y-0.1602
X-0.7533 Y-0.1679
X-0.7396 Y-0.1745
X-0.7254 Y-0.18
X-0.7107 Y-0.1843
X-0.6958 Y-0.1875
X-0.6807 Y-0.1894
X-0.6654 Y-0.1901
X-0.6502 Y-0.1896
X-0.635 Y-0.1879
X-0.62 Y-0.185
X-0.6053 Y-0.1808
X-0.591 Y-0.1755
X-0.5772 Y-0.1691
X-0.5639 Y-0.1616
X-0.5512 Y-0.153
X-0.5393 Y-0.1435
X-0.5282 Y-0.133
X-0.518 Y-0.1217
X-0.5087 Y-0.1095
X-0.4999 Y-0.096
X-0.4845 Y-0.0673
X-0.4731 Y-0.0413
X-0.4656 Y-0.0196
X-0.4606 Y-0.0001
X-0.4574 Y0.0184
X-0.4557 Y0.0362
X-0.4555 Y0.0535
X-0.4567 Y0.0703
X-0.4592 Y0.0868
X-0.4629 Y0.1028
X-0.468 Y0.1185
X-0.4742 Y0.1337
X-0.4817 Y0.1485
X-0.4905 Y0.1627
X-0.5004 Y0.1763
X-0.5115 Y0.1892
X-0.5238 Y0.2012
X-0.5371 Y0.2124
X-0.5515 Y0.2226
X-0.5669 Y0.2318
X-0.5831 Y0.2398
X-0.6003 Y0.2466
X-0.6181 Y0.252
X-0.6365 Y0.2561
X-0.6555 Y0.2587
X-0.6748 Y0.2598
X-0.6943 Y0.2593
X-0.7139 Y0.2572
X-0.7334 Y0.2535
X-0.7528 Y0.2483
X-0.7717 Y0.2414
X-0.7903 Y0.233
X-0.8081 Y0.2231
X-0.8253 Y0.2117
X-0.8415 Y0.1989
X-0.8568 Y0.1847
X-0.8709 Y0.1693
X-0.8838 Y0.1528
X-0.8954 Y0.1352
X-0.9055 Y0.1167
X-0.9142 Y0.0973
X-0.9213 Y0.0773
X-0.9268 Y0.0567
X-0.9306 Y0.0357
X-0.9327 Y0.0145
X-0.9331 Y-0.0069
X-0.9318 Y-0.0283
X-0.9288 Y-0.0496
X-0.9241 Y-0.0706
X-0.9177 Y-0.0911
X-0.9096 Y-0.1111
X-0.9 Y-0.1304
X-0.8889 Y-0.1489
X-0.8763 Y-0.1664
X-0.8623 Y-0.1829
X-0.847 Y-0.1982
X-0.8306 Y-0.2122
X-0.8131 Y-0.2249
X-0.7946 Y-0.2361
X-0.7752 Y-0.2458
X-0.7552 Y-0.254
X-0.7345 Y-0.2605
X-0.7134 Y-0.2653
X-0.692 Y-0.2684
X-0.6704 Y-0.2698
X-0.6487 Y-0.2694
X-0.6272 Y-0.2673
X-0.6059 Y-0.2635
X-0.5849 Y-0.258
X-0.5645 Y-0.2508
X-0.5447 Y-0.242
X-0.5256 Y-0.2316
X-0.5075 Y-0.2198
X-0.4902 Y-0.2064
X-0.4716 Y-0.1894
X-0.4535 Y-0.17
X-0.4365 Y-0.1485
X-0.421 Y-0.1254
X-0.4075 Y-0.1013
X-0.3963 Y-0.0768
X-0.3873 Y-0.0521
X-0.3805 Y-0.0274
X-0.3758 Y-0.0027
X-0.3731 Y0.0219
X-0.3725 Y0.0462
X-0.3737 Y0.0703
X-0.3769 Y0.0941
X-0.3819 Y0.1173
X-0.3888 Y0.14
X-0.3975 Y0.1621
X-0.4078 Y0.1833
X-0.4199 Y0.2038
X-0.4337 Y0.2232
X-0.449 Y0.2416
X-0.4659 Y0.2588
X-0.4843 Y0.2748
X-0.504 Y0.2893
X-0.5249 Y0.3022
X-0.5471 Y0.3136
X-0.5703 Y0.3232
X-0.5943 Y0.331
X-0.6191 Y0.3369
X-0.6445 Y0.3408
X-0.6704 Y0.3426
X-0.6964 Y0.3424
X-0.7226 Y0.3401
X-0.7486 Y0.3356
X-0.7744 Y0.3291
X-0.7997 Y0.3204
X-0.8244 Y0.3097
X-0.8482 Y0.2969
X-0.8711 Y0.2823
X-0.8928 Y0.2657
X-0.9133 Y0.2474
X-0.9322 Y0.2274
X-0.9496 Y0.2059
X-0.9652 Y0.183
X-0.9789 Y0.1588
X-0.9908 Y0.1335
X-1.0006 Y0.1073
X-1.0082 Y0.0804
X-1.0137 Y0.0528
X-1.017 Y0.0249
X-1.018 Y-0.0033
X-1.0167 Y-0.0315
X-1.0132 Y-0.0595
X-1.0074 Y-0.0872
X-0.9995 Y-0.1143
X-0.9893 Y-0.1408
X-0.9771 Y-0.1664
X-0.9628 Y-0.1909
X-0.9467 Y-0.2142
X-0.9286 Y-0.2362
X-0.9089 Y-0.2566
X-0.8876 Y-0.2754
X-0.8648 Y-0.2925
X-0.8408 Y-0.3076
X-0.8155 Y-0.3208
X-0.7893 Y-0.332
X-0.7623 Y-0.3409
X-0.7347 Y-0.3477
X-0.7066 Y-0.3523
X-0.6782 Y-0.3546
X-0.6497
X-0.6213 Y-0.3523
X-0.5932 Y-0.3477
X-0.5655 Y-0.3409
X-0.5385 Y-0.3319
X-0.5122 Y-0.3207
X-0.4862 Y-0.3071
X-0.4605 Y-0.2909
X-0.4355 Y-0.2721
X-0.4113 Y-0.2509
X-0.3886 Y-0.2273
X-0.3677 Y-0.2017
X-0.3488 Y-0.1745
X-0.3322 Y-0.146
X-0.3181 Y-0.1164
X-0.3065 Y-0.086
X-0.2974 Y-0.0551
X-0.2909 Y-0.0238
X-0.2869 Y0.0077
X-0.2855 Y0.0392
X-0.2867 Y0.0704
X-0.2903 Y0.1013
X-0.2964 Y0.1318
X-0.3048 Y0.1615
X-0.3156 Y0.1904
X-0.3287 Y0.2184
X-0.3441 Y0.2453
X-0.3615 Y0.2709
X-0.3811 Y0.2951
X-0.4025 Y0.3177
X-0.4259 Y0.3387
X-0.451 Y0.3578
X-0.4777 Y0.3749
X-0.5058 Y0.3899
X-0.5352 Y0.4027
X-0.5658 Y0.4131
X-0.5972 Y0.4211
X-0.6294 Y0.4266
X-0.6621 Y0.4295
X-0.6952 Y0.4298
X-0.7283 Y0.4274
X-0.7613 Y0.4223
X-0.7939 Y0.4146
X-0.826 Y0.4042
X-0.8573 Y0.3912
X-0.8876 Y0.3757
X-0.9166 Y0.3577
X-0.9442 Y0.3373
X-0.9702 Y0.3148
X-0.9944 Y0.2901
X-1.0166 Y0.2635
X-1.0366 Y0.2351
X-1.0544 Y0.2051
X-1.0697 Y0.1738
X-1.0825 Y0.1412
X-1.0926 Y0.1076
X-1.1 Y0.0733
X-1.1047 Y0.0384
X-1.1065 Y0.0032
X-1.1055 Y-0.032
X-1.1017 Y-0.0672
X-1.0951 Y-0.1019
X-1.0857 Y-0.136
X-1.0735 Y-0.1693
X-1.0588 Y-0.2015
X-1.0415 Y-0.2325
X-1.0217 Y-0.262
X-0.9996 Y-0.2898
X-0.9754 Y-0.3158
X-0.9491 Y-0.3397
X-0.921 Y-0.3615
X-0.8912 Y-0.3809
X-0.86 Y-0.3979
X-0.8275 Y-0.4124
X-0.7939 Y-0.4242
X-0.7595 Y-0.4332
X-0.7244 Y-0.4395
X-0.689 Y-0.4429
X-0.6534 Y-0.4435
X-0.6179 Y-0.4412
X-0.5826 Y-0.4361
X-0.5477 Y-0.4281
X-0.5133 Y-0.4173
X-0.4795 Y-0.4036
X-0.4467 Y-0.3871
X-0.4154 Y-0.3681
X-0.3856 Y-0.3467
X-0.3575 Y-0.323
X-0.3314 Y-0.2974
X-0.3071 Y-0.2698
X-0.285 Y-0.2406
X-0.2651 Y-0.2098
X-0.2476 Y-0.1776
X-0.2324 Y-0.1442
X-0.2197 Y-0.1098
X-0.2097 Y-0.0745
X-0.2023 Y-0.0386
X-0.1977 Y-0.0022
X-0.1958 Y0.0344
X-0.1968 Y0.0711
X-0.2006 Y0.1076
X-0.2071 Y0.1436
X-0.2165 Y0.1791
X-0.2285 Y0.2137
X-0.2432 Y0.2473
X-0.2604 Y0.2797
X-0.2801 Y0.3107
X-0.302 Y0.34
X-0.3262 Y0.3676
X-0.3524 Y0.3933
X-0.3805 Y0.4169
X-0.4103 Y0.4383
X-0.4416 Y0.4574
X-0.4742 Y0.4741
X-0.508 Y0.4883
X-0.5428 Y0.4999
X-0.5783 Y0.509
X-0.6145 Y0.5153
X-0.651 Y0.5189
X-0.6876 Y0.5199
X-0.7242 Y0.5181
X-0.7606 Y0.5137
X-0.7966 Y0.5067
X-0.832 Y0.4971
X-0.8667 Y0.485
X-0.9003 Y0.4705
X-0.9329 Y0.4536
X-0.9641 Y0.4344
X-0.9939 Y0.413
X-1.0221 Y0.3895
X-1.0485 Y0.3641
X-1.0732 Y0.337
X-1.0958 Y0.3081
X-1.1165 Y0.2778
X-1.1349 Y0.2461
X-1.1511 Y0.2132
X-1.1648 Y0.1792
X-1.1762 Y0.1443
X-1.1851 Y0.1088
X-1.1915 Y0.0727
X-1.1955 Y0.0362
X-1.197 Y-0.0004
X-1.1959 Y-0.0371
X-1.1921 Y-0.0736
X-1.1859 Y-0.1097
X-1.1772 Y-0.1453
X-1.1661 Y-0.1803
X-1.1526 Y-0.2144
X-1.1369 Y-0.2475
X-1.1188 Y-0.2794
X-1.0986 Y-0.31
X-1.0763 Y-0.3391
X-1.052 Y-0.3666
X-1.026 Y-0.3924
X-0.9982 Y-0.4164
X-0.9689 Y-0.4385
X-0.9381 Y-0.4584
X-0.906 Y-0.4761
X-0.8728 Y-0.4915
X-0.8385 Y-0.5047
X-0.8035 Y-0.5155
X-0.7678 Y-0.5239
X-0.7316 Y-0.5299
X-0.6951 Y-0.5333
X-0.6584 Y-0.5341
X-0.6218 Y-0.5324
X-0.5854 Y-0.5282
X-0.5493 Y-0.5216
X-0.5138 Y-0.5126
X-0.4789 Y-0.5012
X-0.4449 Y-0.4874
X-0.412 Y-0.4714
X-0.3801 Y-0.4532
X-0.3495 Y-0.4329
X-0.3203 Y-0.4108
X-0.2925 Y-0.3869
X-0.2663 Y-0.3612
X-0.2418 Y-0.3339
X-0.2191 Y-0.3051
X-0.1983 Y-0.2749
X-0.1793 Y-0.2436
X-0.1623 Y-0.2111
X-0.1474 Y-0.1776
X-0.1346 Y-0.1432
X-0.1241 Y-0.108
X-0.1158 Y-0.0723
X-0.1098 Y-0.0361
X-0.106 Y0.0003
X-0.1046 Y0.037
X-0.1057 Y0.0736
X-0.1091 Y0.1101
X-0.1148 Y0.1464
X-0.1229 Y0.1821
X-0.1331 Y0.2173
X-0.1457 Y0.2518
X-0.1605 Y0.2854
X-0.1774 Y0.3179
X-0.1964 Y0.3492
X-0.2174 Y0.3793
X-0.2402 Y0.408
X-0.2648 Y0.4352
X-0.2912 Y0.4607
X-0.3191 Y0.4845
X-0.3485 Y0.5064
X-0.3792 Y0.5264
X-0.4112 Y0.5445
X-0.4441 Y0.5606
X-0.478 Y0.5745
X-0.5128 Y0.5862
X-0.5482 Y0.5957
X-0.5842 Y0.6029
X-0.6205 Y0.6079
X-0.6571 Y0.6106
X-0.6937 Y0.6111
X-0.7304 Y0.6093
X-0.7668 Y0.6052
X-0.8029 Y0.5988
X-0.8386 Y0.5903
X-0.8737 Y0.5797
X-0.9081 Y0.567
X-0.9417 Y0.5522
X-0.9742 Y0.5354
X-1.0057 Y0.5165
X-1.036 Y0.4958
X-1.0649 Y0.4733
X-1.0925 Y0.4492
X-1.1187 Y0.4235
X-1.1432 Y0.3962
X-1.166 Y0.3675
X-1.1871 Y0.3375
X-1.2063 Y0.3062
X-1.2236 Y0.2739
X-1.239 Y0.2406
X-1.2525 Y0.2065
X-1.2638 Y0.1716
X-1.273 Y0.1361
X-1.2801 Y0.1002
X-1.2851 Y0.0638
X-1.2879 Y0.0273
X-1.2887 Y-0.0094
X-1.2872 Y-0.046
X-1.2835 Y-0.0825
X-1.2777 Y-0.1187
X-1.2697 Y-0.1545
X-1.2597 Y-0.1898
X-1.2476 Y-0.2244
X-1.2336 Y-0.2583
X-1.2176 Y-0.2913
X-1.1996 Y-0.3233
X-1.1797 Y-0.3541
X-1.1581 Y-0.3837
X-1.1347 Y-0.412
X-1.1098 Y-0.4389
X-1.0835 Y-0.4644
X-1.0556 Y-0.4882
X-1.0263 Y-0.5103
X-0.9958 Y-0.5306
X-0.9641 Y-0.5491
X-0.9314 Y-0.5657
X-0.8978 Y-0.5805
X-0.8635 Y-0.5933
X-0.8284 Y-0.604
X-0.7927 Y-0.6125
X-0.7566 Y-0.619
X-0.7202 Y-0.6233
X-0.6836 Y-0.6255
X-0.647 Y-0.6257
X-0.6103 Y-0.6236
X-0.5739 Y-0.6195
X-0.5378 Y-0.6131
X-0.5021 Y-0.6047
X-0.467 Y-0.5942
X-0.4325 Y-0.5817
X-0.3987 Y-0.5673
X-0.3659 Y-0.5511
X-0.334 Y-0.5329
X-0.3032 Y-0.513
X-0.2736 Y-0.4914
X-0.2452 Y-0.4682
X-0.2181 Y-0.4434
X-0.1925 Y-0.4173
X-0.1682 Y-0.3897
X-0.1455 Y-0.3609
X-0.1244 Y-0.3309
X-0.105 Y-0.2998
X-0.0874 Y-0.2677
X-0.0714 Y-0.2346
X-0.0573 Y-0.2008
X-0.045 Y-0.1663
X-0.0346 Y-0.1311
X-0.0262 Y-0.0954
X-0.0198 Y-0.0593
X-0.0154 Y-0.0229
X-0.013 Y0.0137
X-0.0126 Y0.0504
X-0.0141 Y0.087
X-0.0178 Y0.1235
X-0.0234 Y0.1597
X-0.0311 Y0.1956
X-0.0408 Y0.231
X-0.0524 Y0.2658
X-0.0659 Y0.2999
X-0.0812 Y0.3332
X-0.0984 Y0.3656
X-0.1174 Y0.3969
X-0.1381 Y0.4272
X-0.1604 Y0.4563
X-0.1844 Y0.4841
X-0.2098 Y0.5105
X-0.2366 Y0.5356
X-0.2647 Y0.5591
X-0.2941 Y0.581
X-0.3247 Y0.6013
X-0.3563 Y0.6198
X-0.3889 Y0.6366
X-0.4223 Y0.6516
X-0.4566 Y0.6648
X-0.4914 Y0.6762
X-0.5269 Y0.6856
X-0.5628 Y0.693
X-0.5991 Y0.6984
X-0.6356 Y0.702
X-0.6722 Y0.7035
X-0.7089 Y0.7031
X-0.7455 Y0.7008
X-0.7819 Y0.6965
X-0.818 Y0.6903
X-0.8538 Y0.6821
X-0.8891 Y0.6721
X-0.9238 Y0.6602
X-0.9578 Y0.6465
X-0.991 Y0.631
X-1.0234 Y0.6139
X-1.0549 Y0.595
X-1.0853 Y0.5745
X-1.1145 Y0.5524
X-1.1426 Y0.5288
X-1.1695 Y0.5038
X-1.195 Y0.4775
X-1.2191 Y0.4498
X-1.2417 Y0.421
X-1.2628 Y0.391
X-1.2823 Y0.3599
X-1.3001 Y0.3279
X-1.3163 Y0.295
X-1.3308 Y0.2613
X-1.3435 Y0.2269
X-1.3544 Y0.1919
X-1.3635 Y0.1563
X-1.3708 Y0.1204
X-1.3762 Y0.0841
X-1.3797 Y0.0476
X-1.3813 Y0.011
X-1.381 Y-0.0257
X-1.3789 Y-0.0623
X-1.3749 Y-0.0988
X-1.369 Y-0.135
X-1.3613 Y-0.1708
X-1.3517 Y-0.2062
X-1.3404 Y-0.2411
X-1.3272 Y-0.2753
X-1.3124 Y-0.3088
X-1.2959 Y-0.3416
X-1.2777 Y-0.3734
X-1.2578 Y-0.4043
X-1.2364 Y-0.4341
X-1.2136 Y-0.4627
X-1.1893 Y-0.4902
X-1.1636 Y-0.5164
X-1.1366 Y-0.5412
X-1.1084 Y-0.5647
X-1.0791 Y-0.5866
X-1.0486 Y-0.6071
X-1.0171 Y-0.6259
X-0.9847 Y-0.6431
X-0.9515 Y-0.6586
X-0.9175 Y-0.6724
X-0.8829 Y-0.6845
X-0.8477 Y-0.6948
X-0.8121 Y-0.7033
X-0.776 Y-0.71
X-0.7396 Y-0.7147
X-0.7031 Y-0.7176
X-0.6664 Y-0.7187
X-0.6298 Y-0.7179
X-0.5932 Y-0.7152
X-0.5568 Y-0.7108
X-0.5207 Y-0.7044
X-0.4849 Y-0.6962
X-0.4496 Y-0.6862
X-0.4149 Y-0.6744
X-0.3808 Y-0.661
X-0.3474 Y-0.6459
X-0.3148 Y-0.6291
X-0.283 Y-0.6108
X-0.2522 Y-0.5909
X-0.2224 Y-0.5695
X-0.1937 Y-0.5466
X-0.1662 Y-0.5224
X-0.1398 Y-0.497
X-0.1147 Y-0.4702
X-0.0908 Y-0.4424
X-0.0684 Y-0.4134
X-0.0473 Y-0.3834
X-0.0278 Y-0.3523
X-0.0097 Y-0.3204
X0.0068 Y-0.2877
X0.0217 Y-0.2542
X0.035 Y-0.22
X0.0467 Y-0.1853
X0.0568 Y-0.15
X0.0651 Y-0.1143
X0.0716 Y-0.0782
X0.0764 Y-0.0418
X0.0794 Y-0.0053
X0.0807 Y0.0314
X0.0801 Y0.0681
X0.0779 Y0.1047
X0.0739 Y0.1411
X0.0681 Y0.1773
X0.0605 Y0.2132
X0.0512 Y0.2487
X0.0401 Y0.2836
X0.0274 Y0.318
X0.013 Y0.3517
X-0.003 Y0.3848
X-0.0205 Y0.417
X-0.0396 Y0.4483
X-0.0603 Y0.4786
X-0.0824 Y0.5079
X-0.1058 Y0.536
X-0.1307 Y0.563
X-0.1567 Y0.5888
X-0.184 Y0.6133
X-0.2124 Y0.6365
X-0.2419 Y0.6583
X-0.2725 Y0.6786
X-0.304 Y0.6974
X-0.3363 Y0.7147
X-0.3694 Y0.7304
X-0.4033 Y0.7445
X-0.4378 Y0.757
X-0.4728 Y0.7678
X-0.5083 Y0.777
X-0.5442 Y0.7844
X-0.5804 Y0.7901
X-0.6169 Y0.7941
X-0.6535 Y0.7963
X-0.6902 Y0.7969
X-0.7268 Y0.7957
X-0.7634 Y0.7928
X-0.7998 Y0.7882
X-0.8359 Y0.7819
X-0.8717 Y0.7739
X-0.9071 Y0.7642
X-0.9419 Y0.7529
X-0.9762 Y0.74
X-1.0099 Y0.7255
X-1.0429 Y0.7094
X-1.0751 Y0.6919
X-1.1065 Y0.6729
X-1.1369 Y0.6525
X-1.1664 Y0.6306
X-1.1948 Y0.6074
X-1.2221 Y0.5829
X-1.2482 Y0.5572
X-1.2732 Y0.5303
X-1.2969 Y0.5023
X-1.3193 Y0.4733
X-1.3403 Y0.4433
X-1.36 Y0.4123
X-1.3781 Y0.3804
X-1.3948 Y0.3478
X-1.41 Y0.3144
X-1.4236 Y0.2804
X-1.4358 Y0.2458
X-1.4463 Y0.2106
X-1.4552 Y0.1751
X-1.4625 Y0.1391
X-1.4681 Y0.1029
X-1.472 Y0.0664
X-1.4743 Y0.0298
X-1.4749 Y-0.0068
X-1.4739 Y-0.0435
X-1.4712 Y-0.0801
X-1.4669 Y-0.1165
X-1.461 Y-0.1527
X-1.4533 Y-0.1885
X-1.444 Y-0.224
X-1.4332 Y-0.259
X-1.4207 Y-0.2935
X-1.4067 Y-0.3274
X-1.3912 Y-0.3607
X-1.3743 Y-0.3932
X-1.3559 Y-0.4249
X-1.336 Y-0.4558
X-1.3148 Y-0.4856
X-1.2922 Y-0.5145
X-1.2683 Y-0.5424
X-1.2432 Y-0.5691
X-1.217 Y-0.5947
X-1.1896 Y-0.6191
X-1.1611 Y-0.6422
X-1.1317 Y-0.6641
X-1.1012 Y-0.6845
X-1.0699 Y-0.7036
X-1.0377 Y-0.7211
X-1.0048 Y-0.7373
X-0.9711 Y-0.7519
X-0.9369 Y-0.765
X-0.9021 Y-0.7766
X-0.8668 Y-0.7866
X-0.8311 Y-0.795
X-0.7951 Y-0.8017
X-0.7588 Y-0.8068
X-0.7222 Y-0.8102
X-0.6856 Y-0.812
X-0.6489 Y-0.8121
X-0.6123 Y-0.8107
X-0.5758 Y-0.8076
X-0.5394 Y-0.8028
X-0.5033 Y-0.7964
X-0.4675 Y-0.7884
X-0.4321 Y-0.7788
X-0.3972 Y-0.7676
X-0.3628 Y-0.7548
X-0.329 Y-0.7406
X-0.2959 Y-0.725
X-0.2634 Y-0.7078
X-0.2317 Y-0.6893
X-0.2009 Y-0.6695
X-0.171 Y-0.6482
X-0.1421 Y-0.6257
X-0.1142 Y-0.602
X-0.0873 Y-0.577
X-0.0614 Y-0.551
X-0.0367 Y-0.5239
X-0.0132 Y-0.4957
X0.0091 Y-0.4666
X0.0301 Y-0.4366
X0.0498 Y-0.4057
X0.0682 Y-0.3739
X0.0851 Y-0.3414
X0.1007 Y-0.3082
X0.1149 Y-0.2744
X0.1276 Y-0.24
X0.1389 Y-0.2051
X0.1487 Y-0.1698
X0.1569 Y-0.134
X0.1636 Y-0.098
X0.1687 Y-0.0616
X0.1722 Y-0.0251
X0.1741 Y0.0115
X0.1745 Y0.0482
X0.1734 Y0.0848
X0.1706 Y0.1214
X0.1663 Y0.1578
X0.1605 Y0.194
X0.153 Y0.2299
X0.144 Y0.2654
X0.1334 Y0.3006
X0.1213 Y0.3352
X0.1078 Y0.3693
X0.0928 Y0.4027
X0.0764 Y0.4355
X0.0586 Y0.4676
X0.0394 Y0.4989
X0.0189 Y0.5293
X-0.0029 Y0.5587
X-0.026 Y0.5872
X-0.0503 Y0.6147
X-0.0758 Y0.6411
X-0.1023 Y0.6664
X-0.1299 Y0.6905
X-0.1585 Y0.7135
X-0.188 Y0.7352
X-0.2185 Y0.7556
X-0.2499 Y0.7747
X-0.282 Y0.7923
X-0.3148 Y0.8086
X-0.3483 Y0.8235
X-0.3824 Y0.837
X-0.4171 Y0.8491
X-0.4522 Y0.8596
X-0.4877 Y0.8687
X-0.5236 Y0.8762
X-0.5598 Y0.8822
X-0.5962 Y0.8866
X-0.6328 Y0.8894
X-0.6694 Y0.8908
X-0.7061 Y0.8906
X-0.7427 Y0.8889
X-0.7793 Y0.8857
X-0.8156 Y0.881
X-0.8518 Y0.8747
X-0.8876 Y0.8669
X-0.9231 Y0.8576
X-0.9581 Y0.8468
X-0.9927 Y0.8345
X-1.0267 Y0.8209
X-1.0602 Y0.8059
X-1.093 Y0.7895
X-1.1251 Y0.7718
X-1.1564 Y0.7527
X-1.1869 Y0.7324
X-1.2165 Y0.7107
X-1.2452 Y0.6879
X-1.273 Y0.6639
X-1.2997 Y0.6388
X-1.3254 Y0.6127
X-1.35 Y0.5855
X-1.3735 Y0.5573
X-1.3958 Y0.5282
X-1.4169 Y0.4982
X-1.4367 Y0.4673
X-1.4552 Y0.4357
X-1.4724 Y0.4033
X-1.4883 Y0.3702
X-1.5028 Y0.3365
X-1.5159 Y0.3023
X-1.5277 Y0.2676
X-1.538 Y0.2324
X-1.5469 Y0.1968
X-1.5543 Y0.1609
X-1.5602 Y0.1247
X-1.5646 Y0.0883
X-1.5675 Y0.0517
X-1.569 Y0.0151
X-1.5689 Y-0.0216
X-1.5674 Y-0.0582
X-1.5645 Y-0.0948
X-1.56 Y-0.1312
X-1.5541 Y-0.1674
X-1.5466 Y-0.2033
X-1.5377 Y-0.2388
X-1.5274 Y-0.274
X-1.5156 Y-0.3087
X-1.5024 Y-0.343
X-1.4879 Y-0.3767
X-1.4721 Y-0.4097
X-1.4549 Y-0.4421
X-1.4365 Y-0.4738
X-1.4167 Y-0.5047
X-1.3957 Y-0.5348
X-1.3734 Y-0.5639
X-1.35 Y-0.5922
X-1.3255 Y-0.6194
X-1.2999 Y-0.6457
X-1.2733 Y-0.6709
X-1.2457 Y-0.6951
X-1.2172 Y-0.7181
X-1.1877 Y-0.7399
X-1.1573 Y-0.7605
X-1.1262 Y-0.7798
X-1.0942 Y-0.7979
X-1.0616 Y-0.8146
X-1.0283 Y-0.83
X-0.9945 Y-0.8441
X-0.9601 Y-0.8568
X-0.9252 Y-0.8681
X-0.8899 Y-0.878
X-0.8542 Y-0.8865
X-0.8182 Y-0.8934
X-0.7819 Y-0.8989
X-0.7455 Y-0.9029
X-0.7089 Y-0.9054
X-0.6722 Y-0.9065
X-0.6356 Y-0.9061
X-0.5989 Y-0.9043
X-0.5624 Y-0.901
X-0.5261 Y-0.8962
X-0.4899 Y-0.8899
X-0.4541 Y-0.8822
X-0.4186 Y-0.873
X-0.3835 Y-0.8624
X-0.3488 Y-0.8504
X-0.3146 Y-0.8371
X-0.281 Y-0.8225
X-0.248 Y-0.8065
X-0.2156 Y-0.7893
X-0.184 Y-0.7708
X-0.1531 Y-0.751
X-0.123 Y-0.7301
X-0.0937 Y-0.7079
X-0.0654 Y-0.6847
X-0.0379 Y-0.6604
X-0.0115 Y-0.635
X0.014 Y-0.6086
X0.0385 Y-0.5813
X0.0619 Y-0.5531
X0.0843 Y-0.524
X0.1054 Y-0.494
X0.1254 Y-0.4633
X0.1441 Y-0.4318
X0.1616 Y-0.3995
X0.1779 Y-0.3667
X0.1929 Y-0.3332
X0.2066 Y-0.2992
X0.2191 Y-0.2647
X0.2302 Y-0.2298
X0.24 Y-0.1944
X0.2483 Y-0.1587
X0.2553 Y-0.1227
X0.2608 Y-0.0865
X0.2649 Y-0.05
X0.2676 Y-0.0134
X0.2689 Y0.0232
X0.2688 Y0.0599
X0.2673 Y0.0965
X0.2645 Y0.1331
X0.2602 Y0.1695
X0.2566 Y0.1911
X0.25 Y0.2208
X0.2438 Y0.2455
X0.2333 Y0.2813
X0.223 Y0.3121
X0.2139 Y0.3371
X0.204 Y0.3621
X0.1917 Y0.3901
X0.1731 Y0.4287
X0.15 Y0.471
X0.1302 Y0.5036
X0.1138 Y0.5286
X0.0902 Y0.5619
X0.0642 Y0.5952
X0.0417 Y0.6216
X0.025 Y0.6401
X0. Y0.6659
X-0.025 Y0.6902
X-0.05 Y0.7125
X-0.0793 Y0.7367
X-0.1124 Y0.7617
X-0.1417 Y0.7821
X-0.175 Y0.8033
X-0.1917 Y0.8134
X-0.225 Y0.832
X-0.2583 Y0.8486
X-0.2917 Y0.8637
X-0.3166 Y0.8741
X-0.3416 Y0.8837
X-0.3742 Y0.8949
X-0.4017 Y0.9032
X-0.4333 Y0.9118
X-0.4583 Y0.9179
X-0.4916 Y0.9247
X-0.525 Y0.9302
X-0.5583 Y0.9348
X-0.5755 Y0.9365
X-0.6083 Y0.939
X-0.6416 Y0.9405
X-0.6666 Y0.9407
X-0.6916 Y0.9403
X-0.7166 Y0.9392
X-0.7416 Y0.9376
X-0.7666 Y0.9353
X-0.8 Y0.9308
X-0.8333 Y0.9254
X-0.8583 Y0.9205
X-0.8833 Y0.9149
X-0.9166 Y0.9061
X-0.9416 Y0.8989
X-0.9666 Y0.891
X-1.0013 Y0.8782
X-1.0249 Y0.8689
X-1.0583 Y0.8542
X-1.0833 Y0.8424
X-1.1104 Y0.8283
X-1.1416 Y0.8107
X-1.1802 Y0.7867
X-1.2045 Y0.77
X-1.2277 Y0.7534
X-1.2499 Y0.7364
X-1.2796 Y0.7117
X-1.3249 Y0.6697
X-1.3416 Y0.653
X-1.3644 Y0.6285
X-1.386 Y0.6035
X-1.4061 Y0.5785
X-1.4249 Y0.5535
X-1.4499 Y0.5175
X-1.4692 Y0.487
X-1.4792 Y0.4703
X-1.4975 Y0.437
X-1.5101 Y0.412
X-1.5254 Y0.3787
X-1.5361 Y0.3538
X-1.5459 Y0.3288
X-1.5583 Y0.2932
X-1.5677 Y0.2622
X-1.5768 Y0.2289
X-1.581 Y0.2122
X-1.5878 Y0.1789
X-1.5923 Y0.154
X-1.5973 Y0.1207
X-1.6002 Y0.0957
X-1.6049 Y0.0207
X-1.6052 Y0.0124
X-1.6046 Y-0.0292
X-1.6035 Y-0.0542
X-1.6017 Y-0.0792
X-1.5982 Y-0.1125
X-1.595 Y-0.1374
X-1.5911 Y-0.1624
X-1.5833 Y-0.2008
X-1.5767 Y-0.229
X-1.5701 Y-0.254
X-1.5629 Y-0.279
X-1.5487 Y-0.3206
X-1.5361 Y-0.3539
X-1.5218 Y-0.3872
X-1.506 Y-0.4205
X-1.4883 Y-0.4538
X-1.4749 Y-0.4773
X-1.4583 Y-0.5047
X-1.4416 Y-0.53
X-1.4166 Y-0.5649
X-1.3916 Y-0.597
X-1.3643 Y-0.6286
X-1.3333 Y-0.6614
X-1.2982 Y-0.6952
X-1.2695 Y-0.7202
X-1.2492 Y-0.7368
X-1.2249 Y-0.7554
X-1.1916 Y-0.779
X-1.1583 Y-0.8006
X-1.1333 Y-0.8156
X-1.0999 Y-0.8338
X-1.0749 Y-0.8464
X-1.0416 Y-0.8617
X-1.0224 Y-0.87
X-0.9916 Y-0.8822
X-0.95 Y-0.8963
X-0.9083 Y-0.9086
X-0.875 Y-0.9169
X-0.8333 Y-0.9254
X-0.7916 Y-0.9321
X-0.7583 Y-0.936
X-0.725 Y-0.9387
X-0.7 Y-0.9401
X-0.675 Y-0.9408
X-0.6416 Y-0.9404
X-0.6083 Y-0.939
X-0.5833 Y-0.9372
X-0.5583 Y-0.9347
X-0.525 Y-0.9302
X-0.5 Y-0.9262
X-0.475 Y-0.9215
X-0.4416 Y-0.9138
X-0.4166 Y-0.9074
X-0.3916 Y-0.9004
X-0.3666 Y-0.8925
X-0.3333 Y-0.8805
X-0.3 Y-0.8673
X-0.275 Y-0.8564
X-0.25 Y-0.8447
X-0.2188 Y-0.8284
X-0.189 Y-0.8118
X-0.1583 Y-0.7929
X-0.1362 Y-0.7785
X-0.1083 Y-0.7589
X-0.0794 Y-0.7368
X-0.0494 Y-0.7119
X-0.0216 Y-0.6869
X0.0042 Y-0.6619
X0.0333 Y-0.6311
X0.0583 Y-0.6023
X0.0837 Y-0.5703
X0.0961 Y-0.5537
X0.1167 Y-0.5244
X0.1354 Y-0.4954
X0.1503 Y-0.4704
X0.175 Y-0.4251
X0.193 Y-0.3872
X0.2083 Y-0.3515
X0.22 Y-0.3206
X0.2315 Y-0.2873
X0.2414 Y-0.254
X0.248 Y-0.229
X0.2538 Y-0.204
X0.2607 Y-0.1707
X0.265 Y-0.1458
X0.2685 Y-0.1208
X0.2722 Y-0.0875
X0.2743 Y-0.0625
X0.2757 Y-0.0375
X0.2763 Y-0.0042
X0.2759 Y0.0291
X0.2748 Y0.054
X0.273 Y0.079
X0.2695 Y0.1123
X0.2662 Y0.1373
X0.2623 Y0.1623
X0.2566 Y0.1911
X0.2561 Y0.1922 Z-0.3936
X0.2556 Y0.1933 Z-0.3934
X0.2552 Y0.1943 Z-0.393
X0.2547 Y0.1953 Z-0.3925
X0.2543 Y0.1963 Z-0.3918
X0.2539 Y0.1971 Z-0.3911
X0.2535 Y0.1979 Z-0.3902
X0.2532 Y0.1986 Z-0.3892
X0.253 Y0.1991 Z-0.3882
X0.2528 Y0.1995 Z-0.3871
X0.2526 Y0.1997 Z-0.3861
X0.2525 Y0.1999 Z-0.385
X0.2524 Z-0.3839
G0 Z0.1969
X-1.8447 Y-1.149
Z-0.3041
G1 Z-0.3291 F15.
Y-1.1489 Z-0.3311
X-1.8445 Y-1.1488 Z-0.333
X-1.8441 Y-1.1486 Z-0.3349
X-1.8437 Y-1.1484 Z-0.3368
X-1.8431 Y-1.148 Z-0.3387
X-1.8424 Y-1.1476 Z-0.3404
X-1.8415 Y-1.1471 Z-0.3422
X-1.8406 Y-1.1466 Z-0.3438
X-1.8396 Y-1.1459 Z-0.3453
X-1.8384 Y-1.1453 Z-0.3468
X-1.8372 Y-1.1445 Z-0.3481
X-1.8358 Y-1.1438 Z-0.3493
X-1.8344 Y-1.1429 Z-0.3504
X-1.833 Y-1.1421 Z-0.3514
X-1.8314 Y-1.1412 Z-0.3522
X-1.8298 Y-1.1402 Z-0.3529
X-1.8282 Y-1.1393 Z-0.3534
X-1.8265 Y-1.1383 Z-0.3538
X-1.8249 Y-1.1373 Z-0.354
X-1.8232 Y-1.1363 Z-0.3541
G3 X-1.7129 Y-1.0542 I-0.3237 J0.5501
G1 X-1.7091 Y-1.0505
X-1.7076 Y-1.0445
X-1.7079 Y-1.0384
X-1.7099 Y-1.0326
X-1.7135 Y-1.0277
X-1.7448 Y-0.9949
X-1.7749 Y-0.961
X-1.8093 Y-0.92
X-1.8249 Y-0.9001
X-1.8499 Y-0.867
X-1.9099 Y-0.7785
X-1.9582 Y-0.6945
X-1.971 Y-0.6702
X-2.0108 Y-0.587
X-2.0209 Y-0.562
X-2.0467 Y-0.4954
X-2.0528 Y-0.4788
X-2.0787 Y-0.3955
X-2.0873 Y-0.3622
X-2.1048 Y-0.2873
X-2.1186 Y-0.204
X-2.1229 Y-0.1707
X-2.1301 Y-0.0958
X-2.1329 Y-0.0126
X-2.1327 Y0.0207
X-2.1301 Y0.0957
X-2.122 Y0.1789
X-2.1173 Y0.2122
X-2.1049 Y0.2872
X-2.0853 Y0.3704
X-2.0788 Y0.3954
X-2.0529 Y0.4786
X-2.0404 Y0.5119
X-2.0144 Y0.5785
X-2.0069 Y0.5952
X-1.971 Y0.6701
X-1.9579 Y0.6951
X-1.91 Y0.7783
X-1.8499 Y0.867
X-1.8161 Y0.9115
X-1.7832 Y0.9512
X-1.7598 Y0.9781
X-1.7371 Y1.0031
X-1.7048 Y1.0364
X-1.6832 Y1.0577
X-1.6582 Y1.0814
X-1.6243 Y1.1113
X-1.5999 Y1.1321
X-1.5636 Y1.1613
X-1.5249 Y1.1904
X-1.4749 Y1.2248
X-1.4333 Y1.2512
X-1.3999 Y1.2712
X-1.3733 Y1.2862
X-1.3333 Y1.3077
X-1.2833 Y1.3321
X-1.2249 Y1.3577
X-1.1666 Y1.3802
X-1.1166 Y1.3972
X-1.0072 Y1.4277
X-0.9 Y1.4491
X-0.8063 Y1.461
X-0.7833 Y1.4633
X-0.7 Y1.4678
X-0.675 Y1.4684
X-0.6 Y1.4674
X-0.5666 Y1.4657
X-0.4916 Y1.4594
X-0.475 Y1.4572
X-0.4 Y1.4455
X-0.375 Y1.4407
X-0.3 Y1.4237
X-0.2167 Y1.3991
X-0.1796 Y1.3861
X-0.1083 Y1.3595
X-0.0417 Y1.3337
X-0.0083 Y1.3218
X0.0417 Y1.3048
X0.075 Y1.2945
X0.1333 Y1.2775
X0.1667 Y1.2688
X0.2321 Y1.2529
X0.3167 Y1.2357
X0.4 Y1.2224
X0.4833 Y1.2127
X0.5333 Y1.2088
X0.575 Y1.2061
X0.6083 Y1.2048
X0.675 Y1.2034
X0.7666 Y1.205
X0.85 Y1.2102
X0.9333 Y1.2186
X0.9833 Y1.2255
X1.0249 Y1.2318
X1.0666 Y1.2393
X1.4025 Y1.3028
X1.5666 Y1.3322
X1.6166 Y1.3417
X1.6416 Y1.3456
X1.6499 Y1.3468
X1.6833 Y1.3492
X1.7082 Y1.3498
X1.7499 Y1.3475
X1.7582 Y1.3464
X1.7916 Y1.34
X1.8097 Y1.3361
X1.8499 Y1.323
X1.8595 Y1.3195
X1.8951 Y1.3028
X1.9116 Y1.2945
X1.9509 Y1.2695
X1.972 Y1.2529
X1.9919 Y1.2362
X2.0085 Y1.2196
X2.0332 Y1.1926
X2.0445 Y1.178
X2.0618 Y1.153
X2.0727 Y1.1363
X2.0861 Y1.1113
X2.098 Y1.0864
X2.1082 Y1.0611
X2.1166 Y1.0352
X2.1229 Y1.0114
X2.1249 Y1.0003
X2.1267 Y0.9865
X2.1269 Y0.9781
X2.1263 Y0.9615
X2.1249 Y0.9516
X2.1236 Y0.9448
X2.1214 Y0.9365
X2.1113 Y0.9115
X2.0999 Y0.8929
X2.0916 Y0.8827
X2.0876 Y0.8782
X2.0749 Y0.8663
X2.0557 Y0.8533
X2.0499 Y0.8501
X2.0332 Y0.8425
X2.0249 Y0.8395
X2.0142 Y0.8366
X2.0082 Y0.8353
X1.9916 Y0.8332
X1.9749 Y0.8327
X1.0224
X1.0171 Y0.8324
X1.012 Y0.8309
X1.0073 Y0.8286
X1.0028 Y0.8256
X0.9979 Y0.8217
X0.9923 Y0.8165
X0.9861 Y0.8096
X0.9792 Y0.8008
X0.9718 Y0.7894
X0.9639 Y0.7748
X0.9555 Y0.7559
X0.9467 Y0.7307
X0.9375 Y0.6958
X0.9311 Y0.6597
X0.9266 Y0.6233
X0.9235 Y0.5867
X0.9214 Y0.5501
X0.9199 Y0.5135
X0.9181 Y0.4402
X0.917 Y0.3302
X0.9164 Y0.0368
Y-0.6967
X0.9166 Y-0.7333
X0.9184 Y-0.757
X0.9212 Y-0.7753
X0.9254 Y-0.7924
X0.9304 Y-0.8035
X0.9376 Y-0.8134
X0.9466 Y-0.8215
X0.9572 Y-0.8276
X0.9688 Y-0.8314
X0.9809 Y-0.8327
X1.9832
X1.9916 Y-0.8332
X2.0082 Y-0.8353
X2.0166 Y-0.8371
X2.0249 Y-0.8395
X2.0332 Y-0.8423
X2.0499 Y-0.8499
X2.0582 Y-0.8544
X2.0691 Y-0.8617
X2.0749 Y-0.866
X2.0882 Y-0.8784
X2.0999 Y-0.8922
X2.1117 Y-0.9117
X2.1218 Y-0.9366
X2.1241 Y-0.945
X2.1267 Y-0.9616
X2.1273 Y-0.9783
X2.1271 Y-0.9866
X2.1249 Y-1.0033
X2.1233 Y-1.0116
X2.1162 Y-1.0366
X2.1081 Y-1.0615
X2.0979 Y-1.0865
X2.0861 Y-1.1115
X2.0726 Y-1.1365
X2.0562 Y-1.1614
X2.0382 Y-1.1864
X2.0313 Y-1.1947
X2.0082 Y-1.2198
X1.9916 Y-1.2365
X1.9615 Y-1.2613
X1.9499 Y-1.2702
X1.9113 Y-1.2946
X1.8832 Y-1.3085
X1.8582 Y-1.32
X1.8332 Y-1.3286
X1.8082 Y-1.3365
X1.7749 Y-1.3433
X1.7582 Y-1.3464
X1.7416 Y-1.3481
X1.7082 Y-1.3497
X1.6833 Y-1.3489
X1.6499 Y-1.3463
X1.6249 Y-1.3425
X1.5333 Y-1.3247
X1.2749 Y-1.2788
X1.1833 Y-1.2621
X1.0333 Y-1.2336
X0.9986 Y-1.228
X0.9412 Y-1.2197
X0.8916 Y-1.2142
X0.8416 Y-1.2095
X0.7583 Y-1.2047
X0.675 Y-1.2034
X0.5916 Y-1.2054
X0.55 Y-1.2078
X0.4916 Y-1.2121
X0.45 Y-1.2166
X0.4 Y-1.2224
X0.3128 Y-1.2364
X0.225 Y-1.2545
X0.15 Y-1.273
X0.1083 Y-1.2846
X0.0583 Y-1.2995
X0.0222 Y-1.3113
X-0.0333 Y-1.3306
X-0.075 Y-1.3465
X-0.1417 Y-1.3721
X-0.2 Y-1.3934
X-0.2167 Y-1.3991
X-0.3 Y-1.4237
X-0.3833 Y-1.4424
X-0.4166 Y-1.4483
X-0.4833 Y-1.4584
X-0.5118 Y-1.4611
X-0.575 Y-1.4662
X-0.6 Y-1.4674
X-0.6833 Y-1.4683
X-0.7166 Y-1.467
X-0.7916 Y-1.4627
X-0.8583 Y-1.4546
X-0.9 Y-1.4491
X-1.0067 Y-1.4278
X-1.1166 Y-1.3972
X-1.1749 Y-1.3771
X-1.2249 Y-1.3577
X-1.2833 Y-1.3321
X-1.3333 Y-1.3077
X-1.3833 Y-1.2807
X-1.4167 Y-1.2613
X-1.457 Y-1.2364
X-1.4749 Y-1.2248
X-1.5249 Y-1.1904
X-1.5666 Y-1.159
X-1.6083 Y-1.1251
X-1.6499 Y-1.0889
X-1.6705 Y-1.0699
X-1.6964 Y-1.0449
X-1.7135 Y-1.0277
G3 X-1.7217 Y-1.0225 I-0.0172 J-0.0181
G1 X-1.7236 Y-1.0218 Z-0.354
X-1.7254 Y-1.0211 Z-0.3538
X-1.7272 Y-1.0204 Z-0.3534
X-1.7289 Y-1.0197 Z-0.3529
X-1.7307 Y-1.019 Z-0.3522
X-1.7323 Y-1.0184 Z-0.3514
X-1.7339 Y-1.0178 Z-0.3504
X-1.7355 Y-1.0172 Z-0.3493
X-1.7369 Y-1.0166 Z-0.3481
X-1.7382 Y-1.0161 Z-0.3468
X-1.7395 Y-1.0156 Z-0.3453
X-1.7406 Y-1.0152 Z-0.3438
X-1.7416 Y-1.0148 Z-0.3422
X-1.7425 Y-1.0145 Z-0.3404
X-1.7433 Y-1.0142 Z-0.3387
X-1.7439 Y-1.0139 Z-0.3368
X-1.7444 Y-1.0137 Z-0.3349
X-1.7448 Y-1.0136 Z-0.333
X-1.745 Y-1.0135 Z-0.3311
X-1.7451 Z-0.3291
G0 Z0.1969
X1.0343 Y0.8016
Z-0.3041
G1 Z-0.3291 F15.
X1.0342 Y0.8017 Z-0.3311
Y0.8019 Z-0.333
X1.0341 Y0.8023 Z-0.3349
X1.034 Y0.8028 Z-0.3368
X1.0339 Y0.8035 Z-0.3387
X1.0338 Y0.8043 Z-0.3404
X1.0336 Y0.8052 Z-0.3422
X1.0334 Y0.8063 Z-0.3438
X1.0332 Y0.8075 Z-0.3453
X1.033 Y0.8088 Z-0.3468
X1.0327 Y0.8102 Z-0.3481
X1.0324 Y0.8118 Z-0.3493
X1.0322 Y0.8134 Z-0.3504
X1.0319 Y0.8151 Z-0.3514
X1.0315 Y0.8168 Z-0.3522
X1.0312 Y0.8186 Z-0.3529
X1.0309 Y0.8205 Z-0.3534
X1.0305 Y0.8224 Z-0.3538
X1.0302 Y0.8243 Z-0.354
X1.0298 Y0.8262 Z-0.3541
G3 X1.0224 Y0.8327 I-0.0077 J-0.0014
G1 X0.987
X0.9817 Y0.8324
X0.9762 Y0.8316
X0.9705 Y0.8303
X0.9638 Y0.8282
X0.9568 Y0.8254
X0.9491 Y0.8216
X0.9405 Y0.8164
X0.932 Y0.8103
X0.9224 Y0.8021
X0.9124 Y0.7921
X0.9025 Y0.7805
X0.8917 Y0.7656
X0.8812 Y0.7481
X0.8702 Y0.7262
X0.859 Y0.6985
X0.848 Y0.6635
X0.8398 Y0.6278
X0.8337 Y0.5916
X0.8291 Y0.5552
X0.8258 Y0.5187
X0.8233 Y0.4821
X0.8214 Y0.4455
X0.8191 Y0.3722
X0.8174 Y0.2622
X0.8166 Y0.0788
X0.8165 Y-0.6546
X0.8176 Y-0.6912
X0.8204 Y-0.7269
X0.8244 Y-0.7518
X0.8293 Y-0.7722
X0.8348 Y-0.7887
X0.8383 Y-0.797
X0.8437 Y-0.807
X0.851 Y-0.8158
X0.8598 Y-0.8229
X0.8699 Y-0.8283
X0.8807 Y-0.8315
X0.892 Y-0.8327
X0.9809
G3 X0.9904 Y-0.8304 I-0.0009 J0.025
G1 X0.9922 Y-0.8296 Z-0.354
X0.994 Y-0.8288 Z-0.3538
X0.9957 Y-0.828 Z-0.3534
X0.9974 Y-0.8272 Z-0.3529
X0.9991 Y-0.8265 Z-0.3522
X1.0007 Y-0.8257 Z-0.3514
X1.0023 Y-0.825 Z-0.3504
X1.0038 Y-0.8243 Z-0.3493
X1.0052 Y-0.8237 Z-0.3481
X1.0065 Y-0.8231 Z-0.3468
X1.0077 Y-0.8225 Z-0.3453
X1.0088 Y-0.822 Z-0.3438
X1.0098 Y-0.8216 Z-0.3422
X1.0107 Y-0.8212 Z-0.3404
X1.0114 Y-0.8208 Z-0.3387
X1.012 Y-0.8206 Z-0.3368
X1.0125 Y-0.8203 Z-0.3349
X1.0129 Y-0.8202 Z-0.333
X1.0131 Y-0.8201 Z-0.3311
Z-0.3291
G0 Z0.1969
X0.9989 Y0.8016
Z-0.3041
G1 Z-0.3291 F15.
Y0.8017 Z-0.3311
X0.9988 Y0.8019 Z-0.333
X0.9987 Y0.8023 Z-0.3349
X0.9986 Y0.8028 Z-0.3368
X0.9985 Y0.8035 Z-0.3387
X0.9984 Y0.8043 Z-0.3404
X0.9982 Y0.8052 Z-0.3422
X0.998 Y0.8063 Z-0.3438
X0.9978 Y0.8075 Z-0.3453
X0.9976 Y0.8088 Z-0.3468
X0.9973 Y0.8102 Z-0.3481
X0.997 Y0.8118 Z-0.3493
X0.9968 Y0.8134 Z-0.3504
X0.9965 Y0.8151 Z-0.3514
X0.9961 Y0.8168 Z-0.3522
X0.9958 Y0.8186 Z-0.3529
X0.9955 Y0.8205 Z-0.3534
X0.9951 Y0.8224 Z-0.3538
X0.9948 Y0.8243 Z-0.354
X0.9945 Y0.8262 Z-0.3541
G3 X0.987 Y0.8327 I-0.0077 J-0.0014
G1 X0.925
X0.9168 Y0.8322
X0.9097 Y0.8313
X0.9021 Y0.8297
X0.8935 Y0.8271
X0.8848 Y0.8237
X0.8747 Y0.8188
X0.8648 Y0.813
X0.8536 Y0.8051
X0.8424 Y0.7958
X0.8303 Y0.7841
X0.8179 Y0.7698
X0.8053 Y0.7528
X0.7926 Y0.7324
X0.7795 Y0.707
X0.7665 Y0.6759
X0.7551 Y0.641
X0.7462 Y0.6054
X0.7393 Y0.5694
X0.7339 Y0.5331
X0.7298 Y0.4967
X0.7266 Y0.4602
X0.7241 Y0.4236
X0.7222 Y0.387
X0.7201 Y0.3277
X0.7206 Y0.3182
X0.7214 Y0.3136
X0.7341 Y0.2539
X0.7383 Y0.2289
X0.7495 Y0.1456
X0.7518 Y0.1207
X0.7565 Y0.0374
X0.7569 Y0.0124
X0.7552 Y-0.0708
X0.7538 Y-0.0958
X0.7456 Y-0.1791
X0.7416 Y-0.208
X0.7365 Y-0.2373
X0.7272 Y-0.3101
X0.7239 Y-0.3466
X0.7217 Y-0.3832
X0.7201 Y-0.4199
X0.7182 Y-0.4932
X0.7173 Y-0.5665
Y-0.6032
X0.7181 Y-0.6398
X0.7201 Y-0.6765
X0.7238 Y-0.7129
X0.7292 Y-0.7444
X0.735 Y-0.7672
X0.7417 Y-0.7868
X0.7465 Y-0.7976
X0.7519 Y-0.8075
X0.7592 Y-0.8161
X0.768 Y-0.8231
X0.778 Y-0.8284
X0.7887 Y-0.8316
X0.8 Y-0.8327
X0.892
G3 X0.9155 Y-0.8021 I-0.0009 J0.025
G1 X0.7853 Y-0.2369
G3 X0.7365 Y-0.2373 I-0.0244 J-0.0056
G1 X0.7276 Y-0.2873
X0.7223 Y-0.3123
X0.7 Y-0.3985
X0.6905 Y-0.4288
X0.6649 Y-0.5037
X0.6583 Y-0.5204
X0.6486 Y-0.5488
X0.6414 Y-0.5769
X0.6357 Y-0.6102
X0.6325 Y-0.646
X0.6322 Y-0.6817
X0.6346 Y-0.7149
X0.639 Y-0.7437
X0.6443 Y-0.766
X0.6505 Y-0.7851
X0.6553 Y-0.7967
X0.6607 Y-0.8068
X0.6679 Y-0.8156
X0.6768 Y-0.8228
X0.6869 Y-0.8282
X0.6978 Y-0.8315
X0.7092 Y-0.8327
X0.8
G3 X0.8221 Y-0.7979 I-0.0009 J0.025
G1 X0.7042 Y-0.5206
G3 X0.6583 Y-0.5204 I-0.023 J-0.0098
G1 X0.6188 Y-0.612
X0.5928 Y-0.6619
X0.5858 Y-0.6768
X0.5813 Y-0.6891
X0.5777 Y-0.702
X0.5748 Y-0.7167
X0.5731 Y-0.732
X0.5725 Y-0.7473
X0.5732 Y-0.7613
X0.575 Y-0.7751
X0.5776 Y-0.7875
X0.5786 Y-0.7909
X0.5834 Y-0.8024
X0.5905 Y-0.8126
X0.5996 Y-0.8211
X0.6103 Y-0.8274
X0.6222 Y-0.8313
X0.6345 Y-0.8327
X0.7092
G3 X0.7287 Y-0.7933 I-0.0009 J0.025
G1 X0.6349 Y-0.6599
G3 X0.5928 Y-0.6619 I-0.0204 J-0.0144
G1 X0.575 Y-0.6957
X0.5583 Y-0.7247
X0.5454 Y-0.7452
X0.5423 Y-0.7506
X0.5396 Y-0.7565
X0.5375 Y-0.7622
X0.5358 Y-0.7686
X0.5348 Y-0.7804
X0.5364 Y-0.7921
X0.5406 Y-0.8032
X0.5471 Y-0.8131
X0.5556 Y-0.8213
X0.5657 Y-0.8275
X0.5769 Y-0.8314
X0.5886 Y-0.8327
G3 X0.6106 Y-0.7974 I-0.0009 J0.025
G1 X0.5889 Y-0.749
G3 X0.5454 Y-0.7452 I-0.0228 J-0.0102
G1 X0.5215 Y-0.783
X0.5189 Y-0.7877
X0.5167 Y-0.7965
X0.5171 Y-0.8056
X0.5199 Y-0.8143
X0.525 Y-0.8218
X0.532 Y-0.8277
X0.5404 Y-0.8314
X0.5494 Y-0.8327
G3 X0.5755 Y-0.8169 I-0.0011 J0.0314
X0.5215 Y-0.783 I-0.0276 J0.0159
G1 X0.514 Y-0.7951
X0.5121 Y-0.7993
X0.5111 Y-0.8034
X0.5109 Y-0.8076
X0.5113 Y-0.8118
X0.5133 Y-0.818
X0.5166 Y-0.8231
X0.5195 Y-0.8262
X0.5224 Y-0.8284
X0.5271 Y-0.8309
X0.5333 Y-0.8325
X0.6345 Y-0.8327
G3 X0.644 Y-0.8304 I-0.0009 J0.025
G1 X0.6458 Y-0.8296 Z-0.354
X0.6476 Y-0.8288 Z-0.3538
X0.6493 Y-0.828 Z-0.3534
X0.6511 Y-0.8272 Z-0.3529
X0.6527 Y-0.8265 Z-0.3522
X0.6544 Y-0.8257 Z-0.3514
X0.6559 Y-0.825 Z-0.3504
X0.6574 Y-0.8243 Z-0.3493
X0.6588 Y-0.8237 Z-0.3481
X0.6601 Y-0.8231 Z-0.3468
X0.6613 Y-0.8225 Z-0.3453
X0.6624 Y-0.822 Z-0.3438
X0.6634 Y-0.8216 Z-0.3422
X0.6643 Y-0.8212 Z-0.3404
X0.665 Y-0.8208 Z-0.3387
X0.6657 Y-0.8206 Z-0.3368
X0.6661 Y-0.8203 Z-0.3349
X0.6665 Y-0.8202 Z-0.333
X0.6667 Y-0.8201 Z-0.3311
X0.6668 Z-0.3291
G0 Z0.1969
X0.9368 Y0.8016
Z-0.3041
G1 Z-0.3291 F15.
Y0.8017 Z-0.3311
X0.9367 Y0.8019 Z-0.333
Y0.8023 Z-0.3349
X0.9366 Y0.8028 Z-0.3368
X0.9364 Y0.8035 Z-0.3387
X0.9363 Y0.8043 Z-0.3404
X0.9361 Y0.8052 Z-0.3422
X0.9359 Y0.8063 Z-0.3438
X0.9357 Y0.8075 Z-0.3453
X0.9355 Y0.8088 Z-0.3468
X0.9352 Y0.8102 Z-0.3481
X0.935 Y0.8118 Z-0.3493
X0.9347 Y0.8134 Z-0.3504
X0.9344 Y0.8151 Z-0.3514
X0.9341 Y0.8168 Z-0.3522
X0.9337 Y0.8186 Z-0.3529
X0.9334 Y0.8205 Z-0.3534
X0.9331 Y0.8224 Z-0.3538
X0.9327 Y0.8243 Z-0.354
X0.9324 Y0.8262 Z-0.3541
G3 X0.925 Y0.8327 I-0.0077 J-0.0014
G1 X0.85
X0.8398 Y0.8321
X0.8319 Y0.8311
X0.8232 Y0.8293
X0.814 Y0.8265
X0.8036 Y0.8224
X0.7931 Y0.8173
X0.781 Y0.8103
X0.7693 Y0.802
X0.756 Y0.791
X0.7431 Y0.7783
X0.7288 Y0.762
X0.7151 Y0.7436
X0.7007 Y0.7203
X0.6861 Y0.692
X0.6719 Y0.6582
X0.6605 Y0.6233
X0.6513 Y0.5878
X0.6479 Y0.5714
X0.6467 Y0.5603
X0.6477 Y0.5493
X0.6507 Y0.5386
X0.6769 Y0.4703
X0.6833 Y0.4522
X0.7103 Y0.3621
X0.7181 Y0.3288
X0.7214 Y0.3136
G3 X0.7701 Y0.3145 I0.0242 J0.0061
G1 X0.8735 Y0.8025
G3 X0.85 Y0.8327 I-0.0245 J0.0052
G1 X0.7666
X0.7566 Y0.8322
X0.7486 Y0.8311
X0.7392 Y0.8291
X0.7294 Y0.8262
X0.7185 Y0.8219
X0.7068 Y0.8162
X0.6946 Y0.8091
X0.6811 Y0.7996
X0.6678 Y0.7885
X0.6528 Y0.7739
X0.6385 Y0.7575
X0.6232 Y0.7368
X0.6075 Y0.7116
X0.6014 Y0.6998
X0.5973 Y0.6897
X0.5952 Y0.679
X0.5951 Y0.6681
X0.5971 Y0.6574
X0.6009 Y0.6472
X0.6376 Y0.5702
X0.6449 Y0.5536
X0.6507 Y0.5386
G3 X0.6972 Y0.5401 I0.023 J0.0098
G1 X0.7893 Y0.7993
G3 X0.7666 Y0.8327 I-0.0236 J0.0084
G1 X0.6787
X0.6702 Y0.8322
X0.6616 Y0.8311
X0.6522 Y0.8291
X0.6414 Y0.8259
X0.6306 Y0.8216
X0.618 Y0.8155
X0.6055 Y0.8082
X0.5933 Y0.7996
X0.5818 Y0.7901
X0.5715 Y0.7799
X0.5645 Y0.77
X0.5598 Y0.7589
X0.5574 Y0.7471
X0.5575 Y0.7351
X0.56 Y0.7233
X0.5649 Y0.7123
X0.5916 Y0.6658
X0.6009 Y0.6472
G3 X0.6464 Y0.6504 I0.022 J0.0118
G1 X0.7013 Y0.799
G3 X0.6787 Y0.8327 I-0.0235 J0.0087
G1 X0.5916
X0.5863 Y0.8324
X0.5799 Y0.8315
X0.5739 Y0.8302
X0.5658 Y0.8276
X0.5558 Y0.8224
X0.5472 Y0.815
X0.5404 Y0.806
X0.5358 Y0.7957
X0.5336 Y0.7846
X0.5338 Y0.7733
X0.5366 Y0.7624
X0.5416 Y0.7523
G3 X0.5833 Y0.752 I0.0209 J0.0137
G1 X0.6115 Y0.7937
G3 X0.5916 Y0.8327 I-0.0207 J0.014
G1 X0.5475
X0.5421 Y0.8324
X0.5335 Y0.8295
X0.5261 Y0.8244
X0.5204 Y0.8173
X0.5169 Y0.8089
X0.5159 Y0.7999
X0.5175 Y0.791
X0.5215 Y0.7829
G3 X0.5471 Y0.7703 I0.0249 J0.0184
X0.5475 Y0.8327 I-0.0008 J0.0312
G1 X0.5333 Y0.8325
X0.5271 Y0.8311
X0.5217 Y0.8283
X0.5166 Y0.8239
X0.5137 Y0.82
X0.5117 Y0.8158
X0.5106 Y0.8116
X0.5102 Y0.8075
X0.5105 Y0.8033
X0.5123 Y0.7971
X0.5133 Y0.795
X0.5355 Y0.7617
X0.546 Y0.745
X0.5649 Y0.7123
X0.5657 Y0.7114 Z-0.354
X0.5665 Y0.7106 Z-0.3538
X0.5673 Y0.7097 Z-0.3534
X0.568 Y0.7089 Z-0.3529
X0.5687 Y0.7081 Z-0.3522
X0.5694 Y0.7074 Z-0.3515
X0.5699 Y0.7068 Z-0.3506
X0.5704 Y0.7063 Z-0.3496
X0.5708 Y0.7058 Z-0.3486
X0.5712 Y0.7056 Z-0.3475
X0.5714 Y0.7054 Z-0.3465
X0.5715 Y0.7053 Z-0.3454
X0.5716 Y0.7052 Z-0.3443
G0 Z0.1969
X-1.8327 Y-1.1371
Z-0.2648
G1 Z-0.2898 F15.
X-1.8326 Z-0.2918
X-1.8324 Y-1.137 Z-0.2938
X-1.8321 Y-1.1368 Z-0.2957
X-1.8316 Y-1.1365 Z-0.2976
X-1.8311 Y-1.1361 Z-0.2994
X-1.8304 Y-1.1357 Z-0.3012
X-1.8295 Y-1.1352 Z-0.3029
X-1.8286 Y-1.1346 Z-0.3045
X-1.8276 Y-1.134 Z-0.3061
X-1.8264 Y-1.1333 Z-0.3075
X-1.8252 Y-1.1325 Z-0.3089
X-1.8239 Y-1.1317 Z-0.3101
X-1.8225 Y-1.1309 Z-0.3112
X-1.821 Y-1.13 Z-0.3121
X-1.8195 Y-1.1291 Z-0.3129
X-1.8179 Y-1.1281 Z-0.3136
X-1.8163 Y-1.1271 Z-0.3142
X-1.8147 Y-1.1261 Z-0.3145
X-1.813 Y-1.1251 Z-0.3148
X-1.8113 Y-1.1241
G3 X-1.7024 Y-1.0402 I-0.3325 J0.5448
G1 X-1.6987 Y-1.0364
X-1.6967 Y-1.0278
Y-1.0189
X-1.6987 Y-1.0102
X-1.7024 Y-1.0022
X-1.7079 Y-0.9952
X-1.7332 Y-0.9679
X-1.7609 Y-0.9366
X-1.7952 Y-0.895
X-1.8249 Y-0.856
X-1.8609 Y-0.8034
X-1.8778 Y-0.7785
X-1.8985 Y-0.7452
X-1.9416 Y-0.6697
X-1.9852 Y-0.5787
X-1.9955 Y-0.5537
X-2.0249 Y-0.4783
X-2.0508 Y-0.3955
X-2.0582 Y-0.3694
X-2.0776 Y-0.2873
X-2.0862 Y-0.2373
X-2.0928 Y-0.1957
X-2.0952 Y-0.1791
X-2.1033 Y-0.0958
X-2.1062 Y-0.0126
X-2.106 Y0.0207
X-2.1033 Y0.0957
X-2.0952 Y0.1789
X-2.0903 Y0.2122
X-2.0791 Y0.2788
X-2.0776 Y0.2872
X-2.0579 Y0.3704
X-2.0483 Y0.4037
X-2.0248 Y0.4786
X-1.9889 Y0.5702
X-1.9814 Y0.5869
X-1.9413 Y0.6701
X-1.8936 Y0.7534
X-1.8749 Y0.7828
X-1.8326 Y0.8449
X-1.8208 Y0.8616
X-1.7916 Y0.8994
X-1.7582 Y0.9399
X-1.7162 Y0.9865
X-1.6832 Y1.0206
X-1.6416 Y1.0603
X-1.6166 Y1.0828
X-1.5916 Y1.1045
X-1.5499 Y1.1382
X-1.5076 Y1.1696
X-1.4833 Y1.1869
X-1.4583 Y1.2038
X-1.4166 Y1.2305
X-1.3638 Y1.2612
X-1.3249 Y1.2818
X-1.2999 Y1.2945
X-1.2583 Y1.3141
X-1.2166 Y1.3321
X-1.1749 Y1.3485
X-1.1333 Y1.3634
X-1.1083 Y1.3716
X-1.0749 Y1.3813
X-1.0083 Y1.3998
X-0.9833 Y1.4054
X-0.9 Y1.422
X-0.8416 Y1.4297
X-0.79 Y1.436
X-0.7 Y1.4411
X-0.675 Y1.4417
X-0.6 Y1.4409
X-0.5666 Y1.439
X-0.4916 Y1.4328
X-0.4333 Y1.4241
X-0.4034 Y1.4194
X-0.3666 Y1.4117
X-0.3166 Y1.4002
X-0.2938 Y1.3944
X-0.2167 Y1.3713
X-0.1219 Y1.3361
X-0.05 Y1.3081
X0.0333 Y1.2793
X0.1167 Y1.2544
X0.1667 Y1.2414
X0.2167 Y1.2292
X0.2583 Y1.2203
X0.3167 Y1.2087
X0.4 Y1.1954
X0.4833 Y1.1859
X0.5583 Y1.1804
X0.6 Y1.1783
X0.675 Y1.1767
X0.7666 Y1.1784
X0.85 Y1.1835
X0.9166 Y1.1901
X0.9583 Y1.1949
X1.0249 Y1.2048
X1.0499 Y1.209
X1.3999 Y1.2753
X1.5666 Y1.3048
X1.6249 Y1.316
X1.6499 Y1.3198
X1.6833 Y1.3224
X1.7082 Y1.323
X1.7332 Y1.3219
X1.7499 Y1.3205
X1.7582 Y1.3194
X1.7832 Y1.3147
X1.8082 Y1.3087
X1.8416 Y1.2976
X1.8501 Y1.2945
X1.8861 Y1.2779
X1.9011 Y1.2695
X1.9273 Y1.2529
X1.9416 Y1.2434
X1.9749 Y1.2157
X1.9955 Y1.1946
X2.0176 Y1.1696
X2.0416 Y1.1362
X2.0512 Y1.1197
X2.0646 Y1.0947
X2.069 Y1.0864
X2.0795 Y1.0614
X2.0886 Y1.0364
X2.0935 Y1.0198
X2.0957 Y1.0114
X2.0972 Y1.0031
X2.0992 Y0.9865
X2.0993 Y0.9781
X2.0985 Y0.9615
X2.0972 Y0.9532
X2.0954 Y0.9448
X2.0931 Y0.9365
X2.0832 Y0.913
X2.0718 Y0.8949
X2.0646 Y0.8866
X2.0481 Y0.8699
X2.0416 Y0.8649
X2.0232 Y0.8533
X2.0166 Y0.8499
X1.9999 Y0.8431
X1.9832 Y0.8388
X1.9722 Y0.8366
X1.9666 Y0.8358
X1.9499 Y0.8348
X0.5208 Y0.8347
X0.5166 Y0.8342
X0.5125 Y0.833
X0.5083 Y0.8309
X0.5049 Y0.8283
X0.5021 Y0.8254
X0.5 Y0.8225
X0.4977 Y0.8179
X0.4962 Y0.8116
X0.4961 Y0.8075
X0.4968 Y0.8033
X0.498 Y0.7995
X0.5005 Y0.795
X0.5287 Y0.7534
X0.5416 Y0.7316
X0.5772 Y0.6701
X0.5943 Y0.6368
X0.6301 Y0.5619
X0.6625 Y0.4786
X0.6717 Y0.4537
X0.6844 Y0.412
X0.6991 Y0.3621
X0.7056 Y0.3371
X0.7234 Y0.2539
X0.7277 Y0.2289
X0.7389 Y0.1456
X0.7416 Y0.114
X0.746 Y0.0374
X0.7464 Y0.0124
X0.7447 Y-0.0708
X0.7432 Y-0.0958
X0.7351 Y-0.1791
X0.7317 Y-0.204
X0.7166 Y-0.2887
X0.7114 Y-0.3123
X0.69 Y-0.3955
X0.6823 Y-0.4205
X0.6538 Y-0.5037
X0.6291 Y-0.562
X0.6071 Y-0.612
X0.5634 Y-0.6952
X0.5435 Y-0.7285
X0.5 Y-0.7976
X0.4978 Y-0.8034
X0.4972 Y-0.8076
X0.4973 Y-0.8118
X0.4988 Y-0.818
X0.5011 Y-0.8226
X0.5042 Y-0.8265
X0.5083 Y-0.83
X0.5125 Y-0.8324
X0.5166 Y-0.8339
X0.5208 Y-0.8346
X1.9499 Y-0.8348
X1.9666 Y-0.8358
X1.9749 Y-0.837
X1.9916 Y-0.8408
X1.9999 Y-0.843
X2.0249 Y-0.8541
X2.0416 Y-0.8649
X2.0484 Y-0.87
X2.0666 Y-0.8885
X2.072 Y-0.895
X2.0832 Y-0.9129
X2.0932 Y-0.9366
X2.0955 Y-0.945
X2.0973 Y-0.9533
X2.0985 Y-0.9616
X2.0994 Y-0.9783
X2.0993 Y-0.9866
X2.0973 Y-1.0033
X2.0958 Y-1.0116
X2.0912 Y-1.0282
X2.0856 Y-1.0449
X2.0795 Y-1.0615
X2.0689 Y-1.0865
X2.0558 Y-1.1115
X2.0465 Y-1.1281
X2.0414 Y-1.1365
X2.0175 Y-1.1698
X1.9954 Y-1.1947
X1.9749 Y-1.2157
X1.9399 Y-1.2447
X1.9082 Y-1.2652
X1.8916 Y-1.2749
X1.8832 Y-1.2792
X1.8498 Y-1.2946
X1.8249 Y-1.3033
X1.8082 Y-1.3087
X1.7832 Y-1.3147
X1.7573 Y-1.3196
X1.7416 Y-1.3212
X1.7166 Y-1.3225
X1.7082 Y-1.3229
X1.6833 Y-1.3221
X1.6527 Y-1.3196
X1.6249 Y-1.3151
X1.5416 Y-1.2984
X1.4666 Y-1.2851
X1.3583 Y-1.2666
X1.1999 Y-1.2383
X1.0416 Y-1.208
X1. Y-1.2013
X0.95 Y-1.194
X0.9166 Y-1.19
X0.8583 Y-1.1841
X0.825 Y-1.1818
X0.7583 Y-1.1781
X0.675 Y-1.1768
X0.5916 Y-1.1787
X0.5583 Y-1.1805
X0.4833 Y-1.186
X0.4 Y-1.1955
X0.3083 Y-1.2102
X0.2217 Y-1.228
X0.1833 Y-1.2372
X0.1217 Y-1.253
X0.0376 Y-1.278
X-0.0417 Y-1.3052
X-0.0667 Y-1.3146
X-0.1442 Y-1.3446
X-0.2167 Y-1.3713
X-0.3 Y-1.3961
X-0.3416 Y-1.406
X-0.3833 Y-1.4154
X-0.4083 Y-1.4203
X-0.4833 Y-1.4317
X-0.5083 Y-1.4343
X-0.575 Y-1.4396
X-0.6 Y-1.4409
X-0.6833 Y-1.4416
X-0.7166 Y-1.4403
X-0.7888 Y-1.4362
X-0.8916 Y-1.4233
X-0.9083 Y-1.4203
X-0.9999 Y-1.4018
X-1.0166 Y-1.3975
X-1.0999 Y-1.3741
X-1.1166 Y-1.3691
X-1.1666 Y-1.3516
X-1.2083 Y-1.3354
X-1.2333 Y-1.3251
X-1.2666 Y-1.3102
X-1.3083 Y-1.2904
X-1.3583 Y-1.2643
X-1.4083 Y-1.2355
X-1.4336 Y-1.2197
X-1.4749 Y-1.1927
X-1.5075 Y-1.1698
X-1.5499 Y-1.1382
X-1.5931 Y-1.1032
X-1.6333 Y-1.068
X-1.6754 Y-1.0282
X-1.692 Y-1.0116
X-1.7079 Y-0.9952
X-1.7089 Y-0.9945
X-1.7099 Y-0.9939 Z-0.3145
X-1.7108 Y-0.9932 Z-0.3142
X-1.7118 Y-0.9926 Z-0.3136
X-1.7126 Y-0.992 Z-0.313
X-1.7134 Y-0.9915 Z-0.3122
X-1.7141 Y-0.991 Z-0.3113
X-1.7147 Y-0.9906 Z-0.3104
X-1.7152 Y-0.9903 Z-0.3093
X-1.7156 Y-0.9901 Z-0.3083
X-1.7159 Y-0.99 Z-0.3072
X-1.716 Z-0.3061
X-1.7161 Y-0.9899 Z-0.305
G0 Z0.1969
X-1.8209 Y-1.1146
Z-0.2254
G1 Z-0.2504 F15.
Z-0.2524
X-1.8207 Y-1.1145 Z-0.2543
X-1.8203 Y-1.1143 Z-0.2562
X-1.8199 Y-1.114 Z-0.2581
X-1.8193 Y-1.1137 Z-0.26
X-1.8186 Y-1.1132 Z-0.2617
X-1.8178 Y-1.1127 Z-0.2635
X-1.8169 Y-1.1122 Z-0.2651
X-1.8158 Y-1.1115 Z-0.2666
X-1.8147 Y-1.1109 Z-0.2681
X-1.8134 Y-1.1101 Z-0.2694
X-1.8121 Y-1.1093 Z-0.2706
X-1.8107 Y-1.1085 Z-0.2717
X-1.8093 Y-1.1076 Z-0.2727
X-1.8077 Y-1.1067 Z-0.2735
X-1.8062 Y-1.1057 Z-0.2742
X-1.8045 Y-1.1047 Z-0.2747
X-1.8029 Y-1.1037 Z-0.2751
X-1.8012 Y-1.1027 Z-0.2753
X-1.7996 Y-1.1017 Z-0.2754
G3 X-1.6903 Y-1.0182 I-0.3305 J0.546
G1 X-1.6866 Y-1.0144
X-1.6844 Y-1.0096
X-1.6829 Y-1.0045
X-1.6819 Y-0.9986
X-1.6811 Y-0.9911
Y-0.9865
X-1.6818 Y-0.9758
X-1.6846 Y-0.9654
X-1.6892 Y-0.9558
X-1.6954 Y-0.9471
X-1.7499 Y-0.8845
X-1.7749 Y-0.852
X-1.811 Y-0.8034
X-1.8249 Y-0.7835
X-1.8752 Y-0.7035
X-1.8832 Y-0.6891
X-1.9249 Y-0.6097
X-1.9332 Y-0.592
X-1.9711 Y-0.5037
X-2.0024 Y-0.4122
X-2.0082 Y-0.3936
X-2.0292 Y-0.3123
X-2.0348 Y-0.2873
X-2.0499 Y-0.2015
X-2.0531 Y-0.1791
X-2.0612 Y-0.0958
X-2.063 Y-0.0625
X-2.0644 Y0.0124
X-2.0636 Y0.0457
X-2.0593 Y0.1207
X-2.0559 Y0.154
X-2.0457 Y0.2289
X-2.0396 Y0.2622
X-2.0234 Y0.3371
X-2.0144 Y0.3704
X-1.9916 Y0.4467
X-1.9832 Y0.4698
X-1.9506 Y0.5536
X-1.943 Y0.5702
X-1.9072 Y0.6451
X-1.8983 Y0.6618
X-1.8499 Y0.7456
X-1.7916 Y0.8309
X-1.7541 Y0.8782
X-1.7249 Y0.9143
X-1.7082 Y0.933
X-1.6499 Y0.9948
X-1.6233 Y1.0198
X-1.5679 Y1.0697
X-1.5581 Y1.078
X-1.4916 Y1.1296
X-1.4666 Y1.1475
X-1.3916 Y1.1967
X-1.3749 Y1.2064
X-1.3058 Y1.2446
X-1.2719 Y1.2612
X-1.1987 Y1.2945
X-1.1416 Y1.3157
X-1.0916 Y1.3336
X-1.0666 Y1.3408
X-0.9999 Y1.3592
X-0.975 Y1.3653
X-0.8916 Y1.3815
X-0.8666 Y1.3855
X-0.7833 Y1.395
X-0.7583 Y1.397
X-0.675 Y1.4001
X-0.65
X-0.5666 Y1.3967
X-0.5387 Y1.3944
X-0.4583 Y1.3849
X-0.4333 Y1.3809
X-0.35 Y1.3645
X-0.3166 Y1.356
X-0.2417 Y1.335
X-0.2 Y1.3204
X-0.1333 Y1.2959
X-0.05 Y1.258
X-0.0228 Y1.2446
X-0.0167 Y1.2412
X-0.0083 Y1.2376
X0.0333 Y1.2237
X0.1167 Y1.1994
X0.202 Y1.178
X0.2917 Y1.1595
X0.3333 Y1.1523
X0.4 Y1.1419
X0.4833 Y1.1324
X0.575 Y1.126
X0.65 Y1.124
X0.7083 Y1.1241
X0.7666 Y1.1254
X0.8583 Y1.1311
X0.8916 Y1.1342
X0.9583 Y1.1413
X1.0416 Y1.1535
X1.4083 Y1.2231
X1.5749 Y1.2517
X1.6416 Y1.265
X1.6666 Y1.2678
X1.6833 Y1.2691
X1.7082 Y1.2698
X1.7332 Y1.2688
X1.7582 Y1.2655
X1.7832 Y1.2606
X1.8087 Y1.2529
X1.8332 Y1.244
X1.8582 Y1.2324
X1.8832 Y1.2182
X1.8943 Y1.2113
X1.9082 Y1.2018
X1.9176 Y1.1946
X1.9376 Y1.178
X1.9582 Y1.1569
X1.9763 Y1.1363
X1.9943 Y1.1113
X2.0137 Y1.078
X2.0249 Y1.055
X2.0332 Y1.0355
X2.0359 Y1.0281
X2.0416 Y1.0076
X2.0442 Y0.9833
X2.0429 Y0.9615
X2.0415 Y0.9532
X2.0367 Y0.9365
X2.0292 Y0.9199
X2.0249 Y0.9114
X2.0166 Y0.899
X2.0082 Y0.8892
X1.9968 Y0.8782
X1.9916 Y0.8737
X1.9832 Y0.8675
X1.9738 Y0.8616
X1.9666 Y0.8579
X1.9499 Y0.8506
X1.9416 Y0.8476
X1.9319 Y0.8449
X1.9166 Y0.8417
X1.8999 Y0.8392
X1.8749 Y0.8375
X1.8332 Y0.8369
X1.0916 Y0.8371
X0.95 Y0.8383
X0.725 Y0.8412
X0.5833 Y0.8408
X0.5041 Y0.8396
X0.5 Y0.8391
X0.4967 Y0.8381
X0.4916 Y0.8356
X0.488 Y0.8327
X0.4844 Y0.8283
X0.4817 Y0.8233
X0.4806 Y0.82
X0.4799 Y0.8158
Y0.8116
X0.4813 Y0.8054
X0.4833 Y0.8012
X0.5166 Y0.7524
X0.5262 Y0.7367
X0.575 Y0.6521
X0.6183 Y0.5619
X0.6286 Y0.5369
X0.6605 Y0.4537
X0.6707 Y0.4204
X0.688 Y0.3621
X0.6946 Y0.3371
X0.7125 Y0.2539
X0.7169 Y0.2289
X0.7282 Y0.1456
X0.7305 Y0.1207
X0.7353 Y0.0374
X0.7357 Y0.0124
X0.734 Y-0.0708
X0.7325 Y-0.0958
X0.7243 Y-0.1791
X0.7208 Y-0.204
X0.7061 Y-0.2873
X0.6983 Y-0.3206
X0.679 Y-0.3955
X0.6653 Y-0.4371
X0.6416 Y-0.5056
X0.6 Y-0.6021
X0.5833 Y-0.6344
X0.55 Y-0.6975
X0.5413 Y-0.7119
X0.4916 Y-0.7906
X0.483 Y-0.8034
X0.4815 Y-0.8076
X0.4807 Y-0.8118
Y-0.8159
X0.4814 Y-0.8201
X0.4833 Y-0.8252
X0.4852 Y-0.8284
X0.4879 Y-0.8317
X0.4916 Y-0.835
X0.4945 Y-0.8367
X0.5 Y-0.8388
X0.5041 Y-0.8395
X0.5833 Y-0.8405
X0.6916 Y-0.8413
X0.8583 Y-0.8396
X1.0416 Y-0.8373
X1.2916 Y-0.8369
X1.8582 Y-0.8371
X1.8832 Y-0.8379
X1.8999 Y-0.8393
X1.9249 Y-0.8432
X1.9332 Y-0.8453
X1.9499 Y-0.8507
X1.9582 Y-0.854
X1.9736 Y-0.8617
X1.9832 Y-0.8675
X1.9916 Y-0.8736
X1.9999 Y-0.8809
X2.0082 Y-0.8887
X2.0166 Y-0.8981
X2.0258 Y-0.9117
X2.0339 Y-0.9283
X2.0377 Y-0.9366
X2.0416 Y-0.9496
X2.0438 Y-0.9616
X2.0451 Y-0.9845
X2.043 Y-1.0033
X2.0416 Y-1.0118
X2.0363 Y-1.0282
X2.0293 Y-1.0449
X2.0218 Y-1.0615
X2.0136 Y-1.0782
X1.9942 Y-1.1115
X1.9749 Y-1.1379
X1.9582 Y-1.1569
X1.9374 Y-1.1781
X1.9166 Y-1.1954
X1.9064 Y-1.2031
X1.8916 Y-1.2131
X1.8661 Y-1.228
X1.8582 Y-1.2324
X1.8313 Y-1.2447
X1.8082 Y-1.253
X1.7802 Y-1.2613
X1.7582 Y-1.2655
X1.7332 Y-1.2688
X1.7049 Y-1.2697
X1.6833 Y-1.2688
X1.6583 Y-1.2663
X1.6499 Y-1.2653
X1.6249 Y-1.2606
X1.5666 Y-1.248
X1.4833 Y-1.2331
X1.3916 Y-1.2184
X1.2166 Y-1.1878
X1.0416 Y-1.1541
X0.9583 Y-1.1415
X0.9 Y-1.1349
X0.8666 Y-1.1317
X0.8333 Y-1.1294
X0.7666 Y-1.1256
X0.6833 Y-1.1238
X0.5916 Y-1.1258
X0.5666 Y-1.127
X0.4833 Y-1.1325
X0.4 Y-1.142
X0.3284 Y-1.1531
X0.2833 Y-1.161
X0.2 Y-1.1784
X0.1167 Y-1.1994
X0.0333 Y-1.2237
X-0.0047 Y-1.2364
X-0.0167 Y-1.2409
X-0.075 Y-1.2702
X-0.0925 Y-1.278
X-0.1667 Y-1.3085
X-0.1917 Y-1.3182
X-0.2833 Y-1.3475
X-0.3039 Y-1.3529
X-0.3833 Y-1.3716
X-0.4083 Y-1.3765
X-0.4916 Y-1.3894
X-0.5166 Y-1.3923
X-0.6 Y-1.3987
X-0.625 Y-1.3996
X-0.7083 Y-1.3995
X-0.7333 Y-1.3984
X-0.8166 Y-1.3919
X-0.8416 Y-1.3888
X-0.925 Y-1.3758
X-0.9583 Y-1.3687
X-1.0416 Y-1.3487
X-1.1416 Y-1.3167
X-1.2249 Y-1.2828
X-1.2499 Y-1.272
X-1.3333 Y-1.2302
X-1.3666 Y-1.2109
X-1.4249 Y-1.1754
X-1.4416 Y-1.1648
X-1.5249 Y-1.1049
X-1.6061 Y-1.0366
X-1.6749 Y-0.9692
X-1.69 Y-0.9533
X-1.6954 Y-0.9471
X-1.6964 Y-0.9463 Z-0.2753
X-1.6974 Y-0.9456 Z-0.2751
X-1.6983 Y-0.9449 Z-0.2747
X-1.6992 Y-0.9443 Z-0.2742
X-1.7 Y-0.9437 Z-0.2735
X-1.7008 Y-0.9431 Z-0.2728
X-1.7014 Y-0.9426 Z-0.2719
X-1.702 Y-0.9422 Z-0.2709
X-1.7025 Y-0.9418 Z-0.2698
X-1.7029 Y-0.9416 Z-0.2688
X-1.7031 Y-0.9415 Z-0.2678
X-1.7033 Y-0.9414 Z-0.2667
X-1.7034 Z-0.2656
G0 Z0.1969
X-1.7902 Y-1.0842
Z-0.1862
G1 Z-0.2112 F15.
X-1.7901 Y-1.0841 Z-0.2132
X-1.7899 Y-1.084 Z-0.2151
X-1.7896 Y-1.0838 Z-0.2171
X-1.7891 Y-1.0835 Z-0.2189
X-1.7886 Y-1.0832 Z-0.2208
X-1.7879 Y-1.0828 Z-0.2226
X-1.787 Y-1.0823 Z-0.2243
X-1.7861 Y-1.0817 Z-0.2259
X-1.7851 Y-1.0811 Z-0.2275
X-1.7839 Y-1.0804 Z-0.2289
X-1.7827 Y-1.0796 Z-0.2302
X-1.7814 Y-1.0788 Z-0.2314
X-1.78 Y-1.078 Z-0.2325
X-1.7785 Y-1.0771 Z-0.2335
X-1.777 Y-1.0762 Z-0.2343
X-1.7754 Y-1.0752 Z-0.235
X-1.7738 Y-1.0742 Z-0.2355
X-1.7721 Y-1.0733 Z-0.2359
X-1.7705 Y-1.0722 Z-0.2361
X-1.7688 Y-1.0712 Z-0.2362
G3 X-1.6595 Y-0.9878 I-0.3305 J0.546
G1 X-1.6558 Y-0.984
X-1.6549 Y-0.9787
X-1.656 Y-0.9734
X-1.6591 Y-0.969
X-1.6749 Y-0.9533
X-1.7416 Y-0.877
X-1.7666 Y-0.8443
X-1.7999 Y-0.7993
X-1.8166 Y-0.7756
X-1.8671 Y-0.6952
X-1.9111 Y-0.612
X-1.9249 Y-0.5829
X-1.959 Y-0.5037
X-1.985 Y-0.4288
X-1.9961 Y-0.3955
X-2.0195 Y-0.3039
X-2.0234 Y-0.2873
X-2.0409 Y-0.1874
X-2.0499 Y-0.0958
X-2.0517 Y-0.0625
X-2.0532 Y0.0124
X-2.0524 Y0.0457
X-2.048 Y0.1207
X-2.0445 Y0.154
X-2.0332 Y0.2353
X-2.0263 Y0.2705
X-2.0118 Y0.3371
X-2.0027 Y0.3704
X-1.9801 Y0.4453
X-1.9709 Y0.4703
X-1.9451 Y0.5369
X-1.9345 Y0.5619
X-1.8987 Y0.6368
X-1.8806 Y0.6701
X-1.8467 Y0.7284
X-1.8311 Y0.7534
X-1.7795 Y0.8283
X-1.753 Y0.8616
X-1.7127 Y0.9115
X-1.6499 Y0.9784
X-1.6333 Y0.9955
X-1.5666 Y1.0557
X-1.5499 Y1.0701
X-1.4749 Y1.1281
X-1.4583 Y1.1395
X-1.3872 Y1.1863
X-1.3416 Y1.2119
X-1.2916 Y1.2395
X-1.2583 Y1.255
X-1.1999 Y1.2816
X-1.1666 Y1.2946
X-1.0916 Y1.3219
X-0.9999 Y1.3477
X-0.975 Y1.3538
X-0.8916 Y1.3701
X-0.8666 Y1.3741
X-0.7833 Y1.3837
X-0.7583 Y1.3857
X-0.675 Y1.3888
X-0.65
X-0.5666 Y1.3854
X-0.5416 Y1.3834
X-0.4583 Y1.3735
X-0.4332 Y1.3694
X-0.3492 Y1.3528
X-0.325 Y1.3466
X-0.2417 Y1.3233
X-0.1583 Y1.2932
X-0.1333 Y1.2836
X-0.0417 Y1.2417
X-0.016 Y1.2279
X0.05 Y1.1912
X0.0584 Y1.1863
X0.1417 Y1.1315
X0.1651 Y1.1159
X0.1836 Y1.1053
X0.2026 Y1.0958
X0.227 Y1.0853
X0.2519 Y1.0761
X0.2823 Y1.0664
X0.3168 Y1.0571
X0.3558 Y1.0483
X0.3897 Y1.0418
X0.43 Y1.0354
X0.4743 Y1.0297
X0.5225 Y1.025
X0.5757 Y1.0213
X0.6206 Y1.0193
X0.6644 Y1.0184
X0.7102
X0.7641 Y1.0196
X0.811 Y1.0217
X0.8621 Y1.0251
X0.9104 Y1.0294
X0.9597 Y1.0348
X1.0074 Y1.0412
X1.0547 Y1.0484
X1.1237 Y1.0599
X1.268 Y1.0861
X1.3762 Y1.1061
X1.5206 Y1.1316
X1.5567 Y1.1383
X1.5928 Y1.1445
X1.6292 Y1.1492
X1.6658 Y1.1509
X1.7024 Y1.1485
X1.7384 Y1.1417
X1.7732 Y1.1301
X1.806 Y1.1137
X1.8359 Y1.0924
X1.8489 Y1.0795
X1.8548 Y1.0725
X1.8596 Y1.0646
X1.863 Y1.0561
X1.865 Y1.0472
X1.8657 Y1.0381
X1.8649 Y1.0289
X1.8626 Y1.02
X1.8591 Y1.0116
X1.8542 Y1.0038
X1.8482 Y0.9969
X1.8411 Y0.991
X1.8096 Y0.9722
X1.7738 Y0.9646
X1.7375 Y0.9591
X1.7011 Y0.9552
X1.6645 Y0.9525
X1.6279 Y0.9506
X1.5912 Y0.9492
X1.5179 Y0.9476
X1.4079 Y0.9465
G3 X1.3984 Y0.9442 I0.001 J-0.025
G1 X1.3966 Y0.9434 Z-0.2361
X1.3948 Y0.9426 Z-0.2359
X1.3931 Y0.9418 Z-0.2355
X1.3914 Y0.941 Z-0.235
X1.3897 Y0.9402 Z-0.2343
X1.3881 Y0.9395 Z-0.2335
X1.3865 Y0.9388 Z-0.2325
X1.3851 Y0.9381 Z-0.2314
X1.3837 Y0.9374 Z-0.2302
X1.3823 Y0.9368 Z-0.2289
X1.3811 Y0.9363 Z-0.2275
X1.38 Y0.9358 Z-0.2259
X1.379 Y0.9353 Z-0.2243
X1.3782 Y0.9349 Z-0.2226
X1.3774 Y0.9346 Z-0.2208
X1.3768 Y0.9343 Z-0.2189
X1.3763 Y0.9341 Z-0.2171
X1.376 Y0.9339 Z-0.2151
X1.3758 Y0.9338 Z-0.2132
X1.3757 Z-0.2112
G0 Z0.1969
X0.1507 Y1.1634
Z-0.1862
G1 Z-0.2112 F15.
Z-0.2132
X0.1506 Y1.1631 Z-0.2151
X0.1504 Y1.1628 Z-0.2171
X0.1502 Y1.1623 Z-0.2189
X0.1499 Y1.1617 Z-0.2208
X0.1495 Y1.161 Z-0.2226
X0.1491 Y1.1601 Z-0.2243
X0.1486 Y1.1591 Z-0.2259
X0.148 Y1.1581 Z-0.2275
X0.1475 Y1.1569 Z-0.2289
X0.1468 Y1.1556 Z-0.2302
X0.1461 Y1.1542 Z-0.2314
X0.1454 Y1.1527 Z-0.2325
X0.1446 Y1.1512 Z-0.2335
X0.1438 Y1.1496 Z-0.2343
X0.143 Y1.148 Z-0.235
X0.1422 Y1.1463 Z-0.2355
X0.1413 Y1.1446 Z-0.2359
X0.1404 Y1.1428 Z-0.2361
X0.1396 Y1.1411 Z-0.2362
G3 X0.1417 Y1.1315 I0.007 J-0.0035
G1 X0.2167 Y1.0737
X0.2417 Y1.0524
X0.275 Y1.0223
X0.2936 Y1.007
X0.3086 Y0.9966
X0.3215 Y0.9835
X0.33 Y0.9699
X0.3351 Y0.9637
G3 X0.3705 Y0.964 I0.0176 J0.0178
X0.3701 Y0.9994 I-0.0178 J0.0175
G1 X0.3099 Y1.0581
G3 X0.2745 Y1.0576 I-0.0175 J-0.0179
X0.275 Y1.0223 I0.0179 J-0.0174
G1 X0.3053 Y0.9948
X0.3583 Y0.9391
X0.3839 Y0.9115
X0.45 Y0.8295
X0.5024 Y0.7534
X0.5181 Y0.7284
X0.5583 Y0.6585
X0.57 Y0.6368
X0.6083 Y0.5564
X0.6229 Y0.5203
X0.65 Y0.4499
X0.6763 Y0.3621
X0.6833 Y0.3362
X0.701 Y0.2539
X0.7056 Y0.2289
X0.7168 Y0.1456
X0.7193 Y0.1207
X0.724 Y0.0374
X0.7244 Y0.0124
X0.7227 Y-0.0708
X0.7212 Y-0.0958
X0.713 Y-0.1791
X0.7083 Y-0.2101
X0.6946 Y-0.2873
X0.6867 Y-0.3206
X0.6666 Y-0.3976
X0.6391 Y-0.4788
X0.6303 Y-0.5037
X0.5943 Y-0.587
X0.5824 Y-0.612
X0.5384 Y-0.6952
X0.4859 Y-0.7785
X0.4666 Y-0.8056
X0.4637 Y-0.81
X0.4613 Y-0.8148
X0.4596 Y-0.8198
X0.4587 Y-0.8251
X0.4585 Y-0.8304
X0.459 Y-0.8357
X0.4601 Y-0.8409
X0.4619 Y-0.8459
X0.4642 Y-0.8507
X0.467 Y-0.8552
X0.4735 Y-0.8636
X0.4809 Y-0.8712
X0.489 Y-0.8781
X0.5021 Y-0.8872
X0.5159 Y-0.8952
X0.5302 Y-0.9021
X0.55 Y-0.91
X0.5702 Y-0.9166
X0.5907 Y-0.9221
X0.6167 Y-0.9277
X0.6489 Y-0.933
X0.6831 Y-0.9371
X0.719 Y-0.9403
X0.7678 Y-0.9431
X0.8262 Y-0.945
X0.8919 Y-0.946
X1.112
X1.7721
X1.795 Y-0.9468
X1.8041 Y-0.9476
X1.813 Y-0.9499
X1.8214 Y-0.9536
X1.8291 Y-0.9585
X1.836 Y-0.9645
X1.8418 Y-0.9716
X1.8465 Y-0.9795
X1.8498 Y-0.9881
X1.8518 Y-0.997
X1.8523 Y-1.0062
X1.8515 Y-1.0153
X1.8468 Y-1.033
X1.8288 Y-1.065
X1.8034 Y-1.0914
X1.7724 Y-1.1109
X1.7379 Y-1.1234
X1.7018 Y-1.1301
X1.6652 Y-1.1327
X1.6286 Y-1.1326
X1.5919 Y-1.1307
X1.5554 Y-1.1276
X1.5189 Y-1.1238
X1.4825 Y-1.1193
X1.4099 Y-1.1088
X1.4009 Y-1.1074
X1.3917 Y-1.1066
G3 X1.3892 Y-1.1566 I-0.0013 J-0.025
X1.3986 Y-1.108 I0.0013 J0.025
G1 X0.4943 Y-0.7976
G3 X0.4666 Y-0.8056 I-0.0081 J-0.0236
G1 X0.4478 Y-0.8309
