%
(COUNTOUR AND POCKET)
(T2  D=0.25 CR=0. - ZMIN=-0.25 - FLAT END MILL)
G90 G94 G17 G91.1
G20
G53 G0 Z0.
(2D CONTOUR2)
M9
T2 M6
S1970 M3
G54
M8
G0 X0.1705 Y-1.75
G43 Z0.6 H2
G0 Z0.3394
G1 Z-0.217 F5.
G18 G3 X0.1455 Z-0.242 I-0.025 K0.
G1 X0.1205 F15.
G17 G3 X0.0955 Y-1.775 I0. J-0.025
G1 Y-3.275
G2 X-0.275 Y-3.6455 I-0.3705 J0.
G1 X-3.275
G2 X-3.6455 Y-3.275 I0. J0.3705
G1 Y-0.275
G2 X-3.275 Y0.0955 I0.3705 J0.
G1 X-0.275
G2 X0.0955 Y-0.275 I0. J-0.3705
G1 Y-1.775
G2 X-0.0223 Y-1.9516 I-0.1913 J0.
G3 X-0.14 Y-2.1282 I0.0736 J-0.1766
G1 Y-3.275
G2 X-0.275 Y-3.41 I-0.135 J0.
G1 X-3.275
G2 X-3.41 Y-3.275 I0. J0.135
G1 Y-0.275
G2 X-3.275 Y-0.14 I0.135 J0.
G1 X-0.275
G2 X-0.14 Y-0.275 I0. J-0.135
G1 Y-2.1282
G3 X-0.115 Y-2.1533 I0.025 J0.
G1 X-0.09
G18 G2 X-0.065 Z-0.217 I0. K0.025
G1 X0.1705 Y-1.75
Z-0.225 F5.
G3 X0.1455 Z-0.25 I-0.025 K0.
G1 X0.1205 F15.
G17 G3 X0.0955 Y-1.775 I0. J-0.025
G1 Y-3.275
G2 X-0.275 Y-3.6455 I-0.3705 J0.
G1 X-3.275
G2 X-3.6455 Y-3.275 I0. J0.3705
G1 Y-0.275
G2 X-3.275 Y0.0955 I0.3705 J0.
G1 X-0.275
G2 X0.0955 Y-0.275 I0. J-0.3705
G1 Y-1.775
G2 X-0.0223 Y-1.9516 I-0.1913 J0.
G3 X-0.14 Y-2.1282 I0.0736 J-0.1766
G1 Y-3.275
G2 X-0.275 Y-3.41 I-0.135 J0.
G1 X-3.275
G2 X-3.41 Y-3.275 I0. J0.135
G1 Y-0.275
G2 X-3.275 Y-0.14 I0.135 J0.
G1 X-0.275
G2 X-0.14 Y-0.275 I0. J-0.135
G1 Y-2.1282
G2 X-0.145 Y-2.1358 I-0.0081 J0.
G3 X-0.15 Y-2.1432 I0.0031 J-0.0075
G1 Y-3.275
G2 X-0.275 Y-3.4 I-0.125 J0.
G1 X-3.275
G2 X-3.4 Y-3.275 I0. J0.125
G1 Y-0.275
G2 X-3.275 Y-0.15 I0.125 J0.
G1 X-0.275
G2 X-0.15 Y-0.275 I0. J-0.125
G1 Y-2.1432
G3 X-0.125 Y-2.1683 I0.025 J0.
G1 X-0.1
G18 G2 X-0.075 Z-0.225 I0. K0.025
G0 Z0.6
G17
(2D POCKET1)
M8
G0 X-1.6741 Y-1.8414
Z0.6
Z0.125
G3 X-1.6734 Y-1.8424 Z0.1174 I0.0984 J0.0664 F5.
X-1.6715 Y-1.8452 Z0.1106 I0.0978 J0.0674
X-1.6682 Y-1.8494 Z0.1051 I0.0958 J0.0702
X-1.6639 Y-1.8545 Z0.1014 I0.0926 J0.0744
X-1.6587 Y-1.8599 Z0.1 I0.0882 J0.0795
X-1.4927 Y-1.6901 Z0.087 I0.083 J0.0849
X-1.6587 Y-1.8599 Z0.0739 I-0.083 J-0.0849
X-1.4927 Y-1.6901 Z0.0609 I0.083 J0.0849
X-1.6587 Y-1.8599 Z0.0479 I-0.083 J-0.0849
X-1.4927 Y-1.6901 Z0.0349 I0.083 J0.0849
X-1.6587 Y-1.8599 Z0.0218 I-0.083 J-0.0849
X-1.4927 Y-1.6901 Z0.0088 I0.083 J0.0849
X-1.6587 Y-1.8599 Z-0.0042 I-0.083 J-0.0849
X-1.4927 Y-1.6901 Z-0.0172 I0.083 J0.0849
X-1.6587 Y-1.8599 Z-0.0303 I-0.083 J-0.0849
X-1.4569 Y-1.775 Z-0.04 I0.083 J0.0849
G1 Y-1.7197 F15.
G3 X-1.4697 Y-1.7069 I-0.0128 J0.
G1 X-2.0805
G3 X-2.0931 Y-1.7195 I0. J-0.0126
G1 Y-1.8303
G3 X-2.0803 Y-1.8431 I0.0128 J0.
G1 X-1.4697
G3 X-1.4569 Y-1.8303 I0. J0.0128
G1 Y-1.775
G2 X-1.4001 Y-1.6774 I0.1122 J0.
G3 X-1.429 Y-1.5683 I-0.0288 J0.0508
G1 X-2.2191
G3 X-2.2317 Y-1.5809 I0. J-0.0126
G1 Y-1.9689
G3 X-2.2189 Y-1.9817 I0.0128 J0.
G1 X-1.3311
G3 X-1.3183 Y-1.9689 I0. J0.0128
G1 Y-1.5811
G3 X-1.3311 Y-1.5683 I-0.0128 J0.
G1 X-1.429
G2 X-1.582 Y-1.4663 I0. J0.1658
G3 X-1.7351 Y-1.3643 I-0.153 J-0.0638
G1 X-2.4231
G3 X-2.4357 Y-1.3769 I0. J-0.0126
G1 Y-2.173
G3 X-2.423 Y-2.1857 I0.0128 J0.
G1 X-1.127
G3 X-1.1143 Y-2.173 I0. J0.0128
G1 Y-1.377
G3 X-1.127 Y-1.3643 I-0.0128 J0.
G1 X-1.7351
G2 X-1.8883 Y-1.2621 I0. J0.166
G3 X-2.0414 Y-1.16 I-0.1532 J-0.0638
G1 X-2.64
Y-2.39
X-0.91
Y-1.16
X-2.0414
G2 X-2.0489 Y-1.155 I0. J0.0081
G3 X-2.0564 Y-1.15 I-0.0075 J-0.0031
G1 X-2.65
Y-2.4
X-0.9
Y-1.15
X-2.0564
G3 X-2.0641 Y-1.1512 Z-0.0388 I0. J-0.025
X-2.0703 Y-1.1542 Z-0.0352 I0.0076 J-0.0238
X-2.0745 Y-1.1577 Z-0.0297 I0.0139 J-0.0208
X-2.0768 Y-1.1605 Z-0.0227 I0.0181 J-0.0173
X-2.0775 Y-1.1615 Z-0.015 I0.0204 J-0.0145
G0 Z0.6
M9
G53 Z0.
M30
%
