%
(FUSELOGE TOP FINISH)
(T7  D=0.25 CR=0.125 - ZMIN=-0.0221 - BALL END MILL)
G90 G94 G17 G91.1
G20
G53 G0 Z0.
(PARALLEL2)
M9
T7 M6
S1970 M3
G54
M8
G0 X-7.4782 Y-2.6261
G43 Z1.475 H7
#100=20. (CUTTING)
#103=20. (ENTRY)
#104=20. (EXIT)
G0 Z0.2008
G1 Z0.128 F#103
G18 G3 X-7.5032 Z0.103 I-0.025 K0.
G1 X-8.5904 Z0.1055 F#100
X-9.0065 Z0.1058
X-9.357 Z0.1054
X-9.6472 Z0.1039
X-9.806 Z0.1024
X-9.845 Z0.1017
G3 X-9.87 Z0.1267 I0. K0.025 F#104
G0 Z1.075
X-7.3502 Y-2.5012
Z0.1962
G1 Z0.0885 F#103
G3 X-7.3771 Z0.0636 I-0.025 K0.
G1 X-7.3803 Z0.0639 F#100
X-7.3825 Z0.0761
X-7.3859 Z0.0888
X-7.3907 Z0.1023
X-7.3972 Z0.116
X-7.4036 Z0.1268
X-7.411 Z0.1371
X-7.4177 Z0.1448
X-7.425 Z0.1521
X-7.4329 Z0.1588
X-7.4436 Z0.1663
X-7.4503 Z0.1702
X-7.4598 Z0.1747
X-7.4697 Z0.1784
X-7.4799 Z0.1811
X-7.4904 Z0.1829
X-7.501 Z0.1837
X-8.656 Z0.1855
X-9.2201
X-9.6636 Z0.1842
X-9.8388 Z0.1829
X-10.1674 Z0.1781
X-11.3338 Z0.1586
X-11.9416 Z0.1496
X-12.1222 Z0.1464
X-12.2311 Z0.1439
X-12.3341 Z0.1411
X-12.432 Z0.1376
X-12.5168 Z0.1341
X-12.5907 Z0.1307
X-12.6647 Z0.127
X-12.7279 Z0.1234
X-12.8166 Z0.1177
X-12.8905 Z0.1123
X-12.9536 Z0.1071
X-12.9784 Z0.1049
G3 X-13.0056 Z0.1298 I-0.0022 K0.0249 F#104
G0 Z1.075
X-13.6825 Y-2.3762
Z0.2085
G1 Z0.1344 F#103
G2 X-13.6514 Z0.1101 I0.025 K0.
G1 X-13.6297 Z0.1156 F#100
X-13.591 Z0.1244
X-13.5558 Z0.1318
X-13.511 Z0.1403
X-13.4603 Z0.149
X-13.4189 Z0.1554
X-13.3669 Z0.1628
X-13.3265 Z0.168
X-13.2742 Z0.1741
X-13.222 Z0.1797
X-13.1696 Z0.1848
X-13.1269 Z0.1886
X-13.0745 Z0.193
X-13.0114 Z0.1978
X-12.9589 Z0.2013
X-12.8957 Z0.2053
X-12.8325 Z0.2088
X-12.7693 Z0.212
X-12.6964 Z0.2154
X-12.5778 Z0.2199
X-12.4532 Z0.2239
X-12.383 Z0.2258
X-12.2959 Z0.2276
X-12.1536 Z0.2293
X-11.4527 Z0.2333
X-10.4177 Z0.2442
X-9.9194 Z0.2488
X-9.7551 Z0.2497
X-7.4993 Z0.2498
X-7.4886 Z0.2488
X-7.4782 Z0.2468
X-7.468 Z0.2439
X-7.4583 Z0.24
X-7.4489 Z0.2353
X-7.4401 Z0.2297
X-7.4317 Z0.2235
X-7.4239 Z0.2168
X-7.4167 Z0.2094
X-7.4101 Z0.2015
X-7.4041 Z0.1933
X-7.3965 Z0.1804
X-7.3915 Z0.1701
X-7.3871 Z0.159
X-7.3832 Z0.1457
X-7.1479 Z0.141
X-6.8687 Z0.1345
X-6.6396 Z0.128
X-6.4153 Z0.1209
X-6.1997 Z0.1132
X-6.0279 Z0.1062
X-5.8349 Z0.0975
X-5.6313 Z0.0869
X-5.5027 Z0.0793
X-5.4063 Z0.0731
X-4.2346 Z-0.0026
X-4.2323 Z-0.0027
X-4.2299 Y-2.376
X-4.2276 Y-2.3757
X-4.2253 Y-2.3753 Z-0.0025
X-4.223 Y-2.3747 Z-0.0023
X-4.2208 Y-2.374 Z-0.002
X-4.2186 Y-2.3733 Z-0.0016
X-4.2164 Y-2.3724 Z-0.0012
X-4.2144 Y-2.3714 Z-0.0006
X-4.2124 Y-2.3703 Z0.
X-4.2105 Y-2.3691 Z0.0007
X-4.2086 Y-2.3678 Z0.0014
X-4.2069 Y-2.3664 Z0.0023
X-4.2053 Y-2.365 Z0.0032
X-4.2038 Y-2.3634 Z0.0041
X-4.2024 Y-2.3618 Z0.0051
X-4.2011 Y-2.3601 Z0.0062
X-4.2 Y-2.3584 Z0.0073
X-4.199 Y-2.3566 Z0.0084
X-4.1981 Y-2.3548 Z0.0096
X-4.1974 Y-2.3529 Z0.0108
X-4.1968 Y-2.351 Z0.0121
X-4.1963 Y-2.3491 Z0.0134
X-4.196 Y-2.3471 Z0.0147
X-4.1958 Y-2.3452 Z0.016
X-4.1931 Y-2.2823 Z0.0585
Y-2.2804 Z0.0599
X-4.1932 Y-2.2784 Z0.0612
X-4.1935 Y-2.2765 Z0.0625
X-4.1939 Y-2.2746 Z0.0638
X-4.1945 Y-2.2727 Z0.0651
X-4.1952 Y-2.2709 Z0.0664
X-4.1961 Y-2.2691 Z0.0677
X-4.1971 Y-2.2674 Z0.069
X-4.1982 Y-2.2657 Z0.0702
X-4.1994 Y-2.2641 Z0.0713
X-4.2008 Y-2.2625 Z0.0725
X-4.2023 Y-2.2611 Z0.0736
X-4.2039 Y-2.2597 Z0.0746
X-4.2056 Y-2.2584 Z0.0756
X-4.2074 Y-2.2572 Z0.0765
X-4.2093 Y-2.2561 Z0.0774
X-4.2113 Y-2.2551 Z0.0782
X-4.2134 Y-2.2542 Z0.0789
X-4.2155 Y-2.2535 Z0.0796
X-4.2177 Y-2.2528 Z0.0802
X-4.2199 Y-2.2523 Z0.0807
X-4.2222 Y-2.2518 Z0.0811
X-4.2245 Y-2.2515 Z0.0815
X-4.2268 Y-2.2513 Z0.0818
X-4.2292 Z0.082
X-4.3039 Z0.0897
X-4.4054 Z0.0995
X-4.4962 Z0.1076
X-4.5604 Z0.113
X-4.677 Z0.1222
X-4.7841 Z0.1298
X-4.9008 Z0.1374
X-5.0068 Z0.1437
X-5.1129 Z0.1496
X-5.2201 Z0.155
X-5.3166 Z0.1593
X-5.456 Z0.1653
X-5.6601 Z0.1729
X-5.9107 Z0.1809
X-6.2 Z0.1894
X-6.4957 Z0.197
X-6.7912 Z0.2036
X-7.076 Z0.209
X-7.3805 Z0.2138
X-7.3832 Z0.2303
X-7.388 Z0.2522
X-7.3968 Z0.2867
X-7.3995 Z0.3008
X-7.4006 Z0.3102
X-7.4011 Z0.3193
X-7.4014 Z0.3305
X-7.4027 Z0.3417
X-7.4055 Z0.3538
X-7.4085 Z0.3626
X-7.4125 Z0.3714
X-7.4173 Z0.3799
X-7.4231 Z0.388
X-7.4297 Z0.3957
X-7.4372 Z0.4027
X-7.4453 Z0.409
X-7.4542 Z0.4144
X-7.4636 Z0.419
X-7.4734 Z0.4226
X-7.4837 Z0.4252
X-7.4942 Z0.4267
X-7.5063 Z0.4272
X-8.4741 Z0.4244
X-8.9815 Z0.4238
X-9.321 Z0.4243
X-9.5893 Z0.4257
X-9.8467 Z0.4276
X-10.8499 Z0.4292
X-11.1456 Z0.4286
X-11.4632 Z0.4275
X-11.7754 Z0.4279
X-11.978 Z0.429
X-12.1861 Z0.4302
X-12.323 Z0.4297
X-12.4216 Z0.4281
X-12.5599 Z0.4241
X-12.6917 Z0.4189
X-12.8219 Z0.4123
X-12.9048 Z0.407
X-12.9864 Z0.4008
X-13.0584 Z0.394
X-13.1159 Z0.3875
X-13.1637 Z0.3811
X-13.2113 Z0.3737
X-13.2587 Z0.3649
X-13.301 Z0.355
X-13.3207 Z0.3495
X-13.3462 Z0.3412
X-13.3614 Z0.3353
X-13.375 Z0.3288
X-13.3845 Z0.3233
X-13.3892 Z0.3202
X-13.3935 Z0.3168
X-13.3979 Z0.3127
X-13.4022 Z0.307
X-13.4034 Z0.3044
X-13.4044 Z0.2995
X-13.4045 Z0.2672
X-13.4237 Z0.2619
X-13.455 Z0.2545
X-13.5986 Z0.2232
X-13.6593 Z0.2094
X-13.7105 Z0.1973
X-13.7615 Z0.1846
X-13.802 Z0.1739
X-13.8423 Z0.1625
X-13.8721 Z0.1538
X-13.9111 Z0.1417
X-13.96 Z0.1253
X-13.9849 Z0.1166
G3 X-13.9946 Z0.1172 I-0.0041 K0.0118
G2 X-14.0001 Z0.1185 I-0.0055 K-0.0112
G1 X-14.2718
X-14.2742 Y-2.2512
X-14.2765 Y-2.251
X-14.2788 Y-2.2506
X-14.2811 Y-2.2501
X-14.2834 Y-2.2495 Z0.1186
X-14.2856 Y-2.2487 Z0.1187
X-14.2878 Y-2.2477
X-14.2899 Y-2.2467 Z0.1188
X-14.2919 Y-2.2455 Z0.1189
X-14.2939 Y-2.2441 Z0.119
X-14.2957 Y-2.2427 Z0.1191
X-14.2975 Y-2.2412 Z0.1192
X-14.2992 Y-2.2395 Z0.1193
X-14.3007 Y-2.2377 Z0.1194
X-14.3022 Y-2.2359 Z0.1196
X-14.3035 Y-2.2339 Z0.1197
X-14.3047 Y-2.2319 Z0.1199
X-14.3058 Y-2.2298 Z0.12
X-14.3067 Y-2.2277 Z0.1202
X-14.3075 Y-2.2254 Z0.1203
X-14.3081 Y-2.2232 Z0.1205
X-14.3087 Y-2.2209 Z0.1207
X-14.309 Y-2.2186 Z0.1208
X-14.3092 Y-2.2162 Z0.121
X-14.3093 Y-2.2139 Z0.1212
Y-2.1638 Z0.1248
X-14.3092 Y-2.1614 Z0.125
X-14.309 Y-2.1591 Z0.1252
X-14.3087 Y-2.1567 Z0.1253
X-14.3081 Y-2.1544 Z0.1255
X-14.3075 Y-2.1522 Z0.1257
X-14.3067 Y-2.15 Z0.1258
X-14.3058 Y-2.1478 Z0.126
X-14.3047 Y-2.1457 Z0.1261
X-14.3035 Y-2.1437 Z0.1263
X-14.3022 Y-2.1418 Z0.1264
X-14.3007 Y-2.1399 Z0.1266
X-14.2992 Y-2.1381 Z0.1267
X-14.2975 Y-2.1365 Z0.1268
X-14.2957 Y-2.1349 Z0.1269
X-14.2939 Y-2.1335 Z0.127
X-14.2919 Y-2.1322 Z0.1271
X-14.2899 Y-2.131 Z0.1272
X-14.2878 Y-2.1299 Z0.1273
X-14.2856 Y-2.129 Z0.1274
X-14.2834 Y-2.1282
X-14.2811 Y-2.1275 Z0.1275
X-14.2788 Y-2.127
X-14.2765 Y-2.1266
X-14.2742 Y-2.1264
X-14.2718 Y-2.1263
G3 X-14.2663 Z0.1263 I0. K-0.0125
G2 X-14.2561 Z0.1259 I0.0055 K0.0112
G1 X-14.2138 Z0.1432
X-14.0825 Z0.1946
X-14.0439 Z0.2108
X-14.0243 Z0.2199
X-14.0242 Z0.2559
X-14.0237 Z0.2614
X-14.0217 Z0.2682
X-14.0186 Z0.2746
X-14.0154 Z0.2794
X-14.0088 Z0.2874
X-14.0034 Z0.2928
X-13.993 Z0.3013
X-13.9809 Z0.3096
X-13.9674 Z0.3176
X-13.9407 Z0.3317
X-13.9231 Z0.3399
X-13.9043 Z0.3478
X-13.8773 Z0.3584
X-13.8501 Z0.3683
X-13.8134 Z0.3803
X-13.7847 Z0.3889
X-13.7542 Z0.3974
X-13.7126 Z0.4078
X-13.6681 Z0.4177
X-13.6197 Z0.4274
X-13.5891 Z0.4329
X-13.5405 Z0.441
X-13.498 Z0.4473
X-13.4598 Z0.4525
X-13.4193 Z0.4575
X-13.3575 Z0.4642
X-13.3074 Z0.4692
X-13.2561 Z0.4737
X-13.2048 Z0.4779
X-13.1156 Z0.4841
X-13.0358 Z0.4888
X-12.9396 Z0.4935
X-12.832 Z0.4978
X-12.7161 Z0.5016
X-12.5768 Z0.505
X-12.4785 Z0.5069
X-12.3526 Z0.5085
X-12.2157 Z0.509
X-11.9035 Z0.5079
X-11.3156 Z0.5077
X-11.0778 Z0.5074
X-10.8205 Z0.5055
X-10.5686 Z0.5024
X-9.7527 Z0.4895
X-9.5282 Z0.4863
X-9.3255 Z0.4847
X-9.0572 Z0.4837
X-8.6683 Z0.484
X-8.1645 Z0.486
X-7.504 Z0.4897
X-7.4913 Z0.489
X-7.4807 Z0.4874
X-7.4704 Z0.4849
X-7.4605 Z0.4814
X-7.4509 Z0.4771
X-7.4417 Z0.472
X-7.4311 Z0.4647
X-7.4213 Z0.4563
X-7.4141 Z0.4489
X-7.4076 Z0.4411
X-7.3997 Z0.4295
X-7.3931 Z0.4175
X-7.3882 Z0.4063
X-7.3839 Z0.3932
X-7.3812 Z0.3814
X-7.3798 Z0.3729
X-7.3787 Z0.3593
X-7.3786 Z0.2784
X-7.258 Z0.277
X-6.9678 Z0.2731
X-6.6392 Z0.2677
X-6.2614 Z0.2607
X-5.7521 Z0.2502
X-5.4954 Z0.244
X-5.2828 Z0.2381
X-5.2172 Z0.236
X-5.1096 Z0.2322
X-5.014 Z0.2284
X-4.897 Z0.2234
X-4.8017 Z0.2188
X-4.717 Z0.2143
X-4.6313 Z0.2094
X-4.536 Z0.2033
X-4.4407 Z0.1968
X-4.3455 Z0.1897
X-4.2599 Z0.1829
X-4.1647 Z0.1748
X-4.0803 Z0.1672
X-3.9855 Z0.1583
X-3.888 Z0.1485
X-3.7717 Z0.1364
X-3.6224 Z0.1196
X-3.5051 Z0.1058
X-3.4199 Z0.0952
X-3.3029 Z0.08
X-2.5287 Z-0.0206
X-2.5263 Z-0.0209
X-2.524 Y-2.1261 Z-0.0211
X-2.5216 Y-2.1258
X-2.5193 Y-2.1254
X-2.517 Y-2.1249 Z-0.021
X-2.5148 Y-2.1243 Z-0.0208
X-2.5125 Y-2.1235 Z-0.0205
X-2.5104 Y-2.1227 Z-0.0201
X-2.5083 Y-2.1218 Z-0.0196
X-2.5062 Y-2.1207 Z-0.0191
X-2.5043 Y-2.1196 Z-0.0184
X-2.5024 Y-2.1184 Z-0.0177
X-2.5006 Y-2.1171 Z-0.0169
X-2.4989 Y-2.1157 Z-0.016
X-2.4973 Y-2.1142 Z-0.015
X-2.4959 Y-2.1127 Z-0.014
X-2.4945 Y-2.1111 Z-0.0129
X-2.4933 Y-2.1094 Z-0.0118
X-2.4922 Y-2.1078 Z-0.0106
X-2.4912 Y-2.106 Z-0.0093
X-2.4904 Y-2.1042 Z-0.008
X-2.4897 Y-2.1024 Z-0.0066
X-2.4892 Y-2.1006 Z-0.0053
X-2.4887 Y-2.0988 Z-0.0039
X-2.4885 Y-2.0969 Z-0.0024
X-2.4818 Y-2.0308 Z0.0493
X-2.4817 Y-2.029 Z0.0508
Y-2.0272 Z0.0522
X-2.4819 Y-2.0253 Z0.0537
X-2.4822 Y-2.0235 Z0.0552
X-2.4827 Y-2.0217 Z0.0567
X-2.4833 Y-2.02 Z0.0581
X-2.484 Y-2.0183 Z0.0596
X-2.4849 Y-2.0167 Z0.061
X-2.486 Y-2.0151 Z0.0624
X-2.4871 Y-2.0135 Z0.0638
X-2.4884 Y-2.0121 Z0.0651
X-2.4898 Y-2.0107 Z0.0664
X-2.4913 Y-2.0094 Z0.0676
X-2.4929 Y-2.0082 Z0.0688
X-2.4947 Y-2.007 Z0.0699
X-2.4965 Y-2.006 Z0.071
X-2.4984 Y-2.0051 Z0.072
X-2.5004 Y-2.0042 Z0.0729
X-2.5025 Y-2.0035 Z0.0738
X-2.5046 Y-2.0029 Z0.0746
X-2.5068 Y-2.0023 Z0.0753
X-2.509 Y-2.0019 Z0.0759
X-2.5113 Y-2.0016 Z0.0764
X-2.5136 Y-2.0015 Z0.0768
X-2.516 Y-2.0014 Z0.0772
X-2.6434 Z0.0958
X-2.7497 Z0.1105
X-2.8454 Z0.1234
X-3.0158 Z0.1451
X-3.2182 Z0.1697
X-3.4197 Z0.1927
X-3.6 Z0.2123
X-3.7175 Z0.2244
X-3.8125 Z0.2337
X-3.8873 Z0.2408
X-3.9717 Z0.2485
X-4.0668 Z0.2568
X-4.162 Z0.2646
X-4.2572 Z0.2718
X-4.3525 Z0.2785
X-4.4382 Z0.2841
X-4.5335 Z0.2897
X-4.6182 Z0.2943
X-4.7135 Z0.2988
X-4.809 Z0.3029
X-4.9158 Z0.3068
X-5.101 Z0.3124
X-5.2921 Z0.3169
X-5.5057 Z0.3207
X-6.8363 Z0.3397
X-7.2197 Z0.3443
X-7.3786 Z0.3457
Z0.4023
X-7.3791 Z0.4144
X-7.3805 Z0.425
X-7.3826 Z0.4349
X-7.3853 Z0.4444
X-7.3894 Z0.4554
X-7.3956 Z0.4681
X-7.4008 Z0.4767
X-7.4067 Z0.4849
X-7.415 Z0.4946
X-7.4242 Z0.5034
X-7.4345 Z0.5114
X-7.4456 Z0.5182
X-7.455 Z0.5229
X-7.4674 Z0.5275
X-7.475 Z0.5297
X-7.4854 Z0.5317
X-7.496 Z0.5329
X-7.5123 Z0.5331
X-8.1913 Z0.5287
X-8.6458 Z0.5265
X-8.9996 Z0.5261
X-9.2788 Z0.527
X-9.465 Z0.5285
X-9.6183 Z0.5305
X-9.8921 Z0.5356
X-10.5109 Z0.5478
X-10.7245 Z0.5512
X-10.938 Z0.554
X-11.1571 Z0.5556
X-11.4637 Z0.5562
X-11.9478
X-12.2599 Z0.5567
X-12.4187 Z0.556
X-12.6104 Z0.5537
X-12.7692 Z0.5509
X-12.8672 Z0.5486
X-12.9471 Z0.5464
X-13.0487 Z0.5431
X-13.1424 Z0.5394
X-13.2238 Z0.5356
X-13.3052 Z0.5312
X-13.3673 Z0.5273
X-13.4367 Z0.5224
X-13.488 Z0.5182
X-13.5308 Z0.5144
X-13.5725 Z0.5103
X-13.6236 Z0.5049
X-13.6821 Z0.4978
X-13.7342 Z0.4908
X-13.7863 Z0.4829
X-13.8243 Z0.4766
X-13.8655 Z0.4691
X-13.9112 Z0.46
X-13.9442 Z0.4528
X-13.964 Z0.4474
X-14.0053 Z0.4358
X-14.0515 Z0.4221
X-14.1108 Z0.4033
X-14.1575 Z0.3874
X-14.1982 Z0.373
X-14.2587 Z0.35
X-14.3212 Z0.3244
X-14.3462 Z0.3133
X-14.3843 Z0.2959
X-14.4338 Z0.2712
X-14.4517 Z0.2613
X-14.4687 Z0.2507
X-14.4819 Z0.2409
X-14.4902 Z0.2337
X-14.4981 Z0.2257
X-14.5017 Z0.2214
X-14.5052 Z0.2165
X-14.5082 Z0.2115
X-14.5111 Z0.2047
X-14.512 Z0.2018
X-14.5128 Z0.1971
X-14.513 Z0.1495
X-14.5238 Z0.144
G3 X-14.535 Z0.1439 I-0.0057 K0.0111
G2 X-14.5405 Z0.1451 I-0.0055 K-0.0112
G1 X-14.8201
X-14.8225 Z0.1452
X-14.8248 Y-2.0012 Z0.1453
X-14.8271 Y-2.0009 Z0.1456
X-14.8294 Y-2.0006 Z0.1459
X-14.8317 Y-2.0001 Z0.1464
X-14.8339 Y-1.9995 Z0.1469
X-14.8361 Y-1.9988 Z0.1476
X-14.8382 Y-1.998 Z0.1483
X-14.8402 Y-1.9971 Z0.1491
X-14.8421 Y-1.9962 Z0.15
X-14.844 Y-1.9951 Z0.151
X-14.8458 Y-1.994 Z0.1521
X-14.8474 Y-1.9928 Z0.1532
X-14.849 Y-1.9915 Z0.1544
X-14.8504 Y-1.9901 Z0.1557
X-14.8518 Y-1.9887 Z0.157
X-14.853 Y-1.9872 Z0.1584
X-14.854 Y-1.9857 Z0.1598
X-14.855 Y-1.9841 Z0.1613
X-14.8558 Y-1.9825 Z0.1628
X-14.8564 Y-1.9808 Z0.1644
X-14.8569 Y-1.9792 Z0.166
X-14.8573 Y-1.9775 Z0.1675
X-14.8575 Y-1.9757 Z0.1691
X-14.8576 Y-1.974 Z0.1708
Y-1.9039 Z0.2363
X-14.8575 Y-1.9021 Z0.2379
X-14.8573 Y-1.9004 Z0.2396
X-14.8569 Y-1.8987 Z0.2411
X-14.8564 Y-1.8971 Z0.2427
X-14.8558 Y-1.8954 Z0.2443
X-14.855 Y-1.8938 Z0.2458
X-14.854 Y-1.8922 Z0.2472
X-14.853 Y-1.8907 Z0.2487
X-14.8518 Y-1.8892 Z0.2501
X-14.8504 Y-1.8878 Z0.2514
X-14.849 Y-1.8864 Z0.2527
X-14.8474 Y-1.8851 Z0.2539
X-14.8458 Y-1.8839 Z0.255
X-14.844 Y-1.8828 Z0.2561
X-14.8421 Y-1.8817 Z0.2571
X-14.8402 Y-1.8807 Z0.258
X-14.8382 Y-1.8799 Z0.2588
X-14.8361 Y-1.8791 Z0.2595
X-14.8339 Y-1.8784 Z0.2602
X-14.8317 Y-1.8778 Z0.2607
X-14.8294 Y-1.8773 Z0.2611
X-14.8271 Y-1.877 Z0.2615
X-14.8248 Y-1.8767 Z0.2617
X-14.8225 Y-1.8765 Z0.2619
X-14.8201 Z0.262
G3 X-14.8146 Z0.2607 I0. K-0.0125
G2 X-14.8039 Z0.2605 I0.0055 K0.0112
G1 X-14.7932 Z0.2655
X-14.7497 Z0.2846
X-14.722 Z0.2962
X-14.674 Z0.315
X-14.6368 Z0.3288
X-14.5802 Z0.3489
X-14.5166 Z0.3702
X-14.4343 Z0.3962
X-14.346 Z0.4226
X-14.2526 Z0.4492
X-14.1661 Z0.4727
X-14.107 Z0.488
X-14.056 Z0.5008
X-14.006 Z0.5129
X-13.9503 Z0.526
X-13.9371 Z0.5286
X-13.8709 Z0.5371
X-13.824 Z0.5424
X-13.7824 Z0.5468
X-13.7312 Z0.5517
X-13.6895 Z0.5553
X-13.6478 Z0.5586
X-13.6061 Z0.5616
X-13.5536 Z0.5651
X-13.4797 Z0.5693
X-13.4068 Z0.5729
X-13.3339 Z0.576
X-13.2274 Z0.5797
X-13.1252 Z0.5826
X-13.022 Z0.585
X-12.8468 Z0.5881
X-12.6223 Z0.5908
X-12.3704 Z0.5926
X-12.1021
X-11.6783 Z0.5924
X-11.2621 Z0.5923
X-11.0267 Z0.5912
X-10.7885 Z0.589
X-10.5393 Z0.5855
X-9.9616 Z0.5758
X-9.6029 Z0.5698
X-9.351 Z0.5673
X-9.1046 Z0.5661
X-8.7457
X-8.3021 Z0.5677
X-7.504 Z0.5724
X-7.492 Z0.5718
X-7.4814 Z0.5703
X-7.4735 Z0.5685
X-7.4611 Z0.5645
X-7.4514 Z0.5603
X-7.4422 Z0.5554
X-7.4334 Z0.5497
X-7.4252 Z0.5433
X-7.4176 Z0.5363
X-7.4106 Z0.5288
X-7.4043 Z0.5208
X-7.3987 Z0.5124
X-7.3937 Z0.5037
X-7.3895 Z0.4948
X-7.3854 Z0.4836
X-7.3822 Z0.4725
X-7.3801 Z0.4614
X-7.3788 Z0.4481
X-7.3786 Z0.424
X-7.1293 Z0.4221
X-6.6857 Z0.4173
X-6.0451 Z0.4101
X-5.5303 Z0.406
X-5.3113 Z0.4039
X-5.1141 Z0.4011
X-5.0487 Z0.3998
X-4.9344 Z0.3972
X-4.8095 Z0.3936
X-4.7133 Z0.3902
X-4.6178 Z0.3862
X-4.5331 Z0.3821
X-4.4367 Z0.3769
X-4.3414 Z0.371
X-4.2568 Z0.3653
X-4.1616 Z0.3582
X-4.0664 Z0.3506
X-3.9819 Z0.3433
X-3.8868 Z0.3348
X-3.8024 Z0.3269
X-3.7074 Z0.3175
X-3.6113 Z0.3077
X-3.4203 Z0.2872
X-3.2401 Z0.2669
X-3.0599 Z0.246
X-2.8692 Z0.2232
X-2.6892 Z0.2009
X-2.488 Z0.1753
X-2.3124 Z0.1519
X-2.1371 Z0.1273
X-2.0362 Z0.1125
X-1.9355 Z0.0969
X-1.82 Z0.0782
X-1.2057 Z-0.0213
X-1.2034 Y-1.8764 Z-0.0216
X-1.201 Y-1.8762 Z-0.0219
X-1.1987 Y-1.8759 Z-0.022
X-1.1964 Y-1.8755 Z-0.0221
X-1.1941 Y-1.875 Z-0.022
X-1.1918 Y-1.8744 Z-0.0219
X-1.1896 Y-1.8737 Z-0.0217
X-1.1874 Y-1.8728 Z-0.0214
X-1.1853 Y-1.8719 Z-0.0209
X-1.1832 Y-1.8708 Z-0.0205
X-1.1813 Y-1.8697 Z-0.0199
X-1.1794 Y-1.8685 Z-0.0192
X-1.1776 Y-1.8671 Z-0.0185
X-1.1758 Y-1.8658 Z-0.0176
X-1.1742 Y-1.8643 Z-0.0167
X-1.1727 Y-1.8628 Z-0.0158
X-1.1713 Y-1.8612 Z-0.0147
X-1.1701 Y-1.8595 Z-0.0136
X-1.169 Y-1.8578 Z-0.0125
X-1.1679 Y-1.856 Z-0.0112
X-1.1671 Y-1.8543 Z-0.01
X-1.1663 Y-1.8525 Z-0.0087
X-1.1657 Y-1.8506 Z-0.0073
X-1.1653 Y-1.8488 Z-0.0059
X-1.165 Y-1.8469 Z-0.0045
X-1.1568 Y-1.7811 Z0.0462
X-1.1566 Y-1.7792 Z0.0477
Y-1.7774 Z0.0491
X-1.1567 Y-1.7756 Z0.0506
X-1.157 Y-1.7737 Z0.0521
X-1.1574 Y-1.772 Z0.0536
X-1.158 Y-1.7702 Z0.055
X-1.1587 Y-1.7685 Z0.0565
X-1.1596 Y-1.7669 Z0.0579
X-1.1606 Y-1.7653 Z0.0594
X-1.1617 Y-1.7637 Z0.0608
X-1.1629 Y-1.7623 Z0.0621
X-1.1643 Y-1.7609 Z0.0635
X-1.1658 Y-1.7595 Z0.0647
X-1.1674 Y-1.7583 Z0.066
X-1.1691 Y-1.7572 Z0.0671
X-1.1708 Y-1.7561 Z0.0682
X-1.1727 Y-1.7552 Z0.0693
X-1.1747 Y-1.7543 Z0.0703
X-1.1767 Y-1.7536 Z0.0712
X-1.1788 Y-1.753 Z0.072
X-1.181 Y-1.7525 Z0.0728
X-1.1832 Y-1.7521 Z0.0735
X-1.1855 Y-1.7518 Z0.0741
X-1.1878 Y-1.7516 Z0.0746
X-1.1901 Y-1.7515 Z0.075
X-1.4098 Z0.1203
X-1.5559 Z0.1501
X-1.5771 Z0.1536
X-1.7032 Z0.1731
X-1.7563 Z0.1813
X-1.8826 Z0.2
X-2.0526 Z0.2244
X-2.1695 Z0.2406
X-2.2971 Z0.2582
X-2.4992 Z0.2851
X-2.6589 Z0.3059
X-2.7654 Z0.3195
X-3.0315 Z0.3532
X-3.2393 Z0.3788
X-3.4364 Z0.4025
X-3.5537 Z0.416
X-3.671 Z0.429
X-3.7884 Z0.4413
X-3.8846 Z0.4508
X-3.9914 Z0.4607
X-4.0662 Z0.4674
X-4.1625 Z0.4753
X-4.2481 Z0.4818
X-4.3445 Z0.4883
X-4.4409 Z0.4941
X-4.5267 Z0.4986
X-4.6232 Z0.5028
X-4.7195 Z0.5062
X-4.828 Z0.5093
X-4.9151 Z0.5112
X-5.0575 Z0.5135
X-5.2218 Z0.5149
X-5.4737 Z0.5156
X-5.9029 Z0.5159
X-6.2479 Z0.5178
X-7.124 Z0.5254
X-7.3844 Z0.5268
X-7.3874 Z0.5361
X-7.3911 Z0.5452
X-7.3979 Z0.5588
X-7.4033 Z0.5674
X-7.4092 Z0.5756
X-7.4158 Z0.5834
X-7.423 Z0.5907
X-7.4308 Z0.5975
X-7.4416 Z0.6052
X-7.4527 Z0.6116
X-7.4622 Z0.6159
X-7.4722 Z0.6193
X-7.4825 Z0.6218
X-7.493 Z0.6234
X-7.5037 Z0.6239
X-8.4018 Z0.62
X-8.9059 Z0.6192
X-9.2782 Z0.6198
X-9.5849 Z0.6218
X-10.0394 Z0.6267
X-10.6198 Z0.6322
X-10.9539 Z0.6344
X-11.1948 Z0.6351
X-11.8026 Z0.6353
X-12.272
X-12.4746 Z0.6351
X-12.9701 Z0.6328
X-13.1782 Z0.631
X-13.337 Z0.6286
X-13.4292 Z0.6265
X-13.5137 Z0.6239
X-13.5765 Z0.6216
X-13.6398 Z0.6187
X-13.7126 Z0.6149
X-13.7651 Z0.6116
X-13.8164 Z0.6079
X-13.8581 Z0.6046
X-13.9321 Z0.5979
X-13.9449 Z0.5959
X-14.01 Z0.5814
X-14.069 Z0.5677
X-14.1285 Z0.5534
X-14.1971 Z0.5363
X-14.2959 Z0.5112
X-14.3769 Z0.4902
X-14.4577 Z0.4684
X-14.5373 Z0.4465
X-14.596 Z0.4297
X-14.6454 Z0.4151
X-14.6844 Z0.4032
X-14.7233 Z0.391
X-14.762 Z0.3783
X-14.813 Z0.3613
X-14.8605 Z0.3447
X-14.909 Z0.3274
X-14.9764 Z0.3023
X-15.0344 Z0.28
X-15.0823 Z0.261
X-15.1101 Z0.2498
G3 X-15.1444 Z0.273 I-0.0093 K0.0232 F#104
G0 Z1.075
X-15.5355 Y-1.6266
Z0.2285
G1 Z0.1639 F#103
G2 X-15.499 Z0.1416 I0.025 K0.
G1 X-15.4711 Z0.1561 F#100
X-15.3937 Z0.1978
X-15.3575 Z0.2185
X-15.3303 Z0.2356
X-15.3217 Z0.2418
X-15.3113 Z0.2497
X-15.3035 Z0.2565
X-15.2971 Z0.2636
X-15.2931 Z0.2707
X-15.2857 Z0.2826
X-15.2745 Z0.2982
X-15.265 Z0.3099
X-15.2579 Z0.317
X-15.2501 Z0.3233
X-15.2417 Z0.3286
X-15.2329 Z0.3331
X-15.0869 Z0.3909
X-14.9942 Z0.4265
X-14.9157 Z0.4555
X-14.8444 Z0.4808
X-14.7978 Z0.4966
X-14.7372 Z0.5165
X-14.6671 Z0.5383
X-14.5838 Z0.5626
X-14.4655 Z0.5954
X-14.3333 Z0.6305
X-14.2107 Z0.6618
X-14.1086 Z0.687
X-14.0168 Z0.7085
X-13.9392 Z0.7253
X-13.9296 Z0.7265
X-13.8717 Z0.7291
X-13.7858 Z0.7318
X-13.7049 Z0.7335
X-13.6077 Z0.7347
X-13.4699 Z0.7353
X-13.2974 Z0.7345
X-12.7471 Z0.7285
X-12.5828 Z0.7273
X-12.1447 Z0.7262
X-11.7951 Z0.7269
X-11.4157 Z0.7268
X-11.0363 Z0.7273
X-9.8912 Z0.7272
X-9.4285 Z0.7254
X-8.974 Z0.7247
X-8.5365 Z0.7249
X-7.5892 Z0.7267
X-7.392
X-6.9594 Z0.7252
X-6.5542 Z0.7238
X-6.2918 Z0.7237
X-6.0728 Z0.7246
X-5.8866 Z0.7262
X-5.7661 Z0.7277
X-5.328 Z0.7349
X-5.1473 Z0.7371
X-5.005 Z0.7378
X-4.8703 Z0.7375
X-4.7567 Z0.7361
X-4.6533 Z0.734
X-4.5516 Z0.7309
X-4.4518 Z0.7267
X-4.3587 Z0.7217
X-4.27 Z0.7161
X-4.1824 Z0.7097
X-4.0938 Z0.7025
X-4.0004 Z0.6941
X-3.9023 Z0.6846
X-3.7792 Z0.6716
X-3.6478 Z0.6564
X-3.4974 Z0.638
X-3.312 Z0.6139
X-3.072 Z0.581
X-2.6915 Z0.5276
X-2.3856 Z0.4835
X-2.1351 Z0.447
X-1.8406 Z0.4028
X-1.5653 Z0.3605
X-1.5549 Z0.3586
X-1.2203 Z0.2732
X-1.0707 Z0.2357
X-0.9442 Z0.205
X-0.8363 Z0.1798
X-0.7232 Z0.1545
X-0.6099 Z0.1302
G2 X-0.5797 Z0.1546 I0.0053 K0.0244 F#104
G0 Z1.075
X-0.2015 Y-1.5017
Z0.1219
G1 Z0.0695 F#103
G3 X-0.2347 Z0.0459 I-0.025 K0.
G1 X-0.3411 Z0.0833 F#100
X-0.3857 Z0.0986
X-0.4558 Z0.1222
X-0.4956 Z0.1352
X-0.5085 Z0.1382
X-0.7032 Z0.1797
X-0.8268 Z0.2072
X-0.9397 Z0.2335
X-1.0627 Z0.2633
X-1.2075 Z0.2993
X-1.4248 Z0.3548
X-1.5484 Z0.3868
X-1.5615 Z0.3891
X-2.0875 Z0.4675
X-2.4166 Z0.516
X-2.714 Z0.5592
X-3.0222 Z0.6032
X-3.2348 Z0.6327
X-3.3507 Z0.6482
X-3.4358 Z0.6594
X-3.521 Z0.6702
X-3.6062 Z0.6807
X-3.6915 Z0.6908
X-3.7875 Z0.7015
X-3.8729 Z0.7106
X-3.969 Z0.7202
X-4.0652 Z0.7289
X-4.1507 Z0.7361
X-4.2471 Z0.7433
X-4.3434 Z0.7495
X-4.4292 Z0.7542
X-4.5257 Z0.7585
X-4.6235 Z0.7618
X-4.7331 Z0.7644
X-4.8371 Z0.7659
X-4.9411 Z0.7666
X-5.0671 Z0.7665
X-5.2314 Z0.7651
X-5.5271 Z0.7605
X-5.872 Z0.7548
X-6.0801 Z0.7526
X-6.2937 Z0.7512
X-6.573 Z0.7507
X-6.9369 Z0.7517
X-7.4188 Z0.7549
X-7.5329 Z0.7555
X-13.1986 Z0.7553
X-13.9242 Z0.7554
X-13.9345 Z0.7548
X-13.9441 Z0.7535
X-13.9583 Z0.7502
X-14.1798 Z0.6946
X-14.2724 Z0.671
X-14.3835 Z0.6421
X-14.4447 Z0.626
X-14.5151 Z0.6069
X-14.575 Z0.5899
X-14.6233 Z0.5756
X-14.652 Z0.5668
X-14.7102 Z0.5483
X-14.7693 Z0.5287
X-14.8384 Z0.5052
X-14.9162 Z0.4777
X-14.9928 Z0.4497
X-15.0611 Z0.4241
X-15.1372 Z0.3948
X-15.2017 Z0.3693
X-15.2706 Z0.3414
X-15.2972 Z0.3298
X-15.3254 Z0.316
X-15.353 Z0.301
X-15.378 Z0.2862
X-15.4024 Z0.2705
X-15.4262 Z0.2539
X-15.4493 Z0.2363
X-15.47 Z0.2196
X-15.482 Z0.2123
X-15.4961 Z0.2052
X-15.5102 Z0.1987
X-15.5244 Z0.1928
X-15.5344 Z0.1894
X-15.5542 Z0.1844
X-15.5728 Z0.1791
X-15.5831 Z0.1759
X-15.6059 Z0.1682
X-15.6284 Z0.1595
X-15.6462 Z0.1518
X-15.6648 Z0.143
X-15.6734 Z0.1387
X-15.6905 Z0.1294
X-15.7072 Z0.1196
X-15.726 Z0.1074
X-15.7308 Z0.1041
G3 X-15.7379 Z0.1019 I-0.0072 K0.0102
G1 X-15.7652
X-15.7675 Y-1.5016
X-15.7699 Y-1.5014 Z0.1018
X-15.7722 Y-1.501
X-15.7745 Y-1.5005
X-15.7768 Y-1.4998 Z0.1017
X-15.779 Y-1.499
X-15.7812 Y-1.4981 Z0.1016
X-15.7833 Y-1.497 Z0.1015
X-15.7853 Y-1.4958 Z0.1014
X-15.7872 Y-1.4945 Z0.1013
X-15.7891 Y-1.4931 Z0.1012
X-15.7909 Y-1.4915 Z0.101
X-15.7925 Y-1.4899 Z0.1009
X-15.7941 Y-1.4881 Z0.1008
X-15.7955 Y-1.4862 Z0.1006
X-15.7969 Y-1.4843 Z0.1004
X-15.7981 Y-1.4823 Z0.1003
X-15.7991 Y-1.4802 Z0.1001
X-15.8001 Y-1.478 Z0.0999
X-15.8009 Y-1.4758 Z0.0997
X-15.8015 Y-1.4736 Z0.0996
X-15.802 Y-1.4713 Z0.0994
X-15.8024 Y-1.469 Z0.0992
X-15.8026 Y-1.4666 Z0.099
X-15.8027 Y-1.4643 Z0.0988
Y-1.4141 Z0.0947
X-15.8026 Y-1.4117 Z0.0945
X-15.8024 Y-1.4094 Z0.0943
X-15.802 Y-1.4071 Z0.0941
X-15.8015 Y-1.4048 Z0.0939
X-15.8009 Y-1.4025 Z0.0937
X-15.8001 Y-1.4003 Z0.0935
X-15.7991 Y-1.3982 Z0.0934
X-15.7981 Y-1.3961 Z0.0932
X-15.7969 Y-1.3941 Z0.093
X-15.7955 Y-1.3921 Z0.0929
X-15.7941 Y-1.3903 Z0.0927
X-15.7925 Y-1.3885 Z0.0926
X-15.7909 Y-1.3868 Z0.0924
X-15.7891 Y-1.3853 Z0.0923
X-15.7872 Y-1.3839 Z0.0922
X-15.7853 Y-1.3825 Z0.0921
X-15.7833 Y-1.3813 Z0.092
X-15.7812 Y-1.3803 Z0.0919
X-15.779 Y-1.3793 Z0.0918
X-15.7768 Y-1.3785 Z0.0917
X-15.7745 Y-1.3779
X-15.7722 Y-1.3774 Z0.0916
X-15.7699 Y-1.377
X-15.7675 Y-1.3768
X-15.7652 Y-1.3767
G2 X-15.7577 Z0.0941 I0. K0.0125
G1 X-15.7433 Z0.1047
X-15.7243 Z0.1177
X-15.7069 Z0.1285
X-15.6891 Z0.1386
X-15.6827 Z0.142
X-15.6622 Z0.1523
X-15.6391 Z0.1627
X-15.6121 Z0.1733
X-15.5893 Z0.1811
X-15.5662 Z0.1881
X-15.5366 Z0.1958
X-15.5085 Z0.209
X-15.4811 Z0.2213
X-15.4402 Z0.2389
X-15.3846 Z0.2616
X-15.3222 Z0.2861
X-15.2405 Z0.3172
X-15.1856 Z0.3401
X-15.1201 Z0.367
X-15.0533 Z0.3936
X-14.9808 Z0.4216
X-14.908 Z0.4489
X-14.8394 Z0.4736
X-14.7684 Z0.4984
X-14.7288 Z0.512
X-14.6697 Z0.5315
X-14.6217 Z0.5468
X-14.5714 Z0.5622
X-14.5118 Z0.58
X-14.4015 Z0.6118
X-14.2893 Z0.6448
X-13.9531 Z0.7448
X-13.9436 Z0.7468
X-13.934 Z0.7481
X-13.9231 Z0.7487
X-13.5562 Z0.7479
X-12.7385 Z0.7485
X-9.599 Z0.7487
X-7.5948 Z0.7486
X-7.4681 Z0.7484
X-6.926 Z0.7448
X-6.5748 Z0.7438
X-6.2955 Z0.7444
X-6.082 Z0.7458
X-5.8794 Z0.748
X-5.5508 Z0.7533
X-5.2551 Z0.758
X-5.0799 Z0.7596
X-4.943 Z0.7597
X-4.8335 Z0.759
X-4.7349 Z0.7576
X-4.6254 Z0.7551
X-4.5274 Z0.7518
X-4.4309 Z0.7475
X-4.3344 Z0.7423
X-4.2487 Z0.7367
X-4.1524 Z0.7296
X-4.0562 Z0.7216
X-3.9707 Z0.7138
X-3.8745 Z0.7044
X-3.7891 Z0.6954
X-3.6931 Z0.6847
X-3.6079 Z0.6747
X-3.512 Z0.663
X-3.4268 Z0.6522
X-3.2885 Z0.6341
X-3.1396 Z0.6139
X-2.9482 Z0.5872
X-2.7251 Z0.5556
X-2.4382 Z0.5143
X-2.0729 Z0.4609
X-1.5665 Z0.3861
X-1.5507 Z0.3836
X-1.2825 Z0.3152
X-1.1169 Z0.274
X-0.9719 Z0.2389
X-0.8392 Z0.208
X-0.7051 Z0.1784
X-0.5076 Z0.1367
X-0.4773 Z0.1298
X-0.3656 Z0.1038
X-0.232 Z0.072
X-0.2217 Z0.0692
G2 X-0.2129 Z0.0701 I0.0033 K0.0121
G3 X-0.2074 Z0.0713 I0.0055 K-0.0112
G1 X-0.205
X-0.2027 Y-1.3766 Z0.0714
X-0.2003 Y-1.3764
X-0.198 Y-1.3761
X-0.1957 Y-1.3755 Z0.0715
X-0.1934 Y-1.3749 Z0.0716
X-0.1912 Y-1.3741 Z0.0717
X-0.1891 Y-1.3732 Z0.0718
X-0.187 Y-1.3721 Z0.0719
X-0.1849 Y-1.3709 Z0.0721
X-0.183 Y-1.3696 Z0.0722
X-0.1811 Y-1.3682 Z0.0724
X-0.1794 Y-1.3666 Z0.0726
X-0.1777 Y-1.365 Z0.0728
X-0.1761 Y-1.3632 Z0.073
X-0.1747 Y-1.3614 Z0.0733
X-0.1734 Y-1.3594 Z0.0735
X-0.1722 Y-1.3574 Z0.0738
X-0.1711 Y-1.3553 Z0.074
X-0.1702 Y-1.3532 Z0.0743
X-0.1694 Y-1.351 Z0.0746
X-0.1687 Y-1.3488 Z0.0748
X-0.1682 Y-1.3465 Z0.0751
X-0.1678 Y-1.3442 Z0.0754
X-0.1676 Y-1.3418 Z0.0757
X-0.1675 Y-1.3395 Z0.076
Y-1.289 Z0.0823
X-0.1676 Y-1.2867 Z0.0826
X-0.1678 Y-1.2843 Z0.0829
X-0.1682 Y-1.282 Z0.0832
X-0.1687 Y-1.2797 Z0.0835
X-0.1694 Y-1.2775 Z0.0837
X-0.1702 Y-1.2753 Z0.084
X-0.1711 Y-1.2731 Z0.0843
X-0.1722 Y-1.2711 Z0.0845
X-0.1734 Y-1.2691 Z0.0848
X-0.1747 Y-1.2671 Z0.085
X-0.1761 Y-1.2653 Z0.0853
X-0.1777 Y-1.2635 Z0.0855
X-0.1794 Y-1.2619 Z0.0857
X-0.1811 Y-1.2603 Z0.0859
X-0.183 Y-1.2589 Z0.0861
X-0.1849 Y-1.2576 Z0.0862
X-0.187 Y-1.2564 Z0.0864
X-0.1891 Y-1.2553 Z0.0865
X-0.1912 Y-1.2544 Z0.0866
X-0.1934 Y-1.2536 Z0.0867
X-0.1957 Y-1.2529 Z0.0868
X-0.198 Y-1.2524 Z0.0869
X-0.2003 Y-1.2521
X-0.2027 Y-1.2519
X-0.205 Y-1.2518
G2 X-0.2105 Z0.0857 I0. K-0.0125
G3 X-0.2191 Z0.0848 I-0.0055 K0.0112
G1 X-0.2346 Z0.0886
X-0.3759 Z0.1122
X-0.5119 Z0.1347
X-0.7094 Z0.1756
X-0.8332 Z0.2023
X-0.9567 Z0.2302
X-1.0903 Z0.2617
X-1.2249 Z0.2943
X-1.4311 Z0.3456
X-1.5508 Z0.3757
X-1.5639 Z0.3778
X-2.291 Z0.4826
X-2.6224 Z0.5298
X-2.886 Z0.5668
X-3.088 Z0.5945
X-3.2465 Z0.6159
X-3.3635 Z0.6311
X-3.4807 Z0.6459
X-3.5979 Z0.6601
X-3.6938 Z0.6711
X-3.7899 Z0.6815
X-3.8753 Z0.6904
X-3.9714 Z0.6996
X-4.0569 Z0.7073
X-4.1532 Z0.7151
X-4.2495 Z0.7221
X-4.3352 Z0.7275
X-4.4317 Z0.7327
X-4.5282 Z0.7369
X-4.6209 Z0.74
X-4.7359 Z0.7426
X-4.8344 Z0.744
X-4.9385 Z0.7447
X-5.0699 Z0.7446
X-5.2342 Z0.7432
X-5.5299 Z0.7387
X-5.8749 Z0.7332
X-6.0829 Z0.7309
X-6.2965 Z0.7295
X-6.5758 Z0.729
X-6.926 Z0.7299
X-7.4298 Z0.7332
X-7.5387 Z0.7338
X-9.3895 Z0.734
X-11.8185 Z0.7338
X-12.7001 Z0.7336
X-13.5112 Z0.7325
X-13.8178 Z0.7333
X-13.9273 Z0.7337
X-13.937 Z0.7329
X-13.9489 Z0.7309
X-13.9615 Z0.7274
X-14.2436 Z0.6317
X-14.3444 Z0.5983
X-14.4467 Z0.566
X-14.545 Z0.5352
X-14.6064 Z0.5157
X-14.6553 Z0.4997
X-14.695 Z0.4863
X-14.7447 Z0.4691
X-14.8348 Z0.4367
X-14.9109 Z0.4081
X-14.9823 Z0.3803
X-15.0555 Z0.3509
X-15.113 Z0.327
X-15.1811 Z0.2978
X-15.2379 Z0.2725
X-15.3146 Z0.2424
X-15.3713 Z0.2196
X-15.4269 Z0.1968
X-15.478 Z0.1752
X-15.5304 Z0.1525
X-15.562 Z0.1432
X-15.5872 Z0.1344
X-15.6052 Z0.1272
G3 X-15.6395 Z0.1504 I-0.0093 K0.0232 F#104
G0 Z1.075
X-15.435 Y-1.1268
Z0.2196
G1 Z0.1541 F#103
G2 X-15.3975 Z0.1325 I0.025 K0.
G1 X-15.3749 Z0.1456 F#100
X-15.3537 Z0.1573
X-15.3314 Z0.1689
X-15.3046 Z0.1825
X-15.2766 Z0.1961
X-15.2494 Z0.2089
X-15.189 Z0.2377
X-15.1183 Z0.2703
X-15.0516 Z0.2998
X-14.9855 Z0.328
X-14.9148 Z0.3572
X-14.8392 Z0.3871
X-14.771 Z0.4131
X-14.7127 Z0.4346
X-14.6632 Z0.4523
X-14.6156 Z0.4689
X-14.4299 Z0.5313
X-14.3442 Z0.5608
X-14.2636 Z0.5901
X-13.9694 Z0.7009
X-13.9556 Z0.7057
X-13.9461 Z0.7079
X-13.9366 Z0.7095
X-13.9263 Z0.7103
X-13.8058 Z0.7096
X-13.4941 Z0.7088
X-12.4974 Z0.7103
X-10.8509
X-9.2757 Z0.7106
X-7.5011 Z0.7103
X-6.9809 Z0.7067
X-6.6414 Z0.7056
X-6.3204 Z0.706
X-6.0959 Z0.7074
X-5.8878 Z0.7095
X-5.5867 Z0.7142
X-5.2745 Z0.7191
X-5.0938 Z0.7207
X-4.9514 Z0.721
X-4.8419 Z0.7203
X-4.7379 Z0.7189
X-4.6393 Z0.7168
X-4.5408 Z0.7138
X-4.4333 Z0.7094
X-4.3368 Z0.7043
X-4.2511 Z0.699
X-4.1548 Z0.6923
X-4.0585 Z0.6847
X-3.9729 Z0.6773
X-3.8768 Z0.6683
X-3.7913 Z0.6598
X-3.6846 Z0.6485
X-3.5673 Z0.6353
X-3.4607 Z0.6227
X-3.3435 Z0.6082
X-3.2051 Z0.5906
X-3.0295 Z0.5676
X-2.7583 Z0.531
X-2.4829 Z0.4932
X-1.5641 Z0.3653
X-1.551 Z0.3632
X-1.3905 Z0.3239
X-1.2152 Z0.2819
X-1.0908 Z0.2528
X-0.9674 Z0.2247
X-0.8238 Z0.1934
X-0.6998 Z0.1675
X-0.5136 Z0.1303
X-0.5029 Z0.1289
X-0.2487 Z0.1
X-0.2355 Z0.0981
X-0.2199 Z0.0945
G2 X-0.2116 Z0.0955 I0.0028 K0.0122
G3 X-0.2061 Z0.0968 I0.0055 K-0.0112
G1 X-0.2037
X-0.2014 Y-1.1265
X-0.1991 Y-1.1262
X-0.1968 Y-1.1257
X-0.1945 Y-1.125
X-0.1923 Y-1.1242 Z0.0969
X-0.1901 Y-1.1233
X-0.188 Y-1.1222
X-0.186 Y-1.121 Z0.097
X-0.1841 Y-1.1197
X-0.1822 Y-1.1182 Z0.0971
X-0.1804 Y-1.1167
X-0.1788 Y-1.115 Z0.0972
X-0.1772 Y-1.1133 Z0.0973
X-0.1758 Y-1.1114 Z0.0974
X-0.1744 Y-1.1094
X-0.1732 Y-1.1074 Z0.0975
X-0.1722 Y-1.1053 Z0.0976
X-0.1712 Y-1.1032 Z0.0977
X-0.1704 Y-1.1009 Z0.0978
X-0.1698 Y-1.0987
X-0.1693 Y-1.0964 Z0.0979
X-0.1689 Y-1.0941 Z0.098
X-0.1687 Y-1.0917 Z0.0981
X-0.1686 Y-1.0894 Z0.0982
Y-1.0394 Z0.1001
X-0.1687 Y-1.037 Z0.1002
X-0.1689 Y-1.0347 Z0.1003
X-0.1693 Y-1.0324 Z0.1004
X-0.1698 Y-1.0301 Z0.1005
X-0.1704 Y-1.0278 Z0.1006
X-0.1712 Y-1.0256 Z0.1007
X-0.1722 Y-1.0234 Z0.1008
X-0.1732 Y-1.0213
X-0.1744 Y-1.0193 Z0.1009
X-0.1758 Y-1.0173 Z0.101
X-0.1772 Y-1.0155 Z0.1011
X-0.1788 Y-1.0137
X-0.1804 Y-1.0121 Z0.1012
X-0.1822 Y-1.0105 Z0.1013
X-0.1841 Y-1.0091
X-0.186 Y-1.0077 Z0.1014
X-0.188 Y-1.0065
X-0.1901 Y-1.0055 Z0.1015
X-0.1923 Y-1.0045
X-0.1945 Y-1.0037
X-0.1968 Y-1.0031 Z0.1016
X-0.1991 Y-1.0026
X-0.2014 Y-1.0022
X-0.2037 Y-1.002
X-0.2061 Y-1.0019
X-0.2087
G2 X-0.2142 Z0.1003 I0. K-0.0125
G3 X-0.2225 Z0.0994 I-0.0055 K0.0112
G1 X-0.2329 Z0.1018
X-0.2487 Z0.104
X-0.5065 Z0.1234
X-0.5172 Z0.1245
X-0.6827 Z0.1559
X-0.8332 Z0.1857
X-0.9719 Z0.2144
X-1.1271 Z0.2481
X-1.3019 Z0.2875
X-1.5078 Z0.3354
X-1.5496 Z0.3453
X-1.56 Z0.3472
X-2.1515 Z0.4255
X-2.6175 Z0.4874
X-2.9144 Z0.5261
X-3.1273 Z0.5533
X-3.2658 Z0.5704
X-3.4043 Z0.587
X-3.5216 Z0.6005
X-3.6069 Z0.61
X-3.703 Z0.6202
X-3.7991 Z0.6299
X-3.8845 Z0.638
X-3.9701 Z0.6456
X-4.0663 Z0.6536
X-4.1519 Z0.66
X-4.2483 Z0.6665
X-4.3447 Z0.6722
X-4.4466 Z0.6772
X-4.5326 Z0.6806
X-4.6421 Z0.6838
X-4.7407 Z0.6858
X-4.8447 Z0.6871
X-4.9652 Z0.6878
X-5.124 Z0.6873
X-5.3047 Z0.6855
X-5.6114 Z0.6808
X-5.8961 Z0.6767
X-6.1097 Z0.6746
X-6.3725 Z0.6732
X-6.6797 Z0.673
X-7.0575 Z0.6744
X-7.5118 Z0.6775
X-9.1404 Z0.6779
X-10.6627 Z0.6774
X-12.4536 Z0.6775
X-12.9738 Z0.6766
X-13.494 Z0.6758
X-13.794 Z0.6767
X-13.9255 Z0.6775
X-13.9356 Z0.6768
X-13.9451 Z0.6753
X-13.9546 Z0.673
X-13.9673 Z0.6687
X-14.2327 Z0.5592
X-14.3113 Z0.5274
X-14.3713 Z0.5043
X-14.4709 Z0.4674
X-14.5698 Z0.4317
X-14.6494 Z0.4023
X-14.6965 Z0.3845
X-14.7633 Z0.358
X-14.8199 Z0.3349
X-14.8585 Z0.3186
X-14.9068 Z0.2979
X-14.9842 Z0.2632
X-15.0502 Z0.2322
X-15.1051 Z0.2051
X-15.1329 Z0.191
X-15.1833 Z0.1646
X-15.2321 Z0.1377
X-15.2513 Z0.1264
G3 X-15.2576 Z0.1247 I-0.0063 K0.0108
G1 X-15.2599 Y-1.0018
X-15.2623 Y-1.0016
X-15.2646 Y-1.0012 Z0.1248
X-15.2669 Y-1.0007
X-15.2692 Y-1.0001 Z0.1249
X-15.2714 Y-0.9993 Z0.125
X-15.2736 Y-0.9984 Z0.1251
X-15.2757 Y-0.9973 Z0.1252
X-15.2777 Y-0.9961 Z0.1253
X-15.2796 Y-0.9948 Z0.1255
X-15.2815 Y-0.9933 Z0.1256
X-15.2833 Y-0.9918 Z0.1258
X-15.2849 Y-0.9901 Z0.1259
X-15.2865 Y-0.9884 Z0.1261
X-15.2879 Y-0.9865 Z0.1263
X-15.2893 Y-0.9846 Z0.1265
X-15.2905 Y-0.9826 Z0.1267
X-15.2915 Y-0.9805 Z0.127
X-15.2925 Y-0.9783 Z0.1272
X-15.2933 Y-0.9761 Z0.1274
X-15.2939 Y-0.9739 Z0.1277
X-15.2944 Y-0.9716 Z0.1279
X-15.2948 Y-0.9693 Z0.1281
X-15.295 Y-0.9669 Z0.1284
X-15.2951 Y-0.9646 Z0.1286
Y-0.9143 Z0.1339
X-15.295 Y-0.9119 Z0.1342
X-15.2948 Y-0.9096 Z0.1344
X-15.2944 Y-0.9073 Z0.1346
X-15.2939 Y-0.905 Z0.1349
X-15.2933 Y-0.9027 Z0.1351
X-15.2925 Y-0.9005 Z0.1354
X-15.2915 Y-0.8984 Z0.1356
X-15.2905 Y-0.8963 Z0.1358
X-15.2893 Y-0.8943 Z0.136
X-15.2879 Y-0.8923 Z0.1362
X-15.2865 Y-0.8905 Z0.1364
X-15.2849 Y-0.8887 Z0.1366
X-15.2833 Y-0.8871 Z0.1368
X-15.2815 Y-0.8855 Z0.1369
X-15.2796 Y-0.8841 Z0.1371
X-15.2777 Y-0.8828 Z0.1372
X-15.2757 Y-0.8816 Z0.1373
X-15.2736 Y-0.8805 Z0.1375
X-15.2714 Y-0.8796 Z0.1376
X-15.2692 Y-0.8788
X-15.2669 Y-0.8781 Z0.1377
X-15.2646 Y-0.8776 Z0.1378
X-15.2623 Y-0.8773
X-15.2599 Y-0.877
X-15.2576
X-15.0499
G2 X-15.0436 Z0.1395 I0. K0.0125
G1 X-15.019 Z0.1539
X-14.9929 Z0.1688
X-14.9571 Z0.1884
X-14.9134 Z0.2114
X-14.8847 Z0.2259
X-14.8416 Z0.2471
X-14.8016 Z0.2661
X-14.7558 Z0.2872
X-14.7077 Z0.3085
X-14.6693 Z0.3251
X-14.6129 Z0.3486
X-14.5641 Z0.3684
X-14.4386 Z0.4185
X-14.3424 Z0.4581
X-14.244 Z0.5009
X-13.9856 Z0.6169
X-13.9634 Z0.6266
X-13.9541 Z0.6297
X-13.9447 Z0.6319
X-13.9351 Z0.6334
X-13.9249 Z0.6341
X-13.7715 Z0.6331
X-13.4611 Z0.6323
X-12.9464 Z0.6332
X-12.4371 Z0.6341
X-10.6243 Z0.634
X-9.1129 Z0.6345
X-7.5194 Z0.6341
X-7.1069 Z0.6314
X-6.7181 Z0.6299
X-6.3947
X-6.1155 Z0.6313
X-5.891 Z0.6334
X-5.3379 Z0.6412
X-5.1627 Z0.6431
X-4.9984 Z0.6438
X-4.856 Z0.6433
X-4.7465 Z0.642
X-4.6424 Z0.64
X-4.5439 Z0.6373
X-4.4359 Z0.6333
X-4.3394 Z0.6288
X-4.2537 Z0.624
X-4.1573 Z0.618
X-4.0716 Z0.6119
X-3.986 Z0.6053
X-3.8897 Z0.5973
X-3.7935 Z0.5887
X-3.6974 Z0.5796
X-3.5906 Z0.5689
X-3.4625 Z0.5553
X-3.3452 Z0.5424
X-3.2385 Z0.5302
X-3.068 Z0.5101
X-2.8666 Z0.4858
X-2.6036 Z0.4534
X-2.1074 Z0.3913
X-1.6633 Z0.3364
X-1.5568 Z0.3234
X-1.5489 Z0.3218
X-1.3504 Z0.278
X-1.1751 Z0.2407
X-1.0206 Z0.2091
X-0.8647 Z0.1787
X-0.7097 Z0.1499
X-0.5216 Z0.1165
X-0.5109 Z0.1153
X-0.469 Z0.1134
X-0.3317 Z0.1073
X-0.2684 Z0.1044
X-0.2497 Z0.1035
X-0.2364 Z0.102
X-0.226 Z0.0998
G2 X-0.2179 Z0.1008 I0.0026 K0.0122
G3 X-0.2124 Z0.1021 I0.0055 K-0.0112
G1 X-0.2101 Y-0.8769
X-0.2077 Y-0.8767
X-0.2054 Y-0.8763
X-0.2031 Y-0.8758
X-0.2008 Y-0.8751 Z0.102
X-0.1986 Y-0.8743
X-0.1964 Y-0.8734
X-0.1943 Y-0.8723 Z0.1019
X-0.1923 Y-0.8711
X-0.1904 Y-0.8698
X-0.1885 Y-0.8684 Z0.1018
X-0.1867 Y-0.8668
X-0.1851 Y-0.8651 Z0.1017
X-0.1835 Y-0.8634
X-0.1821 Y-0.8615 Z0.1016
X-0.1808 Y-0.8596 Z0.1015
X-0.1796 Y-0.8575
X-0.1785 Y-0.8554 Z0.1014
X-0.1775 Y-0.8533 Z0.1013
X-0.1768 Y-0.8511
X-0.1761 Y-0.8488 Z0.1012
X-0.1756 Y-0.8465 Z0.1011
X-0.1752 Y-0.8442 Z0.101
X-0.175 Y-0.8418
X-0.1749 Y-0.8395 Z0.1009
Y-0.7895 Z0.0993
X-0.175 Y-0.7871 Z0.0992
X-0.1752 Y-0.7848 Z0.0991
X-0.1756 Y-0.7825
X-0.1761 Y-0.7802 Z0.099
X-0.1768 Y-0.7779 Z0.0989
X-0.1775 Y-0.7757 Z0.0988
X-0.1785 Y-0.7735
X-0.1796 Y-0.7714 Z0.0987
X-0.1808 Y-0.7694 Z0.0986
X-0.1821 Y-0.7675
X-0.1835 Y-0.7656 Z0.0985
X-0.1851 Y-0.7638
X-0.1867 Y-0.7622 Z0.0984
X-0.1885 Y-0.7606 Z0.0983
X-0.1904 Y-0.7592
X-0.1923 Y-0.7579
X-0.1943 Y-0.7567 Z0.0982
X-0.1964 Y-0.7556
X-0.1986 Y-0.7547
X-0.2008 Y-0.7539 Z0.0981
X-0.2031 Y-0.7532
X-0.2054 Y-0.7527
X-0.2077 Y-0.7523
X-0.2101 Y-0.7521
X-0.2124 Y-0.752
X-0.2171
G2 X-0.2226 Z0.0968 I0. K-0.0125
G3 X-0.2302 Z0.0957 I-0.0055 K0.0112
G1 X-0.2407 Z0.0975
X-0.254 Z0.0987
X-0.5172 Z0.1044
X-0.6477 Z0.125
X-0.8138 Z0.1526
X-0.9492 Z0.1759
X-1.0949 Z0.2023
X-1.2593 Z0.2334
X-1.4362 Z0.2684
X-1.556 Z0.2928
X-1.5693 Z0.2945
X-1.9335 Z0.3349
X-2.772 Z0.431
X-3.0199 Z0.4587
X-3.1885 Z0.4771
X-3.3272 Z0.4918
X-3.4447 Z0.5038
X-3.5301 Z0.5122
X-3.637 Z0.5223
X-3.7545 Z0.5329
X-3.8722 Z0.5428
X-3.9792 Z0.551
X-4.0769 Z0.5579
X-4.1612 Z0.5634
X-4.2577 Z0.5689
X-4.3434 Z0.5733
X-4.44 Z0.5774
X-4.5322 Z0.5806
X-4.6472 Z0.5836
X-4.7512 Z0.5854
X-4.8717 Z0.5867
X-5.025 Z0.587
X-5.1565 Z0.5863
X-5.3207 Z0.5848
X-5.8738 Z0.5776
X-6.0764 Z0.5757
X-6.279 Z0.5746
X-6.5035 Z0.574
X-6.8221 Z0.5744
X-7.1617 Z0.5758
X-7.5285 Z0.5779
X-9.0454 Z0.5784
X-10.7137 Z0.5779
X-12.4426 Z0.578
X-13.0121 Z0.5769
X-13.4708 Z0.5763
X-13.7062 Z0.5768
X-13.9253 Z0.578
X-13.9377 Z0.5769
X-13.9496 Z0.5746
X-13.959 Z0.5718
X-13.9712 Z0.5668
X-14.0468 Z0.5299
X-14.1325 Z0.4878
X-14.2656 Z0.4228
X-14.3498 Z0.3827
X-14.4755 Z0.3249
X-14.5495 Z0.2906
X-14.595 Z0.269
X-14.6403 Z0.2467
X-14.669 Z0.2322
X-14.7004 Z0.2158
X-14.743 Z0.1926
X-14.7759 Z0.1738
X-14.7889 Z0.166
G3 X-14.7953 Z0.1643 I-0.0064 K0.0107
G1 X-14.7977
X-14.8 Y-0.7517
X-14.8024 Y-0.7514 Z0.1644
X-14.8047 Y-0.7509 Z0.1645
X-14.8069 Y-0.7502 Z0.1646
X-14.8091 Y-0.7494 Z0.1648
X-14.8113 Y-0.7485 Z0.1649
X-14.8134 Y-0.7475 Z0.1651
X-14.8154 Y-0.7463 Z0.1654
X-14.8174 Y-0.745 Z0.1656
X-14.8192 Y-0.7436 Z0.1659
X-14.821 Y-0.742 Z0.1662
X-14.8227 Y-0.7404 Z0.1665
X-14.8242 Y-0.7387 Z0.1668
X-14.8257 Y-0.7368 Z0.1672
X-14.827 Y-0.7349 Z0.1676
X-14.8282 Y-0.7329 Z0.1679
X-14.8293 Y-0.7309 Z0.1683
X-14.8302 Y-0.7288 Z0.1687
X-14.831 Y-0.7266 Z0.1692
X-14.8317 Y-0.7244 Z0.1696
X-14.8322 Y-0.7221 Z0.17
X-14.8325 Y-0.7198 Z0.1705
X-14.8328 Y-0.7175 Z0.1709
Y-0.7152 Z0.1714
Y-0.6639 Z0.1812
Y-0.6616 Z0.1817
X-14.8325 Y-0.6593 Z0.1821
X-14.8322 Y-0.657 Z0.1825
X-14.8317 Y-0.6548 Z0.183
X-14.831 Y-0.6525 Z0.1834
X-14.8302 Y-0.6504 Z0.1838
X-14.8293 Y-0.6482 Z0.1842
X-14.8282 Y-0.6462 Z0.1846
X-14.827 Y-0.6442 Z0.185
X-14.8257 Y-0.6423 Z0.1854
X-14.8242 Y-0.6404 Z0.1857
X-14.8227 Y-0.6387 Z0.1861
X-14.821 Y-0.6371 Z0.1864
X-14.8192 Y-0.6355 Z0.1867
X-14.8174 Y-0.6341 Z0.1869
X-14.8154 Y-0.6328 Z0.1872
X-14.8134 Y-0.6316 Z0.1874
X-14.8113 Y-0.6306 Z0.1876
X-14.8091 Y-0.6297 Z0.1878
X-14.8069 Y-0.6289 Z0.188
X-14.8047 Y-0.6282 Z0.1881
X-14.8024 Y-0.6277 Z0.1882
X-14.8 Y-0.6274
X-14.7977 Y-0.6272 Z0.1883
X-14.7953 Y-0.6271
X-14.527
G2 X-14.5205 Z0.1901 I0. K0.0125
G1 X-14.5064 Z0.1988
X-14.4682 Z0.2212
X-14.4318 Z0.2418
X-14.3868 Z0.2669
X-14.1375 Z0.4038
X-14.0555 Z0.4484
X-13.9741 Z0.4922
X-13.963 Z0.4975
X-13.9538 Z0.5009
X-13.9444 Z0.5034
X-13.9348 Z0.505
X-13.9246 Z0.5057
X-13.722 Z0.5046
X-13.4372 Z0.5041
X-13.012 Z0.5047
X-12.459 Z0.5058
X-10.4472 Z0.5057
X-9.2425 Z0.5061
X-7.5395 Z0.5058
X-7.2383 Z0.5042
X-6.8605 Z0.5026
X-6.5453 Z0.5021
X-6.2058 Z0.5029
X-5.9101 Z0.5049
X-5.3187 Z0.5118
X-5.1271 Z0.5133
X-4.9737 Z0.5137
X-4.8259 Z0.5131
X-4.678 Z0.5112
X-4.5631 Z0.5088
X-4.4467 Z0.5054
X-4.3509 Z0.5018
X-4.2772 Z0.4986
X-4.1634 Z0.4928
X-4.0681 Z0.4873
X-3.9728 Z0.4813
X-3.8882 Z0.4754
X-3.8133 Z0.4701
X-3.7063 Z0.4619
X-3.61 Z0.454
X-3.4817 Z0.443
X-3.3347 Z0.4298
X-3.1728 Z0.4146
X-3.0041 Z0.3982
X-2.7927 Z0.377
X-2.1276 Z0.3093
X-1.8436 Z0.2811
X-1.5744 Z0.2553
X-1.5585 Z0.2537
X-1.4098 Z0.2268
X-1.2438 Z0.1981
X-1.0871 Z0.1724
X-0.9206 Z0.1467
X-0.7433 Z0.1207
X-0.534 Z0.0914
X-0.519 Z0.0896
X-0.2607 Z0.0883
X-0.2459 Z0.0875
X-0.2353 Z0.0861
G2 X-0.2281 Z0.0872 I0.0017 K0.0124
G3 X-0.2226 Z0.0885 I0.0055 K-0.0112
G1 X-0.2202 Y-0.627
X-0.2179 Y-0.6268 Z0.0884
X-0.2155 Y-0.6264
X-0.2132 Y-0.6259 Z0.0883
X-0.211 Y-0.6253 Z0.0882
X-0.2087 Y-0.6245 Z0.0881
X-0.2066 Y-0.6235 Z0.088
X-0.2045 Y-0.6225 Z0.0879
X-0.2025 Y-0.6213 Z0.0877
X-0.2005 Y-0.62 Z0.0875
X-0.1986 Y-0.6186 Z0.0873
X-0.1969 Y-0.617 Z0.0871
X-0.1952 Y-0.6154 Z0.0869
X-0.1937 Y-0.6136 Z0.0866
X-0.1922 Y-0.6118 Z0.0864
X-0.1909 Y-0.6098 Z0.0861
X-0.1897 Y-0.6078 Z0.0859
X-0.1886 Y-0.6057 Z0.0856
X-0.1877 Y-0.6036 Z0.0853
X-0.1869 Y-0.6014 Z0.085
X-0.1862 Y-0.5992 Z0.0847
X-0.1857 Y-0.5969 Z0.0844
X-0.1853 Y-0.5946 Z0.0841
X-0.1851 Y-0.5923 Z0.0837
Y-0.5899 Z0.0834
Y-0.5393 Z0.0765
Y-0.537 Z0.0762
X-0.1853 Y-0.5346 Z0.0759
X-0.1857 Y-0.5323 Z0.0756
X-0.1862 Y-0.5301 Z0.0753
X-0.1869 Y-0.5278 Z0.075
X-0.1877 Y-0.5256 Z0.0747
X-0.1886 Y-0.5235 Z0.0744
X-0.1897 Y-0.5214 Z0.0741
X-0.1909 Y-0.5194 Z0.0738
X-0.1922 Y-0.5175 Z0.0736
X-0.1937 Y-0.5156 Z0.0733
X-0.1952 Y-0.5139 Z0.0731
X-0.1969 Y-0.5122 Z0.0729
X-0.1986 Y-0.5107 Z0.0726
X-0.2005 Y-0.5092 Z0.0725
X-0.2025 Y-0.5079 Z0.0723
X-0.2045 Y-0.5067 Z0.0721
X-0.2066 Y-0.5057 Z0.072
X-0.2087 Y-0.5048 Z0.0718
X-0.211 Y-0.504 Z0.0717
X-0.2132 Y-0.5033 Z0.0716
X-0.2155 Y-0.5028
X-0.2179 Y-0.5024 Z0.0715
X-0.2202 Y-0.5022
X-0.2226 Y-0.5021
X-0.2296
G2 X-0.2351 Z0.0702 I0. K-0.0125
G3 X-0.2418 Z0.069 I-0.0055 K0.0112
G1 X-0.2525 Z0.07
X-0.2687 Z0.0702
X-0.5239 Z0.069
X-0.7447 Z0.0934
X-0.944 Z0.1166
X-1.1112 Z0.1371
X-1.2569 Z0.1564
X-1.4301 Z0.1811
X-1.564 Z0.2014
X-1.8127 Z0.2204
X-2.0566 Z0.2399
X-2.4346 Z0.2718
X-2.8793 Z0.31
X-3.0413 Z0.3234
X-3.2001 Z0.3364
X-3.3396 Z0.3473
X-3.4241 Z0.3537
X-3.5397 Z0.3623
X-3.6893 Z0.3727
X-3.7954 Z0.3795
X-3.88 Z0.3847
X-3.9753 Z0.3902
X-4.0803 Z0.3957
X-4.1969 Z0.4012
X-4.2699 Z0.4042
X-4.3552 Z0.4073
X-4.4581 Z0.4105
X-4.5682 Z0.4132
X-4.7147 Z0.4156
X-4.8735 Z0.4169
X-5.0706 Z0.4171
X-5.1298
X-5.1793 Z0.4197
X-5.2853 Z0.426
X-5.4599 Z0.4365
X-5.5853 Z0.4433
X-5.7267 Z0.4503
X-6.3505 Z0.4794
X-6.5103 Z0.4864
X-6.6608 Z0.4923
X-6.8622 Z0.4992
X-7.0593 Z0.5046
X-7.2236 Z0.5079
X-7.3769 Z0.5099
X-7.5467 Z0.5106
X-7.7219 Z0.5101
X-7.919 Z0.5081
X-8.0832 Z0.5052
X-8.2298 Z0.5016
X-8.3773 Z0.4966
X-8.5557 Z0.4891
X-8.7178 Z0.4813
X-8.8228 Z0.4758
X-8.8753 Z0.473
X-8.96 Z0.4682
X-9.0662 Z0.4615
X-9.1504 Z0.4556
X-9.2481 Z0.4477
X-9.3201 Z0.4411
X-9.4095 Z0.4321
X-9.5448 Z0.4177
X-9.5814 Z0.4144
X-9.6113 Z0.4121
X-9.6203 Z0.4107
X-12.1276
X-12.7902 Z0.4101
X-13.3876 Z0.4091
X-13.6614 Z0.4095
X-13.9242 Z0.4105
X-13.9349 Z0.4097
X-13.9462 Z0.4074
X-13.9538 Z0.4051
X-13.9629 Z0.4014
X-13.9737 Z0.3956
X-14.033 Z0.3592
X-14.0939 Z0.321
X-14.1301 Z0.2978
X-14.1741 Z0.269
X-14.209 Z0.2459
X-14.2431 Z0.2226
G3 X-14.2822 Z0.2432 I-0.0141 K0.0206 F#104
G0 Z1.075
X-13.9949 Y-0.3772
Z0.3806
G1 Z0.2892 F#103
G2 X-13.9592 Z0.2666 I0.025 K0.
G1 X-13.9528 Z0.2696 F#100
X-13.9426 Z0.2732
X-13.933 Z0.2752
X-13.9276 Z0.2758
X-13.9221 Z0.276
X-13.714 Z0.2751
X-13.3797 Z0.2749
X-12.6678 Z0.2757
X-11.1564 Z0.2758
X-9.6471 Z0.2761
X-9.6412 Z0.2802
X-9.6251 Z0.2912
X-9.6003 Z0.3062
X-9.5747 Z0.3201
X-9.5453 Z0.3343
X-9.5032 Z0.3523
X-9.467 Z0.3658
X-9.4283 Z0.3787
X-9.4098 Z0.3844
X-9.3727 Z0.395
X-9.325 Z0.4072
X-9.2842 Z0.4166
X-9.2538 Z0.423
X-9.2206 Z0.4295
X-9.1631 Z0.4397
X-9.1271 Z0.4454
X-9.0762 Z0.4529
X-9.0145 Z0.461
X-8.9634 Z0.4672
X-8.8909 Z0.4752
X-8.8212 Z0.4823
X-8.6755 Z0.496
X-8.5362 Z0.5078
X-8.4395 Z0.5151
X-8.3656 Z0.5201
X-8.3013 Z0.524
X-8.2274 Z0.528
X-8.1534 Z0.5314
X-8.1006 Z0.5335
X-8.0046 Z0.5367
X-7.9067 Z0.5392
X-7.8246 Z0.5407
X-7.6823 Z0.5425
X-7.5563 Z0.543
X-7.4304 Z0.5423
X-7.3209 Z0.5406
X-7.2231 Z0.5383
X-7.1531 Z0.5361
X-7.0786 Z0.5333
X-7.0046 Z0.5302
X-6.9306 Z0.5266
X-6.8781 Z0.5239
X-6.8138 Z0.5204
X-6.7399 Z0.516
X-6.6607 Z0.5109
X-6.567 Z0.5044
X-6.4252 Z0.4935
X-6.3236 Z0.4849
X-6.2392 Z0.4773
X-6.1334 Z0.4674
X-5.938 Z0.4484
X-5.7992 Z0.4344
X-5.6824 Z0.4215
X-5.6243 Z0.4144
X-5.5828 Z0.409
X-5.5414 Z0.4033
X-5.5106 Z0.3988
X-5.4788 Z0.3939
X-5.4206 Z0.3841
X-5.3626 Z0.3731
X-5.3217 Z0.3646
X-5.2955 Z0.3587
X-5.2483 Z0.3473
X-5.2072 Z0.3363
X-5.1815 Z0.3288
X-5.1482 Z0.3182
X-5.1255 Z0.3104
X-5.0953 Z0.2993
X-5.0645 Z0.2866
X-5.054 Z0.2808
X-4.9199
X-4.7282 Z0.2798
X-4.5639 Z0.2778
X-4.4106 Z0.2749
X-4.2641 Z0.2711
X-4.1722 Z0.2683
X-4.0809 Z0.2651
X-3.974 Z0.2611
X-3.8218 Z0.2547
X-3.7157 Z0.2497
X-3.631 Z0.2455
X-3.5267 Z0.2402
X-3.3204 Z0.2288
X-3.1037 Z0.2159
X-2.9651 Z0.2072
X-2.7179 Z0.1915
X-2.5124 Z0.1783
X-2.3627 Z0.1688
X-2.0124 Z0.148
X-1.7585 Z0.134
X-1.5695 Z0.1246
X-1.4629 Z0.1127
X-1.3761 Z0.1035
X-1.2603 Z0.0922
X-1.115 Z0.0794
X-0.9364 Z0.0653
X-0.6742 Z0.046
X-0.527 Z0.0361
X-0.308 Z0.0375
X-0.2535 Z0.0377
G2 X-0.2285 Z0.0627 I-0.0001 K0.025 F#104
G0 Z1.075
X-5.2773 Y-0.2523
Z0.3566
G1 Z0.2727 F#103
G3 X-5.3126 Z0.25 I-0.025 K0.
G1 X-5.3431 Z0.2638 F#100
X-5.3716 Z0.2756
X-5.3916 Z0.2834
X-5.4117 Z0.2908
X-5.4511 Z0.3043
X-5.4932 Z0.3172
X-5.5242 Z0.3261
X-5.5657 Z0.3369
X-5.6126 Z0.3481
X-5.6493 Z0.3561
X-5.685 Z0.3636
X-5.7429 Z0.3748
X-5.7851 Z0.3826
X-5.8697 Z0.3972
X-5.9757 Z0.4143
X-6.0901 Z0.4322
X-6.191 Z0.4473
X-6.2707 Z0.4587
X-6.3557 Z0.4701
X-6.4292 Z0.4794
X-6.5091 Z0.4889
X-6.5998 Z0.4987
X-6.6735 Z0.5061
X-6.7162 Z0.5101
X-6.79 Z0.5167
X-6.8637 Z0.5228
X-6.9268 Z0.5276
X-7.0232 Z0.5342
X-7.1196 Z0.5398
X-7.2054 Z0.5439
X-7.2852 Z0.5469
X-7.3718 Z0.5493
X-7.454 Z0.5507
X-7.5361 Z0.5513
X-7.6415 Z0.5512
X-7.7497 Z0.5498
X-7.8205 Z0.5484
X-7.8853 Z0.5467
X-7.9551 Z0.5444
X-8.0092 Z0.5424
X-8.0821 Z0.5391
X-8.1818 Z0.5335
X-8.2659 Z0.5275
X-8.3279 Z0.5223
X-8.3899 Z0.5166
X-8.4422 Z0.5113
X-8.5029 Z0.5047
X-8.5945 Z0.4939
X-8.6912 Z0.4813
X-8.7433 Z0.4742
X-8.8059 Z0.4653
X-8.8579 Z0.4576
X-8.9304 Z0.4458
X-8.9753 Z0.4379
X-9.0164 Z0.4301
X-9.0563 Z0.4219
X-9.0987 Z0.4125
X-9.1232 Z0.4066
X-9.1626 Z0.3964
X-9.1998 Z0.3858
X-9.233 Z0.3754
X-9.2695 Z0.3629
X-9.3066 Z0.3488
X-9.3377 Z0.3356
X-9.3673 Z0.322
X-9.3825 Z0.3144
X-9.409 Z0.3002
X-9.4303 Z0.2878
X-9.4573 Z0.2705
X-9.4695 Z0.2619
G3 X-9.4767 Z0.2596 I-0.0072 K0.0102
G1 X-9.4791 Y-0.2522
X-9.4814 Y-0.252
X-9.4837 Y-0.2516
X-9.486 Y-0.2511 Z0.2595
X-9.4883 Y-0.2504
X-9.4905 Y-0.2496 Z0.2594
X-9.4927 Y-0.2487 Z0.2593
X-9.4948 Y-0.2476 Z0.2592
X-9.4968 Y-0.2465 Z0.2591
X-9.4988 Y-0.2451 Z0.259
X-9.5006 Y-0.2437 Z0.2589
X-9.5024 Y-0.2421 Z0.2587
X-9.5041 Y-0.2405 Z0.2586
X-9.5056 Y-0.2387 Z0.2584
X-9.5071 Y-0.2369 Z0.2583
X-9.5084 Y-0.2349 Z0.2581
X-9.5096 Y-0.2329 Z0.2579
X-9.5106 Y-0.2308 Z0.2577
X-9.5116 Y-0.2287 Z0.2575
X-9.5124 Y-0.2265 Z0.2573
X-9.513 Y-0.2242 Z0.2571
X-9.5136 Y-0.2219 Z0.2569
X-9.5139 Y-0.2196 Z0.2567
X-9.5141 Y-0.2173 Z0.2565
X-9.5142 Y-0.2149 Z0.2563
Y-0.1647 Z0.2519
X-9.5141 Y-0.1623 Z0.2516
X-9.5139 Y-0.16 Z0.2514
X-9.5136 Y-0.1577 Z0.2512
X-9.513 Y-0.1554 Z0.251
X-9.5124 Y-0.1531 Z0.2508
X-9.5116 Y-0.1509 Z0.2506
X-9.5106 Y-0.1488 Z0.2504
X-9.5096 Y-0.1467 Z0.2503
X-9.5084 Y-0.1447 Z0.2501
X-9.5071 Y-0.1427 Z0.2499
X-9.5056 Y-0.1409 Z0.2497
X-9.5041 Y-0.1391 Z0.2496
X-9.5024 Y-0.1375 Z0.2494
X-9.5006 Y-0.1359 Z0.2493
X-9.4988 Y-0.1345 Z0.2492
X-9.4968 Y-0.1331 Z0.249
X-9.4948 Y-0.1319 Z0.2489
X-9.4927 Y-0.1309 Z0.2488
X-9.4905 Y-0.13
X-9.4883 Y-0.1292 Z0.2487
X-9.486 Y-0.1285 Z0.2486
X-9.4837 Y-0.128
X-9.4814 Y-0.1276
X-9.4791 Y-0.1274 Z0.2485
X-9.4767 Y-0.1273
X-9.2941
G2 X-9.2872 Z0.2506 I0. K0.0125
G1 X-9.2803 Z0.2551
X-9.2534 Z0.2713
X-9.2355 Z0.2813
X-9.2032 Z0.2978
X-9.1659 Z0.3149
X-9.1282 Z0.3303
X-9.0899 Z0.3443
X-9.0579 Z0.355
X-9.0235 Z0.3655
X-8.9864 Z0.3762
X-8.947 Z0.3866
X-8.897 Z0.3988
X-8.8478 Z0.4099
X-8.7974 Z0.4205
X-8.7386 Z0.4323
X-8.6669 Z0.4457
X-8.6009 Z0.4576
X-8.5274 Z0.4698
X-8.4861 Z0.4762
X-8.4352 Z0.4837
X-8.3805 Z0.4912
X-8.3065 Z0.5002
X-8.266 Z0.5046
X-8.234 Z0.5078
X-8.1934 Z0.5116
X-8.141 Z0.516
X-8.0886 Z0.5198
X-8.0276 Z0.5237
X-7.9688 Z0.5268
X-7.8964 Z0.53
X-7.8063 Z0.5331
X-7.7251 Z0.5351
X-7.6815 Z0.5358
X-7.6048 Z0.5365
G2 X-7.5801 Z0.5615 I-0.0002 K0.025 F#104
G0 Z1.075
X-0.2196 Y-1.1212
Z0.1769
G1 Z0.1184 F#103
G19 G2 Y-1.1444 Z0.0934 J-0.025 K0.
G1 Y-1.2091 Z0.0888 F#100
Y-1.2582 Z0.0843
Y-1.3013 Z0.0794
Y-1.3077 Z0.0786
G2 Y-1.3357 Z0.1034 J-0.003 K0.0248 F#104
G0 Z1.075
X-0.3446 Y-1.5994
Z0.1511
G1 Z0.0949 F#103
G3 Y-1.5664 Z0.0712 J0.025 K0.
G1 Y-1.5625 Z0.0725 F#100
Y-1.5531 Z0.0751
Y-1.5342 Z0.0789
Y-1.5104 Z0.0831
Y-1.477 Z0.0881
Y-1.4387 Z0.0928
Y-1.3943 Z0.0973
Y-1.3344 Z0.1022
Y-1.2913 Z0.1049
Y-1.2709 Z0.106
Y-1.2146 Z0.1086
Y-1.1431 Z0.1106
Y-1.0858 Z0.1114
Y-1.0297
Y-0.9653 Z0.1106
Y-0.9024 Z0.1088
Y-0.8549 Z0.1069
Y-0.8238 Z0.1053
Y-0.7821 Z0.1028
Y-0.7404 Z0.0998
Y-0.7094 Z0.0972
Y-0.6677 Z0.0932
Y-0.6262 Z0.0886
Y-0.5847 Z0.0833
Y-0.546 Z0.0775
Y-0.4998 Z0.0694
Y-0.4623 Z0.0616
Y-0.4424 Z0.0569
Y-0.4217 Z0.0514
Y-0.4011 Z0.0454
Y-0.391 Z0.0421
Y-0.3709 Z0.035
Y-0.361 Z0.031
Y-0.3588 Z0.0301
G3 Y-0.3486 Z0.0305 J0.0046 K0.0116
G1 Z0.0306
G2 Y-0.3431 Z0.0318 J0.0055 K-0.0112
G17 G3 X-0.3821 Y-0.3056 I-0.0375 J0.
G1 X-0.4321
G3 X-0.4696 Y-0.3431 I0. J-0.0375
G1 Y-0.3454
G19 G3 Y-0.3509 Z0.0306 J0. K-0.0125
G2 Y-0.361 Z0.0301 J-0.0055 K0.0112
G1 Y-0.3708 Z0.034
Y-0.3809 Z0.0377
Y-0.4012 Z0.0445
Y-0.4243 Z0.0512
Y-0.4581 Z0.0598
Y-0.499 Z0.0686
Y-0.5454 Z0.0771
Y-0.5867 Z0.0837
Y-0.6281 Z0.0895
Y-0.6707 Z0.0948
Y-0.7027 Z0.0984
Y-0.7443 Z0.1027
Y-0.7764 Z0.1057
Y-0.8288 Z0.1099
Y-0.8705 Z0.113
Y-0.9026 Z0.1151
Y-0.9444 Z0.1175
Y-0.9958 Z0.1203
Y-1.0691 Z0.1233
Y-1.154 Z0.1258
Y-1.2379 Z0.1274
Y-1.2983 Z0.1279
Y-1.3763 Z0.1281
Y-1.4685 Z0.1273
Y-1.5478 Z0.1258
Y-1.5575 Z0.1251
Y-1.5671 Z0.1236
Y-1.5765 Z0.1213
Y-1.5858 Z0.1182
Y-1.5951 Z0.1142
G2 Y-1.63 Z0.1372 J-0.0099 K0.023 F#104
G0 Z1.075
X-0.5946 Y-1.6629
Z0.2013
G1 Z0.1499 F#103
G3 Y-1.6232 Z0.1297 J0.025 K0.
G1 Y-1.6146 Z0.136 F#100
Y-1.6062 Z0.1411
Y-1.5974 Z0.1455
Y-1.5884 Z0.1492
Y-1.5791 Z0.1522
Y-1.5696 Z0.1544
Y-1.5601 Z0.1559
Y-1.5498 Z0.1566
Y-1.4403 Z0.1559
Y-1.3472 Z0.1543
Y-1.2596 Z0.1519
Y-1.1734 Z0.1486
Y-1.0984 Z0.1449
Y-1.0459 Z0.1419
Y-0.9731 Z0.1371
Y-0.9314 Z0.134
Y-0.8897 Z0.1305
Y-0.8481 Z0.1267
Y-0.8065 Z0.1225
Y-0.7649 Z0.118
Y-0.7233 Z0.1131
Y-0.6819 Z0.1077
Y-0.6511 Z0.1034
Y-0.6097 Z0.097
Y-0.578 Z0.0916
Y-0.5463 Z0.0858
Y-0.5095 Z0.0783
Y-0.4729 Z0.0698
Y-0.4418 Z0.0617
Y-0.4212 Z0.0557
Y-0.4008 Z0.0491
Y-0.3839 Z0.043
Y-0.361 Z0.0337
G3 Y-0.3507 Z0.034 J0.0047 K0.0116
G2 Y-0.3452 Z0.0353 J0.0055 K-0.0112
G1 Y-0.3446
X-0.5947 Y-0.3423
X-0.5949 Y-0.3399
X-0.5953 Y-0.3376 Z0.0354
X-0.5958 Y-0.3353
X-0.5964 Y-0.3331
X-0.5972 Y-0.3308 Z0.0355
X-0.5982 Y-0.3287
X-0.5992 Y-0.3266 Z0.0356
X-0.6004 Y-0.3246 Z0.0357
X-0.6017 Y-0.3226 Z0.0358
X-0.6032 Y-0.3207
X-0.6047 Y-0.319 Z0.0359
X-0.6064 Y-0.3173 Z0.036
X-0.6082 Y-0.3158 Z0.0362
X-0.61 Y-0.3143 Z0.0363
X-0.612 Y-0.313 Z0.0364
X-0.614 Y-0.3118 Z0.0365
X-0.6161 Y-0.3107 Z0.0366
X-0.6182 Y-0.3098 Z0.0368
X-0.6205 Y-0.309 Z0.0369
X-0.6227 Y-0.3083 Z0.037
X-0.625 Y-0.3078 Z0.0372
X-0.6273 Y-0.3074 Z0.0373
X-0.6297 Y-0.3072 Z0.0375
X-0.632 Y-0.3071 Z0.0376
X-0.6822 Z0.0407
X-0.6845 Y-0.3072 Z0.0408
X-0.6869 Y-0.3074 Z0.041
X-0.6892 Y-0.3078 Z0.0411
X-0.6915 Y-0.3083 Z0.0413
X-0.6937 Y-0.309 Z0.0414
X-0.6959 Y-0.3098 Z0.0415
X-0.6981 Y-0.3107 Z0.0417
X-0.7002 Y-0.3118 Z0.0418
X-0.7022 Y-0.313 Z0.0419
X-0.7042 Y-0.3143 Z0.042
X-0.706 Y-0.3158 Z0.0422
X-0.7078 Y-0.3173 Z0.0423
X-0.7094 Y-0.319 Z0.0424
X-0.711 Y-0.3207 Z0.0425
X-0.7124 Y-0.3226 Z0.0426
X-0.7138 Y-0.3246
X-0.715 Y-0.3266 Z0.0427
X-0.716 Y-0.3287 Z0.0428
X-0.717 Y-0.3308
X-0.7178 Y-0.3331 Z0.0429
X-0.7184 Y-0.3353
X-0.7189 Y-0.3376 Z0.043
X-0.7193 Y-0.3399
X-0.7195 Y-0.3423
X-0.7196 Y-0.3446
G3 Y-0.3501 Z0.0417 J0. K-0.0125
G2 Y-0.361 Z0.0416 J-0.0055 K0.0112
G1 Y-0.3755 Z0.0484
Y-0.4001 Z0.0587
Y-0.4202 Z0.0661
Y-0.4405 Z0.0729
Y-0.461 Z0.0792
Y-0.4713 Z0.0822
Y-0.492 Z0.0879
Y-0.5128 Z0.0932
Y-0.5337 Z0.0982
Y-0.5546 Z0.1029
Y-0.5861 Z0.1095
Y-0.6177 Z0.1156
Y-0.6494 Z0.1212
Y-0.6907 Z0.1279
Y-0.7321 Z0.134
Y-0.7842 Z0.141
Y-0.8257 Z0.1461
Y-0.8673 Z0.1507
Y-0.9207 Z0.156
Y-0.9623 Z0.1598
Y-1.0158 Z0.1642
Y-1.0693 Z0.168
Y-1.1229 Z0.1714
Y-1.1818 Z0.1746
Y-1.2515 Z0.1777
Y-1.3275 Z0.1803
Y-1.4206 Z0.1824
Y-1.4972 Z0.1833
Y-1.552 Z0.1834
Y-1.5622 Z0.1825
Y-1.5718 Z0.1809
Y-1.5812 Z0.1785
Y-1.5904 Z0.1753
Y-1.5994 Z0.1714
Y-1.6081 Z0.1668
Y-1.6164 Z0.1615
Y-1.6243 Z0.1556
Y-1.6318 Z0.149
Y-1.6387 Z0.1418
Y-1.6451 Z0.134
Y-1.651 Z0.1255
G2 Y-1.6613 Z0.1201 J-0.0103 K0.0071
G1 Y-1.6886
X-0.7197 Y-1.6909
X-0.7199 Y-1.6933 Z0.12
X-0.7202 Y-1.6956 Z0.1199
X-0.7207 Y-1.6979 Z0.1197
X-0.7213 Y-1.7001 Z0.1195
X-0.7221 Y-1.7024 Z0.1192
X-0.7229 Y-1.7045 Z0.1189
X-0.7239 Y-1.7066 Z0.1185
X-0.7251 Y-1.7086 Z0.1181
X-0.7263 Y-1.7106 Z0.1177
X-0.7277 Y-1.7125 Z0.1172
X-0.7291 Y-1.7142 Z0.1166
X-0.7307 Y-1.7159 Z0.116
X-0.7323 Y-1.7174 Z0.1154
X-0.7341 Y-1.7189 Z0.1148
X-0.7359 Y-1.7202 Z0.1141
X-0.7378 Y-1.7214 Z0.1134
X-0.7398 Y-1.7225 Z0.1127
X-0.7418 Y-1.7234 Z0.1119
X-0.7439 Y-1.7242 Z0.1111
X-0.746 Y-1.7249 Z0.1104
X-0.7482 Y-1.7254 Z0.1096
X-0.7503 Y-1.7258 Z0.1087
X-0.7525 Y-1.726 Z0.1079
X-0.7547 Y-1.7261 Z0.1071
X-0.8094 Z0.0868
X-0.8116 Y-1.726 Z0.086
X-0.8138 Y-1.7258 Z0.0852
X-0.816 Y-1.7254 Z0.0844
X-0.8182 Y-1.7249 Z0.0836
X-0.8203 Y-1.7242 Z0.0828
X-0.8224 Y-1.7234 Z0.082
X-0.8244 Y-1.7225 Z0.0813
X-0.8264 Y-1.7214 Z0.0806
X-0.8283 Y-1.7202 Z0.0798
X-0.8301 Y-1.7189 Z0.0792
X-0.8318 Y-1.7174 Z0.0785
X-0.8335 Y-1.7159 Z0.0779
X-0.835 Y-1.7142 Z0.0773
X-0.8365 Y-1.7125 Z0.0768
X-0.8379 Y-1.7106 Z0.0763
X-0.8391 Y-1.7086 Z0.0758
X-0.8402 Y-1.7066 Z0.0754
X-0.8412 Y-1.7045 Z0.075
X-0.8421 Y-1.7024 Z0.0747
X-0.8429 Y-1.7001 Z0.0744
X-0.8435 Y-1.6979 Z0.0742
X-0.844 Y-1.6956 Z0.074
X-0.8443 Y-1.6933 Z0.0739
X-0.8445 Y-1.6909 Z0.0738
X-0.8446 Y-1.6886
G3 Y-1.6783 Z0.0792 J0. K0.0125
G1 Y-1.6713 Z0.0893
Y-1.6705 Z0.0986
Y-1.6695 Z0.1056
Y-1.6671 Z0.1167
Y-1.6639 Z0.1271
Y-1.6599 Z0.1369
Y-1.6553 Z0.1462
Y-1.6501 Z0.155
Y-1.6442 Z0.1632
Y-1.6377 Z0.1709
Y-1.6307 Z0.178
Y-1.6231 Z0.1846
Y-1.6152 Z0.1904
Y-1.6068 Z0.1956
Y-1.5981 Z0.2001
Y-1.589 Z0.2039
Y-1.5798 Z0.2069
Y-1.5703 Z0.2092
Y-1.5608 Z0.2107
Y-1.5505 Z0.2115
Y-1.4903 Z0.2112
Y-1.4081 Z0.21
Y-1.3205 Z0.2076
Y-1.2399 Z0.2043
Y-1.1767 Z0.2009
Y-1.1446 Z0.199
Y-1.091 Z0.1953
Y-1.0375 Z0.1911
Y-0.9841 Z0.1863
Y-0.9414 Z0.1821
Y-0.8987 Z0.1774
Y-0.8561 Z0.1723
Y-0.8135 Z0.1667
Y-0.771 Z0.1607
Y-0.7392 Z0.1557
Y-0.7086 Z0.1507
Y-0.6674 Z0.1433
Y-0.6358 Z0.1371
Y-0.6043 Z0.1305
Y-0.5729 Z0.1234
Y-0.5417 Z0.1156
Y-0.5209 Z0.1101
Y-0.5003 Z0.1043
Y-0.4798 Z0.0981
Y-0.4594 Z0.0914
Y-0.4392 Z0.0844
Y-0.4192 Z0.0768
Y-0.4031 Z0.0702
Y-0.3776 Z0.0586
Y-0.361 Z0.05
G3 Y-0.3552 Z0.0486 J0.0057 K0.0111
G1 Y-0.3547
X-0.8447 Y-0.3524
X-0.8449 Y-0.35
X-0.8452 Y-0.3477 Z0.0487
X-0.8458 Y-0.3454
X-0.8464 Y-0.3432
X-0.8472 Y-0.3409 Z0.0488
X-0.8481 Y-0.3388
X-0.8492 Y-0.3367 Z0.0489
X-0.8504 Y-0.3346 Z0.049
X-0.8517 Y-0.3327 Z0.0491
X-0.8532 Y-0.3308 Z0.0492
X-0.8547 Y-0.3291 Z0.0493
X-0.8564 Y-0.3274 Z0.0494
X-0.8581 Y-0.3258 Z0.0495
X-0.86 Y-0.3244 Z0.0496
X-0.8619 Y-0.3231 Z0.0498
X-0.864 Y-0.3219 Z0.0499
X-0.8661 Y-0.3208 Z0.05
X-0.8682 Y-0.3199 Z0.0502
X-0.8704 Y-0.3191 Z0.0503
X-0.8727 Y-0.3184 Z0.0505
X-0.875 Y-0.3179 Z0.0506
X-0.8773 Y-0.3175 Z0.0508
X-0.8796 Y-0.3173 Z0.051
X-0.882 Y-0.3172 Z0.0511
X-0.9322 Z0.0545
X-0.9345 Y-0.3173 Z0.0546
X-0.9368 Y-0.3175 Z0.0548
X-0.9392 Y-0.3179 Z0.0549
X-0.9415 Y-0.3184 Z0.0551
X-0.9437 Y-0.3191 Z0.0553
X-0.9459 Y-0.3199 Z0.0554
X-0.9481 Y-0.3208 Z0.0555
X-0.9502 Y-0.3219 Z0.0557
X-0.9522 Y-0.3231 Z0.0558
X-0.9541 Y-0.3244 Z0.056
X-0.956 Y-0.3258 Z0.0561
X-0.9578 Y-0.3274 Z0.0562
X-0.9594 Y-0.3291 Z0.0563
X-0.961 Y-0.3308 Z0.0564
X-0.9624 Y-0.3327 Z0.0565
X-0.9637 Y-0.3346 Z0.0566
X-0.9649 Y-0.3367 Z0.0567
X-0.966 Y-0.3388
X-0.9669 Y-0.3409 Z0.0568
X-0.9677 Y-0.3432 Z0.0569
X-0.9684 Y-0.3454
X-0.9689 Y-0.3477
X-0.9693 Y-0.35 Z0.057
X-0.9695 Y-0.3524
X-0.9696 Y-0.3547
G2 Y-0.361 Z0.0586 J0. K0.0125
G1 Y-0.3701 Z0.0639
Y-0.3795 Z0.069
Y-0.3968 Z0.0779
Y-0.418 Z0.0877
Y-0.4377 Z0.0961
Y-0.4576 Z0.1039
Y-0.4777 Z0.1113
Y-0.498 Z0.1182
Y-0.5184 Z0.1248
Y-0.5389 Z0.131
Y-0.5698 Z0.1397
Y-0.601 Z0.1478
Y-0.6323 Z0.1553
Y-0.6637 Z0.1623
Y-0.6952 Z0.1688
Y-0.7268 Z0.1749
Y-0.7563 Z0.1803
Y-0.788 Z0.1857
Y-0.8357 Z0.1931
Y-0.8729 Z0.1985
Y-0.9154 Z0.2041
Y-0.9581 Z0.2092
Y-1.0007 Z0.2138
Y-1.0434 Z0.2181
Y-1.0862 Z0.2219
Y-1.129 Z0.2253
Y-1.1718 Z0.2284
Y-1.2267 Z0.2319
Y-1.279 Z0.2346
Y-1.3326 Z0.2368
Y-1.3931 Z0.2388
Y-1.4856 Z0.2405
Y-1.5513 Z0.2409
Y-1.561 Z0.2401
Y-1.5705 Z0.2386
Y-1.58 Z0.2363
Y-1.5893 Z0.2332
Y-1.5983 Z0.2294
Y-1.607 Z0.2249
Y-1.6154 Z0.2197
Y-1.6234 Z0.2138
Y-1.6309 Z0.2073
Y-1.6379 Z0.2001
Y-1.6444 Z0.1924
Y-1.6503 Z0.1841
Y-1.6555 Z0.1753
Y-1.6602 Z0.166
Y-1.6641 Z0.1561
Y-1.6673 Z0.1456
Y-1.6697 Z0.1343
Y-1.6709 Z0.1252
Y-1.6715 Z0.1168
Y-1.6765 Z0.1089
Y-1.6824 Z0.101
Y-1.696 Z0.0848
Y-1.7052 Z0.0748
Y-1.7057 Z0.0743
G2 Y-1.7149 Z0.0703 J-0.0092 K0.0085
G1 Y-1.7405
Y-1.7429
X-0.9699 Y-1.7452
X-0.9702 Y-1.7475
X-0.9707 Y-1.7498
X-0.9714 Y-1.7521
X-0.9722 Y-1.7543
X-0.9731 Y-1.7565
X-0.9742 Y-1.7586
X-0.9754 Y-1.7606
X-0.9767 Y-1.7626
X-0.9782 Y-1.7644
X-0.9797 Y-1.7662
X-0.9814 Y-1.7678
X-0.9832 Y-1.7694
X-0.985 Y-1.7709 Z0.0704
X-0.987 Y-1.7722
X-0.989 Y-1.7734
X-0.9911 Y-1.7744
X-0.9933 Y-1.7754
X-0.9955 Y-1.7762
X-0.9977 Y-1.7768
X-1. Y-1.7773
X-1.0024 Y-1.7777
X-1.0047 Y-1.7779
X-1.0071 Y-1.778
X-1.0571 Z0.0706
X-1.0594 Y-1.7779
X-1.0618 Y-1.7777
X-1.0641 Y-1.7773
X-1.0664 Y-1.7768
X-1.0686 Y-1.7762
X-1.0709 Y-1.7754
X-1.073 Y-1.7744
X-1.0751 Y-1.7734
X-1.0772 Y-1.7722
X-1.0791 Y-1.7709
X-1.081 Y-1.7694
X-1.0827 Y-1.7678
X-1.0844 Y-1.7662
X-1.086 Y-1.7644
X-1.0874 Y-1.7626
X-1.0887 Y-1.7606
X-1.0899 Y-1.7586
X-1.091 Y-1.7565
X-1.0919 Y-1.7543
X-1.0927 Y-1.7521
X-1.0934 Y-1.7498 Z0.0707
X-1.0939 Y-1.7475
X-1.0943 Y-1.7452
X-1.0945 Y-1.7429
X-1.0946 Y-1.7405
G3 Y-1.7317 Z0.0743 J0. K0.0125
G1 Y-1.7168 Z0.0892
Y-1.7022 Z0.1045
Y-1.6885 Z0.1203
Y-1.6793 Z0.1327
Y-1.6717 Z0.1448
Y-1.671 Z0.156
Y-1.6692 Z0.1682
Y-1.6666 Z0.1791
Y-1.6632 Z0.1893
Y-1.6591 Z0.1989
Y-1.6543 Z0.2081
Y-1.6489 Z0.2168
Y-1.6429 Z0.2249
Y-1.6363 Z0.2325
Y-1.6291 Z0.2394
Y-1.6215 Z0.2458
Y-1.6134 Z0.2515
Y-1.6049 Z0.2565
Y-1.5961 Z0.2609
Y-1.5871 Z0.2645
Y-1.5778 Z0.2673
Y-1.5683 Z0.2694
Y-1.5587 Z0.2708
Y-1.5484 Z0.2714
Y-1.4663 Z0.2707
Y-1.3896 Z0.2689
Y-1.3355 Z0.267
Y-1.2927 Z0.265
Y-1.2509 Z0.2627
Y-1.2198 Z0.2608
Y-1.1674 Z0.257
Y-1.115 Z0.2527
Y-1.083 Z0.2496
Y-1.0296 Z0.244
Y-0.987 Z0.2391
Y-0.9444 Z0.2337
Y-0.9019 Z0.2278
Y-0.8489 Z0.2196
Y-0.8066 Z0.2124
Y-0.7591 Z0.2036
Y-0.7223 Z0.1961
Y-0.6909 Z0.1892
Y-0.6596 Z0.1818
Y-0.6284 Z0.1739
Y-0.5974 Z0.1655
Y-0.5665 Z0.1565
Y-0.5461 Z0.1501
Y-0.5257 Z0.1434
Y-0.5055 Z0.1363
Y-0.4855 Z0.1288
Y-0.4755 Z0.1249
Y-0.4557 Z0.1168
Y-0.4362 Z0.1082
Y-0.4072 Z0.0942
Y-0.3883 Z0.0841
Y-0.3791 Z0.0788
Y-0.37 Z0.0734
Y-0.361 Z0.0678
G3 Y-0.3543 Z0.0659 J0.0066 K0.0106
G1 Y-0.3541
Y-0.3517
X-1.0949 Y-0.3494
X-1.0952 Y-0.347
X-1.0957 Y-0.3447 Z0.066
X-1.0964 Y-0.3425
X-1.0972 Y-0.3403 Z0.0661
X-1.0981 Y-0.3381 Z0.0662
X-1.0992 Y-0.336
X-1.1004 Y-0.334 Z0.0663
X-1.1017 Y-0.332 Z0.0664
X-1.1031 Y-0.3302 Z0.0665
X-1.1047 Y-0.3284 Z0.0667
X-1.1064 Y-0.3267 Z0.0668
X-1.1081 Y-0.3252 Z0.0669
X-1.11 Y-0.3237 Z0.0671
X-1.1119 Y-0.3224 Z0.0672
X-1.1139 Y-0.3212 Z0.0674
X-1.116 Y-0.3201 Z0.0675
X-1.1182 Y-0.3192 Z0.0677
X-1.1204 Y-0.3184 Z0.0679
X-1.1226 Y-0.3177 Z0.0681
X-1.1249 Y-0.3172 Z0.0682
X-1.1273 Y-0.3169 Z0.0684
X-1.1296 Y-0.3166 Z0.0686
X-1.1319 Z0.0688
X-1.1822 Z0.0727
X-1.1845 Z0.0728
X-1.1868 Y-0.3169 Z0.073
X-1.1892 Y-0.3172 Z0.0732
X-1.1915 Y-0.3177 Z0.0734
X-1.1937 Y-0.3184 Z0.0736
X-1.1959 Y-0.3192 Z0.0737
X-1.1981 Y-0.3201 Z0.0739
X-1.2002 Y-0.3212 Z0.0741
X-1.2022 Y-0.3224 Z0.0742
X-1.2041 Y-0.3237 Z0.0744
X-1.206 Y-0.3252 Z0.0745
X-1.2078 Y-0.3267 Z0.0746
X-1.2094 Y-0.3284 Z0.0748
X-1.211 Y-0.3302 Z0.0749
X-1.2124 Y-0.332 Z0.075
X-1.2137 Y-0.334 Z0.0751
X-1.2149 Y-0.336 Z0.0752
X-1.216 Y-0.3381 Z0.0753
X-1.2169 Y-0.3403 Z0.0754
X-1.2177 Y-0.3425
X-1.2184 Y-0.3447 Z0.0755
X-1.2189 Y-0.347
X-1.2193 Y-0.3494
X-1.2195 Y-0.3517 Z0.0756
Y-0.3541
G2 Y-0.361 Z0.0776 J0. K0.0125
G1 Y-0.3822 Z0.0917
Y-0.3969 Z0.1006
Y-0.4155 Z0.1111
Y-0.4346 Z0.1211
Y-0.466 Z0.136
Y-0.4949 Z0.1485
Y-0.5229 Z0.1594
Y-0.5329 Z0.1632
Y-0.553 Z0.1705
Y-0.5733 Z0.1774
Y-0.5937 Z0.1839
Y-0.6142 Z0.1902
Y-0.6533 Z0.2015
Y-0.6938 Z0.212
Y-0.725 Z0.2196
Y-0.7564 Z0.2267
Y-0.7879 Z0.2333
Y-0.8194 Z0.2396
Y-0.8405 Z0.2436
Y-0.8881 Z0.2519
Y-0.9252 Z0.2578
Y-0.9676 Z0.2641
Y-1.0208 Z0.2713
Y-1.0623 Z0.2762
Y-1.1039 Z0.2807
Y-1.1455 Z0.2847
Y-1.1979 Z0.2891
Y-1.2503 Z0.2929
Y-1.2825 Z0.2949
Y-1.3253 Z0.2972
Y-1.3682 Z0.2991
Y-1.4226 Z0.3009
Y-1.4993 Z0.3023
Y-1.5486 Z0.3026
Y-1.5588 Z0.302
Y-1.5684 Z0.3007
Y-1.5779 Z0.2986
Y-1.5872 Z0.2957
Y-1.5963 Z0.2921
Y-1.6051 Z0.2878
Y-1.6136 Z0.2827
Y-1.6216 Z0.277
Y-1.6293 Z0.2706
Y-1.6364 Z0.2636
Y-1.643 Z0.2561
Y-1.649 Z0.2479
Y-1.6545 Z0.2393
Y-1.6592 Z0.2301
Y-1.6633 Z0.2205
Y-1.6667 Z0.2103
Y-1.6693 Z0.1994
Y-1.6712 Z0.1873
Y-1.6719 Z0.1745
Y-1.672 Z0.1734
Y-1.6761 Z0.1659
Y-1.6815 Z0.1575
Y-1.6877 Z0.1489
Y-1.7007 Z0.1328
Y-1.7152 Z0.1171
Y-1.744 Z0.0884
Y-1.7576 Z0.0753
G2 Y-1.7663 Z0.0719 J-0.0086 K0.009
G1 Y-1.7919
X-1.2196 Y-1.7942
X-1.2198 Y-1.7966
X-1.2202 Y-1.7989
X-1.2207 Y-1.8012
X-1.2214 Y-1.8034
X-1.2222 Y-1.8057
X-1.2231 Y-1.8078
X-1.2242 Y-1.8099
X-1.2254 Y-1.812
X-1.2267 Y-1.8139 Z0.072
X-1.2282 Y-1.8158
X-1.2297 Y-1.8175
X-1.2314 Y-1.8192
X-1.2331 Y-1.8208
X-1.235 Y-1.8222 Z0.0721
X-1.237 Y-1.8235
X-1.239 Y-1.8247
X-1.2411 Y-1.8258
X-1.2432 Y-1.8267 Z0.0722
X-1.2455 Y-1.8275
X-1.2477 Y-1.8282
X-1.25 Y-1.8287
X-1.2523 Y-1.8291 Z0.0723
X-1.2547 Y-1.8293
X-1.257 Y-1.8294
X-1.307 Z0.0729
X-1.3094 Y-1.8293 Z0.073
X-1.3117 Y-1.8291
X-1.3141 Y-1.8287
X-1.3164 Y-1.8282
X-1.3186 Y-1.8275 Z0.0731
X-1.3208 Y-1.8267
X-1.323 Y-1.8258
X-1.3251 Y-1.8247 Z0.0732
X-1.3271 Y-1.8235
X-1.3291 Y-1.8222
X-1.3309 Y-1.8208
X-1.3327 Y-1.8192
X-1.3344 Y-1.8175 Z0.0733
X-1.3359 Y-1.8158
X-1.3374 Y-1.8139
X-1.3387 Y-1.812
X-1.3399 Y-1.8099
X-1.341 Y-1.8078
X-1.3419 Y-1.8057 Z0.0734
X-1.3427 Y-1.8034
X-1.3434 Y-1.8012
X-1.3439 Y-1.7989
X-1.3442 Y-1.7966
X-1.3445 Y-1.7942
Y-1.7919
G3 Y-1.7832 Z0.0768 J0. K0.0125
G1 Y-1.7399 Z0.1182
Y-1.7145 Z0.1442
Y-1.7006 Z0.1601
Y-1.6879 Z0.1764
Y-1.6821 Z0.1849
Y-1.6766 Z0.1938
Y-1.672 Z0.203
Y-1.6716 Z0.2146
Y-1.6699 Z0.2283
Y-1.6674 Z0.2395
Y-1.6642 Z0.2499
Y-1.6602 Z0.2598
Y-1.6556 Z0.2691
Y-1.6503 Z0.2779
Y-1.6444 Z0.2861
Y-1.6379 Z0.2938
Y-1.6309 Z0.301
Y-1.6233 Z0.3075
Y-1.6153 Z0.3134
Y-1.6069 Z0.3186
Y-1.5982 Z0.3231
Y-1.5892 Z0.3268
Y-1.5799 Z0.3299
Y-1.5704 Z0.3321
Y-1.5609 Z0.3336
Y-1.5484 Z0.3344
Y-1.4799 Z0.3339
Y-1.4088 Z0.3321
Y-1.355 Z0.33
Y-1.3122 Z0.3278
Y-1.2693 Z0.3251
Y-1.2265 Z0.322
Y-1.1837 Z0.3184
Y-1.1421 Z0.3144
Y-1.1005 Z0.31
Y-1.0484 Z0.3037
Y-0.9857 Z0.2949
Y-0.9539 Z0.29
Y-0.9115 Z0.283
Y-0.8799 Z0.2773
Y-0.8388 Z0.2694
Y-0.8188 Z0.2653
Y-0.7989 Z0.261
Y-0.779 Z0.2565
Y-0.7592 Z0.2519
Y-0.7395 Z0.2471
Y-0.7104 Z0.2396
Y-0.6804 Z0.2314
Y-0.6517 Z0.223
Y-0.612 Z0.2105
Y-0.5701 Z0.196
Y-0.5312 Z0.181
Y-0.51 Z0.1722
Y-0.4903 Z0.1634
Y-0.4708 Z0.1543
Y-0.4515 Z0.1446
Y-0.4329 Z0.1348
Y-0.4052 Z0.1187
Y-0.3826 Z0.1041
Y-0.361 Z0.0886
G3 Y-0.3537 Z0.0863 J0.0073 K0.0102
G1 Y-0.3533
X-1.3446 Y-0.351
X-1.3448 Y-0.3486
X-1.3452 Y-0.3463
X-1.3457 Y-0.344 Z0.0864
X-1.3464 Y-0.3417 Z0.0865
X-1.3472 Y-0.3395
X-1.3481 Y-0.3374 Z0.0866
X-1.3492 Y-0.3353 Z0.0867
X-1.3503 Y-0.3332 Z0.0868
X-1.3517 Y-0.3313 Z0.087
X-1.3531 Y-0.3294 Z0.0871
X-1.3547 Y-0.3277 Z0.0872
X-1.3563 Y-0.326 Z0.0874
X-1.3581 Y-0.3244 Z0.0876
X-1.3599 Y-0.323 Z0.0877
X-1.3619 Y-0.3217 Z0.0879
X-1.3639 Y-0.3205 Z0.0881
X-1.366 Y-0.3194 Z0.0883
X-1.3681 Y-0.3185 Z0.0885
X-1.3703 Y-0.3177 Z0.0887
X-1.3726 Y-0.317 Z0.0889
X-1.3749 Y-0.3165 Z0.0892
X-1.3772 Y-0.3161 Z0.0894
X-1.3795 Y-0.3159 Z0.0896
X-1.3819 Y-0.3158 Z0.0898
X-1.4322 Z0.0946
X-1.4345 Y-0.3159 Z0.0948
X-1.4369 Y-0.3161 Z0.0951
X-1.4392 Y-0.3165 Z0.0953
X-1.4415 Y-0.317 Z0.0955
X-1.4437 Y-0.3177 Z0.0957
X-1.4459 Y-0.3185 Z0.0959
X-1.4481 Y-0.3194 Z0.0961
X-1.4502 Y-0.3205 Z0.0963
X-1.4522 Y-0.3217 Z0.0965
X-1.4541 Y-0.323 Z0.0967
X-1.456 Y-0.3244 Z0.0969
X-1.4578 Y-0.326 Z0.0971
X-1.4594 Y-0.3277 Z0.0972
X-1.461 Y-0.3294 Z0.0974
X-1.4624 Y-0.3313 Z0.0975
X-1.4637 Y-0.3332 Z0.0976
X-1.4649 Y-0.3353 Z0.0977
X-1.466 Y-0.3374 Z0.0978
X-1.4669 Y-0.3395 Z0.0979
X-1.4677 Y-0.3417 Z0.098
X-1.4684 Y-0.344 Z0.0981
X-1.4689 Y-0.3463
X-1.4692 Y-0.3486
X-1.4695 Y-0.351 Z0.0982
Y-0.3533
G2 Y-0.361 Z0.1008 J0. K0.0125
G1 Y-0.3816 Z0.1167
Y-0.4023 Z0.1311
Y-0.4246 Z0.1453
Y-0.4474 Z0.1587
Y-0.4663 Z0.169
Y-0.4854 Z0.1789
Y-0.5048 Z0.1883
Y-0.5367 Z0.2027
Y-0.5739 Z0.218
Y-0.6168 Z0.2339
Y-0.6442 Z0.2433
Y-0.6635 Z0.2496
Y-0.6829 Z0.2557
Y-0.7024 Z0.2615
Y-0.7231 Z0.2674
Y-0.7438 Z0.2731
Y-0.7635 Z0.2782
Y-0.7844 Z0.2835
Y-0.8042 Z0.2882
Y-0.8251 Z0.2931
Y-0.866 Z0.3018
Y-0.8975 Z0.3082
Y-0.9397 Z0.3161
Y-0.982 Z0.3233
Y-1.0245 Z0.3299
Y-1.067 Z0.3358
Y-1.1191 Z0.3424
Y-1.1724 Z0.3482
Y-1.2152 Z0.3522
Y-1.258 Z0.3558
Y-1.3008 Z0.3588
Y-1.3436 Z0.3613
Y-1.3865 Z0.3633
Y-1.4243 Z0.3647
Y-1.49 Z0.3662
Y-1.5502 Z0.3666
Y-1.5602 Z0.3659
Y-1.5697 Z0.3644
Y-1.5792 Z0.3622
Y-1.5885 Z0.3592
Y-1.5975 Z0.3555
Y-1.6063 Z0.351
Y-1.6147 Z0.3458
Y-1.6227 Z0.34
Y-1.6303 Z0.3335
Y-1.6373 Z0.3264
Y-1.6438 Z0.3187
Y-1.6498 Z0.3105
Y-1.6551 Z0.3017
Y-1.6598 Z0.2925
Y-1.6638 Z0.2827
Y-1.6671 Z0.2723
Y-1.6696 Z0.2611
Y-1.6713 Z0.2478
Y-1.6717 Z0.2374
Y-1.6718 Z0.233
Y-1.6747 Z0.2263
Y-1.679 Z0.2182
Y-1.6846 Z0.2094
Y-1.6967 Z0.1923
Y-1.71 Z0.176
Y-1.726 Z0.1583
Y-1.7466 Z0.1373
Y-1.8003 Z0.0864
Y-1.8083 Z0.0789
G2 Y-1.8169 Z0.0755 J-0.0085 K0.0091
G1 Y-1.8428 Z0.0754
G17 G2 X-1.507 Y-1.8803 I-0.0375 J0.
G1 X-1.557
G2 X-1.5945 Y-1.8428 I0. J0.0375
G19 G3 Y-1.8341 Z0.0789 J0. K0.0125
G1 Y-1.8331 Z0.0798
Y-1.8266 Z0.086
Y-1.7724 Z0.1363
Y-1.7425 Z0.1653
Y-1.7232 Z0.1858
Y-1.7075 Z0.2039
Y-1.6947 Z0.2205
Y-1.6832 Z0.2376
Y-1.6782 Z0.2463
Y-1.674 Z0.2548
Y-1.6717 Z0.2618
Y-1.6714 Z0.2715
Y-1.6704 Z0.2844
Y-1.6694 Z0.2912
Y-1.6668 Z0.3023
Y-1.6635 Z0.3126
Y-1.6594 Z0.3223
Y-1.6546 Z0.3314
Y-1.6492 Z0.3401
Y-1.6431 Z0.3482
Y-1.6365 Z0.3558
Y-1.6293 Z0.3627
Y-1.6216 Z0.369
Y-1.6135 Z0.3747
Y-1.605 Z0.3797
Y-1.5962 Z0.384
Y-1.5871 Z0.3875
Y-1.5778 Z0.3904
Y-1.5683 Z0.3924
Y-1.5587 Z0.3938
Y-1.5485 Z0.3943
Y-1.4773 Z0.3937
Y-1.4117 Z0.3918
Y-1.3485 Z0.389
Y-1.2843 Z0.3848
Y-1.2223 Z0.3798
Y-1.1593 Z0.3734
Y-1.1178 Z0.3684
Y-1.0912 Z0.365
Y-1.036 Z0.3572
Y-0.983 Z0.3485
Y-0.963 Z0.345
Y-0.9125 Z0.3354
Y-0.8704 Z0.3267
Y-0.8182 Z0.3146
Y-0.7787 Z0.3046
Y-0.7373 Z0.2931
Y-0.6947 Z0.2803
Y-0.6564 Z0.2677
Y-0.63 Z0.2583
Y-0.5982 Z0.2463
Y-0.5783 Z0.2383
Y-0.5536 Z0.2279
Y-0.5204 Z0.2127
Y-0.5108 Z0.208
Y-0.4895 Z0.1973
Y-0.4644 Z0.1836
Y-0.4551 Z0.1783
Y-0.4364 Z0.1671
Y-0.4153 Z0.1535
Y-0.3957 Z0.1398
Y-0.3754 Z0.1244
Y-0.361 Z0.1124
G3 Y-0.353 Z0.1096 J0.008 K0.0096
G1 Y-0.3528
X-1.5946 Y-0.3504
X-1.5948 Y-0.3481
X-1.5952 Y-0.3457
X-1.5957 Y-0.3434
X-1.5964 Y-0.3412
X-1.5971 Y-0.339 Z0.1097
X-1.5981 Y-0.3368
X-1.5992 Y-0.3347 Z0.1098
X-1.6003 Y-0.3327
X-1.6017 Y-0.3307 Z0.1099
X-1.6031 Y-0.3289
X-1.6047 Y-0.3271 Z0.11
X-1.6063 Y-0.3254 Z0.1101
X-1.6081 Y-0.3239 Z0.1102
X-1.61 Y-0.3224 Z0.1103
X-1.6119 Y-0.3211
X-1.6139 Y-0.3199 Z0.1104
X-1.616 Y-0.3188 Z0.1105
X-1.6182 Y-0.3179 Z0.1106
X-1.6204 Y-0.3171 Z0.1107
X-1.6227 Y-0.3164 Z0.1108
X-1.625 Y-0.3159 Z0.1109
X-1.6273 Y-0.3156 Z0.111
X-1.6296 Y-0.3153 Z0.1111
X-1.632 Z0.1112
X-1.682 Z0.1135
X-1.6844 Z0.1136
X-1.6867 Y-0.3156 Z0.1137
X-1.6891 Y-0.3159 Z0.1138
X-1.6914 Y-0.3164 Z0.1139
X-1.6936 Y-0.3171 Z0.114
X-1.6958 Y-0.3179 Z0.1141
X-1.698 Y-0.3188 Z0.1142
X-1.7001 Y-0.3199 Z0.1143
X-1.7021 Y-0.3211 Z0.1144
X-1.7041 Y-0.3224 Z0.1145
X-1.7059 Y-0.3239 Z0.1146
X-1.7077 Y-0.3254
X-1.7094 Y-0.3271 Z0.1147
X-1.7109 Y-0.3289 Z0.1148
X-1.7124 Y-0.3307 Z0.1149
X-1.7137 Y-0.3327
X-1.7149 Y-0.3347 Z0.115
X-1.7159 Y-0.3368
X-1.7169 Y-0.339 Z0.1151
X-1.7177 Y-0.3412
X-1.7183 Y-0.3434
X-1.7188 Y-0.3457
X-1.7192 Y-0.3481 Z0.1152
X-1.7194 Y-0.3504
X-1.7195 Y-0.3528
G2 Y-0.361 Z0.1182 J0. K0.0125
G1 Y-0.3689 Z0.1251
Y-0.3874 Z0.1402
Y-0.4016 Z0.1509
Y-0.4189 Z0.1633
Y-0.4429 Z0.179
Y-0.4585 Z0.1887
Y-0.4809 Z0.2016
Y-0.4987 Z0.2113
Y-0.5195 Z0.222
Y-0.5447 Z0.2342
Y-0.5739 Z0.2474
Y-0.6125 Z0.2634
Y-0.6425 Z0.2749
Y-0.682 Z0.2889
Y-0.7115 Z0.2986
Y-0.7515 Z0.3109
Y-0.771 Z0.3165
Y-0.802 Z0.3249
Y-0.8332 Z0.3329
Y-0.8635 Z0.3402
Y-0.8833 Z0.3447
Y-0.9252 Z0.3537
Y-0.9673 Z0.3619
Y-0.999 Z0.3676
Y-1.0392 Z0.3744
Y-1.0816 Z0.3807
Y-1.1135 Z0.3851
Y-1.1561 Z0.3905
Y-1.1881 Z0.3941
Y-1.2404 Z0.3992
Y-1.2832 Z0.4029
Y-1.3153 Z0.4052
Y-1.357 Z0.4078
Y-1.4107 Z0.4103
Y-1.4431 Z0.4114
Y-1.5026 Z0.4127
Y-1.5518 Z0.413
Y-1.5616 Z0.4122
Y-1.5711 Z0.4107
Y-1.5806 Z0.4085
Y-1.5899 Z0.4055
Y-1.5989 Z0.4018
Y-1.6077 Z0.3973
Y-1.6161 Z0.3922
Y-1.6241 Z0.3864
Y-1.6317 Z0.3799
Y-1.6388 Z0.3728
Y-1.6453 Z0.3651
Y-1.6512 Z0.3569
Y-1.6565 Z0.3481
Y-1.6612 Z0.3387
Y-1.6651 Z0.3288
Y-1.6683 Z0.3183
Y-1.6707 Z0.3068
Y-1.6718 Z0.2974
Y-1.6722 Z0.2867
Y-1.6725 Z0.2815
Y-1.6745 Z0.2748
Y-1.6786 Z0.266
Y-1.6838 Z0.2567
Y-1.6949 Z0.2401
Y-1.7076 Z0.2235
Y-1.7213 Z0.2073
Y-1.7359 Z0.1915
Y-1.7585 Z0.1688
Y-1.797 Z0.1333
Y-1.8432 Z0.0917
Y-1.8573 Z0.0788
Y-1.8581 Z0.0781
G2 Y-1.8665 Z0.0748 J-0.0085 K0.0092
G1 Y-1.8895 Z0.0749
G17 G2 X-1.757 Y-1.927 I-0.0375 J0.
G1 X-1.807
G2 X-1.8445 Y-1.8895 I0. J0.0375
G19 G3 Y-1.8811 Z0.0781 J0. K0.0125
G1 Y-1.8574 Z0.0994
Y-1.7928 Z0.156
Y-1.762 Z0.1841
Y-1.7368 Z0.2093
Y-1.7191 Z0.2287
Y-1.7066 Z0.2438
Y-1.6936 Z0.2612
Y-1.685 Z0.2744
Y-1.6788 Z0.2853
Y-1.6749 Z0.2944
Y-1.6731 Z0.301
Y-1.6721 Z0.3178
Y-1.6712 Z0.3252
Y-1.6688 Z0.3366
Y-1.6657 Z0.347
Y-1.6618 Z0.3569
Y-1.6573 Z0.3662
Y-1.652 Z0.375
Y-1.6461 Z0.3833
Y-1.6396 Z0.391
Y-1.6326 Z0.3981
Y-1.6251 Z0.4046
Y-1.6171 Z0.4105
Y-1.6087 Z0.4157
Y-1.6 Z0.4202
Y-1.591 Z0.4239
Y-1.5817 Z0.427
Y-1.5723 Z0.4293
Y-1.5627 Z0.4308
Y-1.5524 Z0.4316
Y-1.5031 Z0.4314
Y-1.4374 Z0.4298
Y-1.3945 Z0.4281
Y-1.3543 Z0.426
Y-1.3088 Z0.423
Y-1.266 Z0.4196
Y-1.2232 Z0.4156
Y-1.1912 Z0.4122
Y-1.1486 Z0.4071
Y-1.1061 Z0.4014
Y-1.0753 Z0.3968
Y-1.034 Z0.3903
Y-1.0034 Z0.385
Y-0.9739 Z0.3794
Y-0.934 Z0.3714
Y-0.8931 Z0.3625
Y-0.8733 Z0.3578
Y-0.8442 Z0.3507
Y-0.8037 Z0.34
Y-0.7841 Z0.3345
Y-0.7544 Z0.3257
Y-0.7181 Z0.3142
Y-0.686 Z0.3033
Y-0.6559 Z0.2923
Y-0.6254 Z0.2806
Y-0.598 Z0.2691
Y-0.5729 Z0.2581
Y-0.5512 Z0.248
Y-0.532 Z0.2385
Y-0.5031 Z0.2234
Y-0.4783 Z0.2094
Y-0.4586 Z0.1975
Y-0.4348 Z0.182
Y-0.4181 Z0.1705
Y-0.3971 Z0.1548
Y-0.3767 Z0.1382
Y-0.361 Z0.1244
G3 Y-0.3527 Z0.1213 J0.0082 K0.0094
G1 Y-0.3525
X-1.8446 Y-0.3502
X-1.8448 Y-0.3478
X-1.8452 Y-0.3455
X-1.8457 Y-0.3432
X-1.8463 Y-0.3409 Z0.1214
X-1.8471 Y-0.3387
X-1.8481 Y-0.3366 Z0.1215
X-1.8491 Y-0.3345
X-1.8503 Y-0.3324 Z0.1216
X-1.8517 Y-0.3305
X-1.8531 Y-0.3286 Z0.1217
X-1.8546 Y-0.3269 Z0.1218
X-1.8563 Y-0.3252 Z0.1219
X-1.8581 Y-0.3236 Z0.122
X-1.8599 Y-0.3222
X-1.8619 Y-0.3209 Z0.1221
X-1.8639 Y-0.3197 Z0.1222
X-1.866 Y-0.3186 Z0.1223
X-1.8682 Y-0.3177 Z0.1225
X-1.8704 Y-0.3169 Z0.1226
X-1.8726 Y-0.3162 Z0.1227
X-1.8749 Y-0.3157 Z0.1228
X-1.8773 Y-0.3153 Z0.1229
X-1.8796 Y-0.3151 Z0.123
X-1.882 Y-0.315 Z0.1231
X-1.932 Z0.1256
X-1.9344 Y-0.3151 Z0.1257
X-1.9367 Y-0.3153 Z0.1258
X-1.9391 Y-0.3157 Z0.1259
X-1.9413 Y-0.3162 Z0.126
X-1.9436 Y-0.3169 Z0.1262
X-1.9458 Y-0.3177 Z0.1263
X-1.948 Y-0.3186 Z0.1264
X-1.9501 Y-0.3197 Z0.1265
X-1.9521 Y-0.3209 Z0.1266
X-1.954 Y-0.3222 Z0.1267
X-1.9559 Y-0.3236 Z0.1268
X-1.9577 Y-0.3252 Z0.1269
X-1.9593 Y-0.3269
X-1.9609 Y-0.3286 Z0.127
X-1.9623 Y-0.3305 Z0.1271
X-1.9637 Y-0.3324
X-1.9649 Y-0.3345 Z0.1272
X-1.9659 Y-0.3366 Z0.1273
X-1.9669 Y-0.3387
X-1.9677 Y-0.3409
X-1.9683 Y-0.3432 Z0.1274
X-1.9688 Y-0.3455
X-1.9692 Y-0.3478
X-1.9694 Y-0.3502
X-1.9695 Y-0.3525
G2 Y-0.361 Z0.1307 J0. K0.0125
G1 Y-0.3765 Z0.1449
Y-0.3966 Z0.1618
Y-0.413 Z0.1745
Y-0.4258 Z0.1841
Y-0.4433 Z0.1963
Y-0.4623 Z0.2088
Y-0.4794 Z0.2195
Y-0.4876 Z0.2244
Y-0.5061 Z0.2351
Y-0.5334 Z0.2498
Y-0.5514 Z0.259
Y-0.5794 Z0.2725
Y-0.5979 Z0.2809
Y-0.6265 Z0.2932
Y-0.6453 Z0.3009
Y-0.6642 Z0.3083
Y-0.7045 Z0.3231
Y-0.7237 Z0.3298
Y-0.7441 Z0.3365
Y-0.7891 Z0.3504
Y-0.8138 Z0.3575
Y-0.8449 Z0.3659
Y-0.8767 Z0.3741
Y-0.9168 Z0.3836
Y-0.9471 Z0.3903
Y-0.9986 Z0.4006
Y-1.0397 Z0.4081
Y-1.081 Z0.4149
Y-1.1235 Z0.4212
Y-1.166 Z0.4269
Y-1.198 Z0.4307
Y-1.2289 Z0.4341
Y-1.2716 Z0.4382
Y-1.3144 Z0.4417
Y-1.3572 Z0.4446
Y-1.4001 Z0.4469
Y-1.4432 Z0.4486
Y-1.5034 Z0.45
Y-1.5527 Z0.4502
Y-1.5624 Z0.4495
Y-1.572 Z0.448
Y-1.5814 Z0.4457
Y-1.5907 Z0.4427
Y-1.5998 Z0.439
Y-1.6085 Z0.4346
Y-1.6169 Z0.4294
Y-1.6249 Z0.4236
Y-1.6325 Z0.4171
Y-1.6396 Z0.41
Y-1.6461 Z0.4023
Y-1.6534 Z0.392
Y-1.6597 Z0.3809
Y-1.664 Z0.3713
Y-1.6675 Z0.3612
Y-1.6703 Z0.3504
Y-1.6722 Z0.3384
Y-1.6734 Z0.3208
Y-1.675 Z0.3142
Y-1.6784 Z0.3058
Y-1.6856 Z0.2922
Y-1.6942 Z0.2791
Y-1.7119 Z0.2557
Y-1.7256 Z0.2398
Y-1.7401 Z0.2241
Y-1.7626 Z0.2018
Y-1.7941 Z0.173
Y-1.8567 Z0.1193
Y-1.8722 Z0.106
Y-1.9044 Z0.0776
Y-1.9047 Z0.0773
G2 Y-1.913 Z0.0742 J-0.0083 K0.0094
G1 Y-1.9356
G17 G2 X-2.007 Y-1.9731 I-0.0375 J0.
G1 X-2.057
G2 X-2.0945 Y-1.9356 I0. J0.0375
G19 G3 Y-1.9273 Z0.0773 J0. K0.0125
G1 Y-1.9212 Z0.0827
Y-1.8959 Z0.1048
Y-1.8417 Z0.1501
Y-1.7937 Z0.191
Y-1.7699 Z0.2126
Y-1.747 Z0.2348
Y-1.7276 Z0.2554
Y-1.7094 Z0.277
Y-1.7 Z0.2892
Y-1.6883 Z0.3064
Y-1.6832 Z0.3151
Y-1.6788 Z0.3239
Y-1.6753 Z0.3328
Y-1.6735 Z0.3404
Y-1.6724 Z0.3562
Y-1.6711 Z0.3651
Y-1.6686 Z0.3764
Y-1.6653 Z0.3867
Y-1.6612 Z0.3965
Y-1.6564 Z0.4057
Y-1.651 Z0.4144
Y-1.6449 Z0.4226
Y-1.6383 Z0.4301
Y-1.6311 Z0.4371
Y-1.6234 Z0.4434
Y-1.6153 Z0.4491
Y-1.6068 Z0.4541
Y-1.598 Z0.4584
Y-1.5889 Z0.462
Y-1.5796 Z0.4649
Y-1.5701 Z0.467
Y-1.5605 Z0.4683
Y-1.5495 Z0.4689
Y-1.5276 Z0.4688
Y-1.4729 Z0.468
Y-1.4292 Z0.4666
Y-1.3916 Z0.4649
Y-1.3434 Z0.462
Y-1.3006 Z0.4588
Y-1.2579 Z0.455
Y-1.2152 Z0.4505
Y-1.1843 Z0.4469
Y-1.1524 Z0.4427
Y-1.1205 Z0.4382
Y-1.0887 Z0.4333
Y-1.0569 Z0.428
Y-1.0145 Z0.4203
Y-0.9748 Z0.4124
Y-0.9444 Z0.4058
Y-0.913 Z0.3986
Y-0.8844 Z0.3916
Y-0.8517 Z0.3831
Y-0.8207 Z0.3744
Y-0.7899 Z0.3653
Y-0.7592 Z0.3556
Y-0.7287 Z0.3453
Y-0.7085 Z0.3382
Y-0.6784 Z0.3269
Y-0.6585 Z0.3191
Y-0.6386 Z0.3109
Y-0.619 Z0.3024
Y-0.5897 Z0.2891
Y-0.5704 Z0.2798
Y-0.5513 Z0.2702
Y-0.5324 Z0.2601
Y-0.5137 Z0.2497
Y-0.4952 Z0.239
Y-0.477 Z0.2277
Y-0.459 Z0.216
Y-0.4502 Z0.21
Y-0.4328 Z0.1977
Y-0.4083 Z0.1791
Y-0.3917 Z0.1654
Y-0.3769 Z0.1524
Y-0.361 Z0.1374
G3 Y-0.3524 Z0.134 J0.0086 K0.0091
G1 Y-0.3522
X-2.0946 Y-0.3499
X-2.0948 Y-0.3475
X-2.0951 Y-0.3452
X-2.0957 Y-0.3429 Z0.1341
X-2.0963 Y-0.3406
X-2.0971 Y-0.3384 Z0.1342
X-2.098 Y-0.3363
X-2.0991 Y-0.3342 Z0.1343
X-2.1003 Y-0.3321
X-2.1016 Y-0.3302 Z0.1344
X-2.1031 Y-0.3283 Z0.1345
X-2.1046 Y-0.3266 Z0.1346
X-2.1063 Y-0.3249 Z0.1347
X-2.1081 Y-0.3233 Z0.1348
X-2.1099 Y-0.3219 Z0.1349
X-2.1119 Y-0.3206 Z0.135
X-2.1139 Y-0.3194 Z0.1351
X-2.116 Y-0.3183 Z0.1352
X-2.1181 Y-0.3174 Z0.1353
X-2.1204 Y-0.3166 Z0.1354
X-2.1226 Y-0.3159 Z0.1355
X-2.1249 Y-0.3154 Z0.1357
X-2.1272 Y-0.315 Z0.1358
X-2.1296 Y-0.3148 Z0.1359
X-2.1319 Y-0.3147 Z0.1361
X-2.182 Z0.1388
X-2.1844 Y-0.3148 Z0.1389
X-2.1867 Y-0.315 Z0.139
X-2.189 Y-0.3154 Z0.1392
X-2.1913 Y-0.3159 Z0.1393
X-2.1936 Y-0.3166 Z0.1394
X-2.1958 Y-0.3174 Z0.1395
X-2.198 Y-0.3183 Z0.1397
X-2.2001 Y-0.3194 Z0.1398
X-2.2021 Y-0.3206 Z0.1399
X-2.204 Y-0.3219 Z0.14
X-2.2059 Y-0.3233 Z0.1401
X-2.2077 Y-0.3249 Z0.1402
X-2.2093 Y-0.3266 Z0.1403
X-2.2109 Y-0.3283 Z0.1404
X-2.2123 Y-0.3302
X-2.2136 Y-0.3321 Z0.1405
X-2.2148 Y-0.3342 Z0.1406
X-2.2159 Y-0.3363
X-2.2168 Y-0.3384 Z0.1407
X-2.2176 Y-0.3406
X-2.2183 Y-0.3429 Z0.1408
X-2.2188 Y-0.3452
X-2.2192 Y-0.3475
X-2.2194 Y-0.3499
X-2.2195 Y-0.3522
G2 Y-0.361 Z0.1444 J0. K0.0125
G1 Y-0.3767 Z0.1597
Y-0.3913 Z0.1729
Y-0.4102 Z0.189
Y-0.4274 Z0.2026
Y-0.4403 Z0.2122
Y-0.4576 Z0.2246
Y-0.477 Z0.2377
Y-0.4933 Z0.2481
Y-0.5116 Z0.2592
Y-0.5208 Z0.2646
Y-0.5395 Z0.2752
Y-0.5583 Z0.2853
Y-0.5774 Z0.295
Y-0.5869 Z0.2998
Y-0.6063 Z0.3091
Y-0.6257 Z0.318
Y-0.6552 Z0.3308
Y-0.685 Z0.3429
Y-0.705 Z0.3506
Y-0.7352 Z0.3617
Y-0.7656 Z0.3722
Y-0.7962 Z0.382
Y-0.827 Z0.3914
Y-0.8465 Z0.3971
Y-0.8869 Z0.408
Y-0.916 Z0.4153
Y-0.9556 Z0.4247
Y-0.986 Z0.4312
Y-1.0165 Z0.4375
Y-1.0459 Z0.4431
Y-1.0776 Z0.4487
Y-1.1178 Z0.4552
Y-1.1588 Z0.4612
Y-1.2007 Z0.4666
Y-1.2486 Z0.472
Y-1.286 Z0.4756
Y-1.3288 Z0.4792
Y-1.377 Z0.4824
Y-1.4252 Z0.4848
Y-1.4686 Z0.4863
Y-1.5289 Z0.4873
Y-1.5508 Z0.4874
Y-1.561 Z0.4867
Y-1.5706 Z0.4853
Y-1.5801 Z0.4832
Y-1.5894 Z0.4803
Y-1.5985 Z0.4767
Y-1.6073 Z0.4724
Y-1.6157 Z0.4673
Y-1.6238 Z0.4616
Y-1.6314 Z0.4552
Y-1.6386 Z0.4483
Y-1.6452 Z0.4407
Y-1.6512 Z0.4325
Y-1.6566 Z0.4238
Y-1.6613 Z0.4146
Y-1.6653 Z0.4049
Y-1.6686 Z0.3945
Y-1.6711 Z0.3834
Y-1.6722 Z0.3765
Y-1.6733 Z0.3611
Y-1.6746 Z0.354
Y-1.677 Z0.3465
Y-1.6811 Z0.3373
Y-1.686 Z0.3282
Y-1.6944 Z0.3151
Y-1.7033 Z0.3025
Y-1.7149 Z0.2878
Y-1.7296 Z0.2706
Y-1.7433 Z0.2559
Y-1.7653 Z0.2341
Y-1.788 Z0.2132
Y-1.8204 Z0.1852
Y-1.9006 Z0.1191
Y-1.9391 Z0.0864
Y-1.9498 Z0.0771
Y-1.9499 Z0.077
G2 Y-1.9581 Z0.0739 J-0.0082 K0.0094
G1 Y-1.9802 Z0.0738
G17 G2 X-2.257 Y-2.0177 I-0.0375 J0.
G1 X-2.307
G2 X-2.3445 Y-1.9802 I0. J0.0375
G19 G3 Y-1.9719 Z0.077 J0. K0.0125
G1 Y-1.9674 Z0.0809
Y-1.9437 Z0.1012
Y-1.9169 Z0.1235
Y-1.8398 Z0.1859
Y-1.7988 Z0.2204
Y-1.7688 Z0.2477
Y-1.746 Z0.2701
Y-1.7323 Z0.2848
Y-1.7183 Z0.301
Y-1.7052 Z0.3175
Y-1.6932 Z0.3343
Y-1.6876 Z0.3431
Y-1.6827 Z0.3519
Y-1.6787 Z0.3605
Y-1.6756 Z0.3689
Y-1.6737 Z0.3767
Y-1.6718 Z0.3966
Y-1.6707 Z0.4033
Y-1.6681 Z0.4143
Y-1.6647 Z0.4245
Y-1.6606 Z0.4342
Y-1.6558 Z0.4433
Y-1.6503 Z0.452
Y-1.6442 Z0.46
Y-1.6375 Z0.4676
Y-1.6303 Z0.4745
Y-1.6226 Z0.4807
Y-1.6145 Z0.4864
Y-1.606 Z0.4913
Y-1.5971 Z0.4956
Y-1.588 Z0.4991
Y-1.5787 Z0.5019
Y-1.5692 Z0.5039
Y-1.5596 Z0.5052
Y-1.5493 Z0.5058
Y-1.522 Z0.5056
Y-1.4727 Z0.5048
Y-1.4239 Z0.5031
Y-1.3811 Z0.5009
Y-1.3382 Z0.4981
Y-1.2955 Z0.4946
Y-1.2432 Z0.4893
Y-1.2005 Z0.4843
Y-1.1591 Z0.4788
Y-1.1071 Z0.4708
Y-1.0765 Z0.4656
Y-1.0448 Z0.4598
Y-1.0132 Z0.4536
Y-0.9839 Z0.4473
Y-0.9536 Z0.4405
Y-0.9223 Z0.4329
Y-0.8922 Z0.4251
Y-0.8622 Z0.4169
Y-0.8221 Z0.4051
Y-0.7914 Z0.3954
Y-0.761 Z0.3851
Y-0.7307 Z0.3742
Y-0.7006 Z0.3628
Y-0.6709 Z0.3506
Y-0.6463 Z0.34
Y-0.6219 Z0.3289
Y-0.6026 Z0.3197
Y-0.5834 Z0.3102
Y-0.5645 Z0.3002
Y-0.5457 Z0.2899
Y-0.5271 Z0.2793
Y-0.5111 Z0.2697
Y-0.4907 Z0.2568
Y-0.4729 Z0.245
Y-0.4555 Z0.2327
Y-0.4397 Z0.2211
Y-0.4223 Z0.2075
Y-0.4067 Z0.1946
Y-0.3916 Z0.1812
Y-0.3759 Z0.1665
Y-0.361 Z0.1515
G3 Y-0.3521 Z0.1478 J0.0088 K0.0088
G1 Y-0.352
Y-0.3497
X-2.3448 Y-0.3473 Z0.1479
X-2.3451 Y-0.345
X-2.3456 Y-0.3427
X-2.3463 Y-0.3404 Z0.148
X-2.3471 Y-0.3382
X-2.348 Y-0.3361 Z0.1481
X-2.3491 Y-0.334
X-2.3503 Y-0.3319 Z0.1482
X-2.3516 Y-0.33 Z0.1483
X-2.353 Y-0.3281
X-2.3546 Y-0.3264 Z0.1484
X-2.3563 Y-0.3247 Z0.1485
X-2.358 Y-0.3231 Z0.1486
X-2.3599 Y-0.3217 Z0.1487
X-2.3618 Y-0.3204 Z0.1489
X-2.3639 Y-0.3192 Z0.149
X-2.366 Y-0.3181 Z0.1491
X-2.3681 Y-0.3172 Z0.1492
X-2.3703 Y-0.3164 Z0.1493
X-2.3726 Y-0.3157 Z0.1495
X-2.3749 Y-0.3152 Z0.1496
X-2.3772 Y-0.3148 Z0.1497
X-2.3795 Y-0.3146 Z0.1499
X-2.3819 Y-0.3145 Z0.15
X-2.432 Z0.1529
X-2.4344 Y-0.3146 Z0.1531
X-2.4367 Y-0.3148 Z0.1532
X-2.439 Y-0.3152 Z0.1533
X-2.4413 Y-0.3157 Z0.1535
X-2.4436 Y-0.3164 Z0.1536
X-2.4458 Y-0.3172 Z0.1537
X-2.448 Y-0.3181 Z0.1539
X-2.45 Y-0.3192 Z0.154
X-2.4521 Y-0.3204 Z0.1541
X-2.454 Y-0.3217 Z0.1542
X-2.4559 Y-0.3231 Z0.1543
X-2.4576 Y-0.3247 Z0.1544
X-2.4593 Y-0.3264 Z0.1545
X-2.4609 Y-0.3281 Z0.1546
X-2.4623 Y-0.33 Z0.1547
X-2.4636 Y-0.3319 Z0.1548
X-2.4648 Y-0.334
X-2.4659 Y-0.3361 Z0.1549
X-2.4668 Y-0.3382 Z0.155
X-2.4676 Y-0.3404
X-2.4683 Y-0.3427
X-2.4688 Y-0.345 Z0.1551
X-2.4692 Y-0.3473
X-2.4694 Y-0.3497
Y-0.352
G2 Y-0.361 Z0.1589 J0. K0.0125
G1 Y-0.3801 Z0.1784
Y-0.3903 Z0.1883
Y-0.4071 Z0.2035
Y-0.4215 Z0.2158
Y-0.438 Z0.2292
Y-0.456 Z0.2429
Y-0.478 Z0.2587
Y-0.498 Z0.2721
Y-0.516 Z0.2837
Y-0.5343 Z0.2948
Y-0.5435 Z0.3002
Y-0.5715 Z0.3159
Y-0.5904 Z0.3259
Y-0.6095 Z0.3356
Y-0.6385 Z0.3495
Y-0.658 Z0.3584
Y-0.6776 Z0.3669
Y-0.7074 Z0.3792
Y-0.7273 Z0.3871
Y-0.7474 Z0.3946
Y-0.7675 Z0.4019
Y-0.8081 Z0.4157
Y-0.8388 Z0.4254
Y-0.8789 Z0.4372
Y-0.9099 Z0.4457
Y-0.9411 Z0.4537
Y-0.9714 Z0.461
Y-1.0027 Z0.468
Y-1.0342 Z0.4746
Y-1.0658 Z0.4807
Y-1.0975 Z0.4864
Y-1.1282 Z0.4915
Y-1.16 Z0.4964
Y-1.2025 Z0.5023
Y-1.2451 Z0.5074
Y-1.2931 Z0.5123
Y-1.3306 Z0.5156
Y-1.3787 Z0.519
Y-1.4162 Z0.521
Y-1.4593 Z0.5227
Y-1.5138 Z0.5239
Y-1.5522 Z0.524
Y-1.5624 Z0.5232
Y-1.572 Z0.5217
Y-1.5814 Z0.5194
Y-1.5907 Z0.5163
Y-1.5997 Z0.5126
Y-1.6085 Z0.5081
Y-1.6169 Z0.5029
Y-1.6248 Z0.4971
Y-1.6324 Z0.4906
Y-1.6394 Z0.4835
Y-1.6459 Z0.4758
Y-1.6518 Z0.4676
Y-1.6571 Z0.4588
Y-1.6617 Z0.4494
Y-1.6656 Z0.4396
Y-1.6687 Z0.4291
Y-1.6711 Z0.4178
Y-1.6724 Z0.4061
Y-1.6733 Z0.3958
Y-1.6752 Z0.3877
Y-1.6784 Z0.3788
Y-1.6836 Z0.3677
Y-1.6908 Z0.3554
Y-1.6964 Z0.3467
Y-1.7089 Z0.3297
Y-1.7222 Z0.3133
Y-1.7363 Z0.2972
Y-1.7584 Z0.2743
Y-1.7729 Z0.2603
Y-1.7967 Z0.2387
Y-1.8293 Z0.2109
Y-1.8878 Z0.1639
Y-1.9365 Z0.125
Y-1.9597 Z0.106
Y-1.9836 Z0.0858
Y-1.9935 Z0.0772
G2 Y-2.0017 Z0.0741 J-0.0082 K0.0094
G1 Y-2.0228
X-2.4695 Y-2.0252
X-2.4697 Y-2.0275
X-2.4701 Y-2.0298
X-2.4706 Y-2.0321
X-2.4713 Y-2.0344
X-2.4721 Y-2.0366
X-2.473 Y-2.0388
X-2.4741 Y-2.0409
X-2.4753 Y-2.0429
X-2.4766 Y-2.0449
X-2.4781 Y-2.0467
X-2.4796 Y-2.0485
X-2.4813 Y-2.0501
X-2.483 Y-2.0517
X-2.4849 Y-2.0531
X-2.4869 Y-2.0545
X-2.4889 Y-2.0557
X-2.491 Y-2.0567
X-2.4931 Y-2.0577
X-2.4954 Y-2.0585
X-2.4976 Y-2.0591 Z0.0742
X-2.4999 Y-2.0596
X-2.5022 Y-2.06
X-2.5046 Y-2.0602
X-2.5069 Y-2.0603
X-2.5569 Z0.0743
X-2.5593 Y-2.0602
X-2.5616 Y-2.06
X-2.564 Y-2.0596
X-2.5663 Y-2.0591
X-2.5685 Y-2.0585
X-2.5707 Y-2.0577
X-2.5729 Y-2.0567
X-2.575 Y-2.0557
X-2.577 Y-2.0545
X-2.579 Y-2.0531
X-2.5808 Y-2.0517
X-2.5826 Y-2.0501
X-2.5843 Y-2.0485
X-2.5858 Y-2.0467
X-2.5873 Y-2.0449
X-2.5886 Y-2.0429
X-2.5898 Y-2.0409
X-2.5909 Y-2.0388
X-2.5918 Y-2.0366
X-2.5926 Y-2.0344
X-2.5933 Y-2.0321
X-2.5938 Y-2.0298
X-2.5941 Y-2.0275
X-2.5944 Y-2.0252
Y-2.0228
G3 Y-2.0147 Z0.0774 J0. K0.0125
G1 Y-1.9987 Z0.0911
Y-1.9719 Z0.1134
Y-1.9401 Z0.139
Y-1.9147 Z0.1589
Y-1.8482 Z0.2114
Y-1.8152 Z0.2386
Y-1.7849 Z0.2653
Y-1.7624 Z0.2866
Y-1.7418 Z0.3078
Y-1.7213 Z0.3309
Y-1.7086 Z0.3467
Y-1.6962 Z0.364
Y-1.6904 Z0.3729
Y-1.6854 Z0.3816
Y-1.6807 Z0.3909
Y-1.6769 Z0.4001
Y-1.6742 Z0.4091
Y-1.6727 Z0.4173
Y-1.6716 Z0.4305
Y-1.6706 Z0.4376
Y-1.6681 Z0.4488
Y-1.6649 Z0.4591
Y-1.6609 Z0.4689
Y-1.6562 Z0.4782
Y-1.6508 Z0.4869
Y-1.6449 Z0.4951
Y-1.6383 Z0.5027
Y-1.6312 Z0.5097
Y-1.6236 Z0.5161
Y-1.6155 Z0.5219
Y-1.6071 Z0.527
Y-1.5983 Z0.5313
Y-1.5893 Z0.535
Y-1.58 Z0.5379
Y-1.5705 Z0.5401
Y-1.5609 Z0.5416
Y-1.5507 Z0.5423
Y-1.5178 Z0.5421
Y-1.4577 Z0.5408
Y-1.4148 Z0.539
Y-1.3773 Z0.5369
Y-1.3291 Z0.5334
Y-1.2864 Z0.5296
Y-1.2437 Z0.525
Y-1.2011 Z0.5197
Y-1.1491 Z0.5121
Y-1.1226 Z0.5078
Y-1.0878 Z0.5018
Y-1.0572 Z0.4959
Y-1.032 Z0.4908
Y-0.9975 Z0.4833
Y-0.9661 Z0.476
Y-0.936 Z0.4685
Y-0.9163 Z0.4633
Y-0.8853 Z0.4546
Y-0.8647 Z0.4486
Y-0.8366 Z0.44
Y-0.8034 Z0.4291
Y-0.7731 Z0.4184
Y-0.753 Z0.411
Y-0.723 Z0.3994
Y-0.7031 Z0.3913
Y-0.6834 Z0.3829
Y-0.6541 Z0.3698
Y-0.6251 Z0.3559
Y-0.6012 Z0.3439
Y-0.5776 Z0.3312
Y-0.559 Z0.3208
Y-0.5451 Z0.3126
Y-0.5223 Z0.2986
Y-0.4955 Z0.2811
Y-0.4867 Z0.275
Y-0.4693 Z0.2626
Y-0.4533 Z0.2507
Y-0.4354 Z0.2365
Y-0.4119 Z0.2165
Y-0.3971 Z0.2029
Y-0.3785 Z0.1849
Y-0.361 Z0.1664
G3 Y-0.3519 Z0.1625 J0.0091 K0.0086
G1 Y-0.3518
X-2.5945 Y-0.3494
X-2.5947 Y-0.3471
X-2.5951 Y-0.3447 Z0.1626
X-2.5956 Y-0.3424
X-2.5963 Y-0.3402
X-2.5971 Y-0.3379 Z0.1627
X-2.598 Y-0.3358
X-2.5991 Y-0.3337 Z0.1628
X-2.6003 Y-0.3317 Z0.1629
X-2.6016 Y-0.3297 Z0.163
X-2.603 Y-0.3279
X-2.6046 Y-0.3261 Z0.1631
X-2.6062 Y-0.3244 Z0.1632
X-2.608 Y-0.3229 Z0.1633
X-2.6099 Y-0.3214 Z0.1634
X-2.6118 Y-0.3201 Z0.1636
X-2.6138 Y-0.3189 Z0.1637
X-2.6159 Y-0.3178 Z0.1638
X-2.6181 Y-0.3169 Z0.1639
X-2.6203 Y-0.3161 Z0.1641
X-2.6226 Y-0.3154 Z0.1642
X-2.6249 Y-0.3149 Z0.1643
X-2.6272 Y-0.3145 Z0.1645
X-2.6295 Y-0.3143 Z0.1646
X-2.6319 Z0.1647
X-2.682 Z0.1677
X-2.6843 Z0.1678
X-2.6867 Y-0.3145 Z0.168
X-2.689 Y-0.3149 Z0.1681
X-2.6913 Y-0.3154 Z0.1683
X-2.6936 Y-0.3161 Z0.1684
X-2.6958 Y-0.3169 Z0.1685
X-2.6979 Y-0.3178 Z0.1686
X-2.7 Y-0.3189 Z0.1688
X-2.7021 Y-0.3201 Z0.1689
X-2.704 Y-0.3214 Z0.169
X-2.7059 Y-0.3229 Z0.1691
X-2.7076 Y-0.3244 Z0.1692
X-2.7093 Y-0.3261 Z0.1693
X-2.7108 Y-0.3279 Z0.1694
X-2.7123 Y-0.3297 Z0.1695
X-2.7136 Y-0.3317 Z0.1696
X-2.7148 Y-0.3337
X-2.7159 Y-0.3358 Z0.1697
X-2.7168 Y-0.3379 Z0.1698
X-2.7176 Y-0.3402
X-2.7183 Y-0.3424 Z0.1699
X-2.7188 Y-0.3447
X-2.7191 Y-0.3471
X-2.7194 Y-0.3494
Y-0.3518
G2 Y-0.361 Z0.174 J0. K0.0125
G1 Y-0.3763 Z0.1906
Y-0.3896 Z0.2041
Y-0.4049 Z0.2189
Y-0.42 Z0.2326
Y-0.4362 Z0.2465
Y-0.452 Z0.2594
Y-0.4604 Z0.266
Y-0.4775 Z0.2789
Y-0.495 Z0.2914
Y-0.5126 Z0.3033
Y-0.5305 Z0.315
Y-0.5487 Z0.3263
Y-0.5671 Z0.3372
Y-0.5857 Z0.3478
Y-0.6046 Z0.358
Y-0.6331 Z0.3727
Y-0.6524 Z0.3821
Y-0.6718 Z0.3912
Y-0.7011 Z0.4042
Y-0.7209 Z0.4125
Y-0.7408 Z0.4206
Y-0.7708 Z0.4321
Y-0.801 Z0.443
Y-0.8315 Z0.4534
Y-0.8621 Z0.4632
Y-0.8929 Z0.4725
Y-0.9136 Z0.4783
Y-0.9436 Z0.4864
Y-0.9841 Z0.4966
Y-1.0134 Z0.5034
Y-1.0553 Z0.5123
Y-1.0847 Z0.5181
Y-1.1164 Z0.5239
Y-1.1482 Z0.5292
Y-1.1789 Z0.5339
Y-1.2108 Z0.5384
Y-1.2321 Z0.5412
Y-1.2747 Z0.5461
Y-1.3174 Z0.5502
Y-1.3591 Z0.5535
Y-1.3912 Z0.5557
Y-1.4127 Z0.5569
Y-1.4556 Z0.5588
Y-1.5101 Z0.5601
Y-1.5528 Z0.5603
Y-1.5624 Z0.5594
Y-1.572 Z0.5579
Y-1.5814 Z0.5555
Y-1.5907 Z0.5525
Y-1.5997 Z0.5486
Y-1.6084 Z0.5441
Y-1.6168 Z0.5389
Y-1.6248 Z0.533
Y-1.6323 Z0.5265
Y-1.6393 Z0.5193
Y-1.6458 Z0.5116
Y-1.6516 Z0.5033
Y-1.6569 Z0.4944
Y-1.6614 Z0.485
Y-1.6653 Z0.4751
Y-1.6684 Z0.4644
Y-1.6707 Z0.4527
Y-1.6729 Z0.4324
Y-1.6744 Z0.4255
Y-1.6771 Z0.4169
Y-1.6809 Z0.4076
Y-1.6856 Z0.3983
Y-1.6906 Z0.3894
Y-1.702 Z0.3722
Y-1.7147 Z0.3555
Y-1.7281 Z0.3393
Y-1.7425 Z0.3232
Y-1.7634 Z0.3017
Y-1.786 Z0.2802
Y-1.8164 Z0.2534
Y-1.8494 Z0.2262
Y-1.9084 Z0.1798
Y-1.9584 Z0.1409
Y-1.9818 Z0.1223
Y-1.9986 Z0.1087
Y-2.0143 Z0.0957
Y-2.0354 Z0.0777
G2 Y-2.0435 Z0.0746 J-0.0081 K0.0095
G1 Y-2.0643 Z0.0747
G17 G2 X-2.7569 Y-2.1018 I-0.0375 J0.
G1 X-2.8069
G2 X-2.8444 Y-2.0643 I0. J0.0375
G19 G3 Y-2.0561 Z0.0777 J0. K0.0125
G1 Y-2.0557 Z0.0781
Y-2.0353 Z0.0955
Y-2.0037 Z0.1214
Y-1.9717 Z0.1467
Y-1.8791 Z0.2181
Y-1.8372 Z0.2515
Y-1.8046 Z0.2792
Y-1.7809 Z0.3006
Y-1.758 Z0.3229
Y-1.7378 Z0.3443
Y-1.7246 Z0.3594
Y-1.7114 Z0.3759
Y-1.6989 Z0.3931
Y-1.6882 Z0.4101
Y-1.6835 Z0.419
Y-1.6792 Z0.4283
Y-1.6759 Z0.4374
Y-1.6737 Z0.4451
Y-1.6721 Z0.4538
Y-1.6702 Z0.4717
Y-1.6679 Z0.4831
Y-1.6648 Z0.4935
Y-1.6609 Z0.5034
Y-1.6564 Z0.5127
Y-1.6511 Z0.5215
Y-1.6452 Z0.5298
Y-1.6387 Z0.5375
Y-1.6317 Z0.5447
Y-1.6242 Z0.5512
Y-1.6162 Z0.557
Y-1.6078 Z0.5622
Y-1.5991 Z0.5667
Y-1.5901 Z0.5705
Y-1.5808 Z0.5736
Y-1.5714 Z0.5759
Y-1.5619 Z0.5774
Y-1.5516 Z0.5783
Y-1.5132 Z0.5781
Y-1.4585 Z0.5768
Y-1.4156 Z0.5749
Y-1.3835 Z0.573
Y-1.3513 Z0.5708
Y-1.3193 Z0.5681
Y-1.2872 Z0.565
Y-1.2552 Z0.5614
Y-1.2233 Z0.5574
Y-1.1914 Z0.553
Y-1.1596 Z0.5482
Y-1.1278 Z0.5429
Y-1.0962 Z0.5371
Y-1.0646 Z0.5309
Y-1.0331 Z0.5242
Y-1.0017 Z0.517
Y-0.9705 Z0.5094
Y-0.9394 Z0.5012
Y-0.9084 Z0.4925
Y-0.8776 Z0.4833
Y-0.8368 Z0.4702
Y-0.8165 Z0.4632
Y-0.7862 Z0.4523
Y-0.7662 Z0.4447
Y-0.7462 Z0.4368
Y-0.7166 Z0.4245
Y-0.6969 Z0.4159
Y-0.6774 Z0.407
Y-0.6485 Z0.3931
Y-0.6293 Z0.3835
Y-0.6104 Z0.3734
Y-0.5823 Z0.3579
Y-0.5639 Z0.347
Y-0.5547 Z0.3415
Y-0.5366 Z0.3301
Y-0.5187 Z0.3184
Y-0.501 Z0.3062
Y-0.4837 Z0.2937
Y-0.4681 Z0.2819
Y-0.4508 Z0.2681
Y-0.4353 Z0.2552
Y-0.4193 Z0.241
Y-0.4038 Z0.2265
Y-0.3902 Z0.2131
Y-0.3746 Z0.1968
Y-0.361 Z0.1816
G3 Y-0.3516 Z0.1774 J0.0093 K0.0083
G1 X-2.8445 Y-0.3492
X-2.8447 Y-0.3469
X-2.8451 Y-0.3445 Z0.1775
X-2.8456 Y-0.3422
X-2.8462 Y-0.34
X-2.847 Y-0.3377 Z0.1776
X-2.848 Y-0.3356
X-2.849 Y-0.3335 Z0.1777
X-2.8502 Y-0.3315 Z0.1778
X-2.8516 Y-0.3295
X-2.853 Y-0.3277 Z0.1779
X-2.8546 Y-0.3259 Z0.178
X-2.8562 Y-0.3242 Z0.1781
X-2.858 Y-0.3227 Z0.1782
X-2.8598 Y-0.3212 Z0.1783
X-2.8618 Y-0.3199 Z0.1784
X-2.8638 Y-0.3187 Z0.1786
X-2.8659 Y-0.3176 Z0.1787
X-2.8681 Y-0.3167 Z0.1788
X-2.8703 Y-0.3159 Z0.1789
X-2.8725 Y-0.3152 Z0.1791
X-2.8748 Y-0.3147 Z0.1792
X-2.8772 Y-0.3143 Z0.1794
X-2.8795 Y-0.3141 Z0.1795
X-2.8819 Z0.1796
X-2.932 Z0.1826
X-2.9343 Z0.1827
X-2.9367 Y-0.3143 Z0.1829
X-2.939 Y-0.3147 Z0.183
X-2.9413 Y-0.3152 Z0.1831
X-2.9435 Y-0.3159 Z0.1833
X-2.9458 Y-0.3167 Z0.1834
X-2.9479 Y-0.3176 Z0.1835
X-2.95 Y-0.3187 Z0.1837
X-2.952 Y-0.3199 Z0.1838
X-2.954 Y-0.3212 Z0.1839
X-2.9558 Y-0.3227 Z0.184
X-2.9576 Y-0.3242 Z0.1841
X-2.9593 Y-0.3259 Z0.1842
X-2.9608 Y-0.3277 Z0.1843
X-2.9623 Y-0.3295 Z0.1844
X-2.9636 Y-0.3315 Z0.1845
X-2.9648 Y-0.3335
X-2.9658 Y-0.3356 Z0.1846
X-2.9668 Y-0.3377
X-2.9676 Y-0.34 Z0.1847
X-2.9682 Y-0.3422
X-2.9687 Y-0.3445 Z0.1848
X-2.9691 Y-0.3469
X-2.9693 Y-0.3492
X-2.9694 Y-0.3516
G2 Y-0.361 Z0.1891 J0. K0.0125
G1 Y-0.3748 Z0.2049
Y-0.396 Z0.2273
Y-0.4118 Z0.2429
Y-0.4261 Z0.2562
Y-0.4422 Z0.2704
Y-0.4586 Z0.2841
Y-0.4744 Z0.2967
Y-0.5001 Z0.316
Y-0.5175 Z0.3284
Y-0.5353 Z0.3404
Y-0.5623 Z0.3576
Y-0.5806 Z0.3687
Y-0.5992 Z0.3794
Y-0.6179 Z0.3898
Y-0.6368 Z0.3998
Y-0.6559 Z0.4096
Y-0.6751 Z0.419
Y-0.6945 Z0.4282
Y-0.714 Z0.437
Y-0.7436 Z0.4496
Y-0.7634 Z0.4577
Y-0.7934 Z0.4693
Y-0.8236 Z0.4804
Y-0.8438 Z0.4874
Y-0.8744 Z0.4975
Y-0.9051 Z0.507
Y-0.936 Z0.5159
Y-0.9671 Z0.5244
Y-1.0087 Z0.5348
Y-1.0495 Z0.5441
Y-1.0799 Z0.5505
Y-1.1104 Z0.5565
Y-1.141 Z0.562
Y-1.1727 Z0.5672
Y-1.2046 Z0.572
Y-1.2365 Z0.5764
Y-1.2684 Z0.5803
Y-1.3004 Z0.5837
Y-1.3325 Z0.5868
Y-1.3646 Z0.5894
Y-1.4074 Z0.5922
Y-1.461 Z0.5946
Y-1.5048 Z0.5957
Y-1.5486 Z0.5961
Y-1.5589 Z0.5955
Y-1.5685 Z0.5941
Y-1.5779 Z0.592
Y-1.5873 Z0.5892
Y-1.5963 Z0.5856
Y-1.6052 Z0.5813
Y-1.6136 Z0.5763
Y-1.6217 Z0.5706
Y-1.6294 Z0.5643
Y-1.6366 Z0.5573
Y-1.6432 Z0.5498
Y-1.6492 Z0.5417
Y-1.6547 Z0.533
Y-1.6595 Z0.5238
Y-1.6644 Z0.5115
Y-1.6668 Z0.5038
Y-1.6694 Z0.4927
Y-1.6705 Z0.4859
Y-1.6721 Z0.47
Y-1.6741 Z0.4603
Y-1.6769 Z0.451
Y-1.6803 Z0.4427
Y-1.6871 Z0.4288
Y-1.6946 Z0.416
Y-1.7066 Z0.3986
Y-1.7195 Z0.3819
Y-1.7402 Z0.3576
Y-1.7621 Z0.3345
Y-1.7851 Z0.3122
Y-1.8072 Z0.2921
Y-1.8399 Z0.2643
Y-1.8818 Z0.231
Y-1.9908 Z0.1475
Y-2.0154 Z0.1282
Y-2.0396 Z0.1087
Y-2.0673 Z0.0856
Y-2.0755 Z0.0784
G2 Y-2.0837 Z0.0754 J-0.0082 K0.0094
G1 Y-2.1031
X-2.9695 Y-2.1054
X-2.9697 Y-2.1078
X-2.9701 Y-2.1101
X-2.9706 Y-2.1124
X-2.9712 Y-2.1147
X-2.972 Y-2.1169
X-2.973 Y-2.1191
X-2.974 Y-2.1212
X-2.9752 Y-2.1232
X-2.9766 Y-2.1251
X-2.978 Y-2.127
X-2.9796 Y-2.1288
X-2.9812 Y-2.1304
X-2.983 Y-2.132
X-2.9849 Y-2.1334
X-2.9868 Y-2.1348
X-2.9888 Y-2.136
X-2.9909 Y-2.137
X-2.9931 Y-2.138 Z0.0755
X-2.9953 Y-2.1388
X-2.9976 Y-2.1394
X-2.9999 Y-2.1399
X-3.0022 Y-2.1403
X-3.0046 Y-2.1405
X-3.0069 Y-2.1406
X-3.0569 Z0.0757
X-3.0593 Y-2.1405 Z0.0758
X-3.0616 Y-2.1403
X-3.0639 Y-2.1399
X-3.0662 Y-2.1394
X-3.0685 Y-2.1388
X-3.0707 Y-2.138
X-3.0729 Y-2.137
X-3.075 Y-2.136
X-3.077 Y-2.1348
X-3.0789 Y-2.1334
X-3.0808 Y-2.132 Z0.0759
X-3.0826 Y-2.1304
X-3.0842 Y-2.1288
X-3.0858 Y-2.127
X-3.0872 Y-2.1251
X-3.0886 Y-2.1232
X-3.0898 Y-2.1212
X-3.0908 Y-2.1191
X-3.0918 Y-2.1169
X-3.0926 Y-2.1147
X-3.0932 Y-2.1124
X-3.0937 Y-2.1101
X-3.0941 Y-2.1078
X-3.0943 Y-2.1054
X-3.0944 Y-2.1031
G3 Y-2.0949 Z0.079 J0. K0.0125
G1 Y-2.083 Z0.0893
Y-2.0591 Z0.1092
Y-2.0366 Z0.1274
Y-2.0026 Z0.1538
Y-1.8933 Z0.2369
Y-1.8511 Z0.2701
Y-1.8183 Z0.2976
Y-1.7951 Z0.3181
Y-1.7735 Z0.3386
Y-1.7511 Z0.3615
Y-1.7301 Z0.385
Y-1.7167 Z0.4013
Y-1.7042 Z0.4179
Y-1.6929 Z0.4353
Y-1.6877 Z0.4443
Y-1.6828 Z0.4537
Y-1.6789 Z0.4627
Y-1.6755 Z0.4721
Y-1.6732 Z0.4805
Y-1.6716 Z0.4896
Y-1.6708 Z0.4982
Y-1.669 Z0.5114
Y-1.6663 Z0.5225
Y-1.6629 Z0.5328
Y-1.6587 Z0.5425
Y-1.6538 Z0.5517
Y-1.6483 Z0.5603
Y-1.6422 Z0.5683
Y-1.6354 Z0.5758
Y-1.6282 Z0.5827
Y-1.6205 Z0.589
Y-1.6123 Z0.5946
Y-1.6038 Z0.5995
Y-1.5949 Z0.6037
Y-1.5858 Z0.6072
Y-1.5764 Z0.6099
Y-1.5669 Z0.6119
Y-1.5573 Z0.6132
Y-1.5464 Z0.6137
Y-1.5135 Z0.6134
Y-1.4588 Z0.6121
Y-1.4052 Z0.6096
Y-1.357 Z0.6062
Y-1.3089 Z0.6019
Y-1.2689 Z0.5975
Y-1.2343 Z0.5931
Y-1.2025 Z0.5887
Y-1.1707 Z0.5838
Y-1.1389 Z0.5783
Y-1.1073 Z0.5724
Y-1.0757 Z0.5661
Y-1.0443 Z0.5592
Y-1.013 Z0.5518
Y-0.9818 Z0.544
Y-0.9507 Z0.5356
Y-0.9198 Z0.5266
Y-0.8891 Z0.5172
Y-0.8598 Z0.5076
Y-0.8282 Z0.4965
Y-0.798 Z0.4853
Y-0.7681 Z0.4736
Y-0.7483 Z0.4653
Y-0.7286 Z0.4568
Y-0.6993 Z0.4436
Y-0.6704 Z0.4296
Y-0.6466 Z0.4174
Y-0.623 Z0.4048
Y-0.6043 Z0.3943
Y-0.5858 Z0.3834
Y-0.5676 Z0.3723
Y-0.5473 Z0.3593
Y-0.5229 Z0.3428
Y-0.5077 Z0.3319
Y-0.4818 Z0.3123
Y-0.4608 Z0.2955
Y-0.4406 Z0.2782
Y-0.4265 Z0.2654
Y-0.4101 Z0.2497
Y-0.3959 Z0.2354
Y-0.3781 Z0.2163
Y-0.361 Z0.1963
G3 Y-0.3515 Z0.192 J0.0095 K0.0082
G1 Y-0.3514
X-3.0945 Y-0.349
X-3.0947 Y-0.3467
X-3.0951 Y-0.3444
X-3.0956 Y-0.3421 Z0.1921
X-3.0962 Y-0.3398
X-3.097 Y-0.3376
X-3.098 Y-0.3354 Z0.1922
X-3.099 Y-0.3333 Z0.1923
X-3.1002 Y-0.3313
X-3.1015 Y-0.3293 Z0.1924
X-3.103 Y-0.3275 Z0.1925
X-3.1045 Y-0.3257 Z0.1926
X-3.1062 Y-0.324 Z0.1927
X-3.108 Y-0.3225 Z0.1928
X-3.1098 Y-0.321 Z0.1929
X-3.1118 Y-0.3197 Z0.193
X-3.1138 Y-0.3185 Z0.1931
X-3.1159 Y-0.3175 Z0.1932
X-3.1181 Y-0.3165 Z0.1933
X-3.1203 Y-0.3157 Z0.1935
X-3.1225 Y-0.3151 Z0.1936
X-3.1248 Y-0.3145 Z0.1937
X-3.1271 Y-0.3142 Z0.1938
X-3.1295 Y-0.314 Z0.194
X-3.1318 Y-0.3139 Z0.1941
X-3.1819 Z0.197
X-3.1843 Y-0.314 Z0.1971
X-3.1866 Y-0.3142 Z0.1972
X-3.189 Y-0.3145 Z0.1974
X-3.1913 Y-0.3151 Z0.1975
X-3.1935 Y-0.3157 Z0.1976
X-3.1957 Y-0.3165 Z0.1977
X-3.1979 Y-0.3175 Z0.1979
X-3.2 Y-0.3185 Z0.198
X-3.202 Y-0.3197 Z0.1981
X-3.204 Y-0.321 Z0.1982
X-3.2058 Y-0.3225 Z0.1983
X-3.2076 Y-0.324 Z0.1984
X-3.2092 Y-0.3257 Z0.1985
X-3.2108 Y-0.3275 Z0.1986
X-3.2122 Y-0.3293 Z0.1987
X-3.2136 Y-0.3313
X-3.2148 Y-0.3333 Z0.1988
X-3.2158 Y-0.3354 Z0.1989
X-3.2168 Y-0.3376
X-3.2176 Y-0.3398 Z0.199
X-3.2182 Y-0.3421
X-3.2187 Y-0.3444
X-3.2191 Y-0.3467 Z0.1991
X-3.2193 Y-0.349
X-3.2194 Y-0.3514
G2 Y-0.361 Z0.2035 J0. K0.0125
G1 Y-0.3745 Z0.2197
Y-0.3952 Z0.2427
Y-0.411 Z0.2589
Y-0.4246 Z0.2722
Y-0.4401 Z0.2867
Y-0.4562 Z0.3009
Y-0.4808 Z0.3213
Y-0.4969 Z0.3339
Y-0.5225 Z0.353
Y-0.5489 Z0.3712
Y-0.5668 Z0.3829
Y-0.585 Z0.3944
Y-0.6033 Z0.4054
Y-0.6312 Z0.4213
Y-0.65 Z0.4316
Y-0.6785 Z0.4463
Y-0.7075 Z0.4603
Y-0.7269 Z0.4693
Y-0.7465 Z0.478
Y-0.7761 Z0.4905
Y-0.801 Z0.5005
Y-0.826 Z0.51
Y-0.8563 Z0.5209
Y-0.8868 Z0.5312
Y-0.9072 Z0.5378
Y-0.938 Z0.5471
Y-0.9689 Z0.5559
Y-1. Z0.5643
Y-1.0312 Z0.572
Y-1.0626 Z0.5792
Y-1.0967 Z0.5865
Y-1.1256 Z0.5922
Y-1.1573 Z0.598
Y-1.189 Z0.6033
Y-1.2208 Z0.6081
Y-1.2527 Z0.6124
Y-1.274 Z0.615
Y-1.306 Z0.6186
Y-1.3608 Z0.6236
Y-1.4023 Z0.6266
Y-1.4558 Z0.6293
Y-1.4885 Z0.6303
Y-1.5378 Z0.6309
Y-1.5486 Z0.631
Y-1.5588 Z0.6304
Y-1.5684 Z0.629
Y-1.5779 Z0.6269
Y-1.5872 Z0.624
Y-1.5962 Z0.6204
Y-1.6051 Z0.6161
Y-1.6135 Z0.6111
Y-1.6216 Z0.6054
Y-1.6292 Z0.599
Y-1.6364 Z0.5921
Y-1.643 Z0.5845
Y-1.6491 Z0.5764
Y-1.6545 Z0.5677
Y-1.6592 Z0.5585
Y-1.6633 Z0.5487
Y-1.6666 Z0.5384
Y-1.6691 Z0.5273
Y-1.6707 Z0.5147
Y-1.6722 Z0.5022
Y-1.6739 Z0.4945
Y-1.6768 Z0.485
Y-1.6803 Z0.4759
Y-1.6842 Z0.4673
Y-1.6891 Z0.4581
Y-1.6943 Z0.4491
Y-1.7058 Z0.4318
Y-1.7183 Z0.4151
Y-1.7386 Z0.3908
Y-1.7603 Z0.3672
Y-1.783 Z0.3445
Y-1.8065 Z0.3229
Y-1.8389 Z0.2949
Y-1.8722 Z0.268
Y-1.9316 Z0.2223
Y-2.008 Z0.1649
Y-2.0403 Z0.14
Y-2.0741 Z0.1131
Y-2.1028 Z0.0892
Y-2.1139 Z0.0797
G2 Y-2.122 Z0.0767 J-0.0081 K0.0095
G1 Y-2.1411
G17 G2 X-3.2569 Y-2.1786 I-0.0375 J0.
G1 X-3.3069
G2 X-3.3444 Y-2.1411 I0. J0.0375
G19 G3 Y-2.133 Z0.0797 J0. K0.0125
G1 Y-2.1325 Z0.0802
Y-2.112 Z0.0976
Y-2.0879 Z0.1174
Y-2.0645 Z0.1361
Y-2.015 Z0.1741
Y-1.9471 Z0.2248
Y-1.8873 Z0.2702
Y-1.8538 Z0.2968
Y-1.8228 Z0.3229
Y-1.7988 Z0.3444
Y-1.7764 Z0.3658
Y-1.7549 Z0.3878
Y-1.7406 Z0.4037
Y-1.7275 Z0.4191
Y-1.7145 Z0.4353
Y-1.7025 Z0.4521
Y-1.6917 Z0.4694
Y-1.6868 Z0.4783
Y-1.6823 Z0.4875
Y-1.6783 Z0.4971
Y-1.6754 Z0.5057
Y-1.6731 Z0.5145
Y-1.6714 Z0.5239
Y-1.6695 Z0.5411
Y-1.6672 Z0.5525
Y-1.6641 Z0.563
Y-1.6603 Z0.5729
Y-1.6557 Z0.5822
Y-1.6505 Z0.591
Y-1.6446 Z0.5993
Y-1.6381 Z0.607
Y-1.6311 Z0.6141
Y-1.6236 Z0.6206
Y-1.6156 Z0.6265
Y-1.6072 Z0.6317
Y-1.5985 Z0.6362
Y-1.5895 Z0.64
Y-1.5802 Z0.643
Y-1.5708 Z0.6454
Y-1.5612 Z0.6469
Y-1.5509 Z0.6478
Y-1.5017 Z0.6474
Y-1.4471 Z0.6457
Y-1.4043 Z0.6434
Y-1.3508 Z0.6395
Y-1.3294 Z0.6374
Y-1.2974 Z0.6342
Y-1.2654 Z0.6304
Y-1.2335 Z0.6262
Y-1.2016 Z0.6214
Y-1.1646 Z0.6153
Y-1.1277 Z0.6085
Y-1.0961 Z0.6022
Y-1.0673 Z0.5959
Y-1.0334 Z0.5879
Y-1.0048 Z0.5807
Y-0.9711 Z0.5716
Y-0.9403 Z0.5626
Y-0.9095 Z0.5531
Y-0.879 Z0.543
Y-0.8487 Z0.5323
Y-0.8185 Z0.521
Y-0.7887 Z0.5091
Y-0.7689 Z0.5009
Y-0.7394 Z0.4879
Y-0.72 Z0.479
Y-0.7007 Z0.4697
Y-0.6815 Z0.4601
Y-0.6578 Z0.4477
Y-0.6343 Z0.4348
Y-0.6158 Z0.4241
Y-0.5974 Z0.4132
Y-0.5792 Z0.4018
Y-0.5613 Z0.3901
Y-0.5358 Z0.3726
Y-0.5108 Z0.3543
Y-0.498 Z0.3445
Y-0.478 Z0.3284
Y-0.4545 Z0.3083
Y-0.4387 Z0.294
Y-0.424 Z0.28
Y-0.4089 Z0.2648
Y-0.395 Z0.2502
Y-0.3807 Z0.2341
Y-0.3711 Z0.2228
Y-0.361 Z0.2103
G3 Y-0.3513 Z0.2057 J0.0097 K0.0079
G1 Y-0.3512
X-3.3445 Y-0.3489
X-3.3447 Y-0.3465 Z0.2058
X-3.345 Y-0.3442
X-3.3456 Y-0.3419
X-3.3462 Y-0.3397
X-3.347 Y-0.3374 Z0.2059
X-3.3479 Y-0.3353
X-3.349 Y-0.3332 Z0.206
X-3.3502 Y-0.3312
X-3.3515 Y-0.3292 Z0.2061
X-3.353 Y-0.3273 Z0.2062
X-3.3545 Y-0.3256 Z0.2063
X-3.3562 Y-0.3239 Z0.2064
X-3.358 Y-0.3224 Z0.2065
X-3.3598 Y-0.3209
X-3.3618 Y-0.3196 Z0.2067
X-3.3638 Y-0.3184 Z0.2068
X-3.3659 Y-0.3173 Z0.2069
X-3.368 Y-0.3164 Z0.207
X-3.3703 Y-0.3156 Z0.2071
X-3.3725 Y-0.3149 Z0.2072
X-3.3748 Y-0.3144 Z0.2073
X-3.3771 Y-0.314 Z0.2075
X-3.3795 Y-0.3138 Z0.2076
X-3.3818 Y-0.3137 Z0.2077
X-3.4319 Z0.2103
X-3.4343 Y-0.3138 Z0.2105
X-3.4366 Y-0.314 Z0.2106
X-3.4389 Y-0.3144 Z0.2107
X-3.4412 Y-0.3149 Z0.2108
X-3.4435 Y-0.3156 Z0.211
