%
(HOW I BROKE KURTS MILL)
(T1  D=0.5 CR=0. - ZMIN=-0.3543 - FLAT END MILL)
G90 G94 G17 G91.1
G20
G53 G0 Z0.
(ADAPTIVE1)
M9
T1 M6
S1970 M3
G54
M8
G0 X2.6683 Y-0.4091
G43 Z0.6 H1
#100=30. (CUTTING)
#103=30. (ENTRY)
#104=30. (EXIT)
#105=30. (DIRECT)
G0 Z0.2
Z-0.2543
G1 Z-0.3043 F#103
X2.6682 Y-0.409 Z-0.3071
X2.668 Y-0.4089 Z-0.3099
X2.6677 Y-0.4086 Z-0.3127
X2.6672 Y-0.4083 Z-0.3155
X2.6666 Y-0.4079 Z-0.3182
X2.6659 Y-0.4075 Z-0.3208
X2.6651 Y-0.4069 Z-0.3235
X2.6642 Y-0.4062 Z-0.326
X2.6631 Y-0.4055 Z-0.3285
X2.662 Y-0.4047 Z-0.3309
X2.6607 Y-0.4038 Z-0.3333
X2.6593 Y-0.4028 Z-0.3355
X2.6578 Y-0.4018 Z-0.3376
X2.6562 Y-0.4007 Z-0.3397
X2.6545 Y-0.3996 Z-0.3416
X2.6528 Y-0.3983 Z-0.3434
X2.6509 Y-0.3971 Z-0.3451
X2.649 Y-0.3957 Z-0.3467
X2.647 Y-0.3944 Z-0.3481
X2.645 Y-0.3929 Z-0.3494
X2.6429 Y-0.3915 Z-0.3505
X2.6407 Y-0.39 Z-0.3515
X2.6385 Y-0.3885 Z-0.3524
X2.6363 Y-0.3869 Z-0.3531
X2.634 Y-0.3854 Z-0.3536
X2.6318 Y-0.3838 Z-0.354
X2.6295 Y-0.3822 Z-0.3543
X2.6272 Y-0.3806
G3 X2.3855 Y-0.2493 I-0.7267 J-1.0494
G1 X2.3796 Y-0.2471 F#100
X2.3618 Y-0.2384
X2.3503 Y-0.2321
X2.3168 Y-0.2085
X2.3096 Y-0.2022
X2.3054 Y-0.1979
X2.2942 Y-0.1879
X2.2763 Y-0.1741
X2.2532 Y-0.1592
X2.2236 Y-0.1433
X2.1851 Y-0.1264
X2.1373 Y-0.1099
X2.0885 Y-0.097
X2.0389 Y-0.0869
X1.989 Y-0.079
X1.9388 Y-0.0728
X1.8885 Y-0.0678
X1.838 Y-0.064
X1.7876 Y-0.0609
X1.7371 Y-0.0585
X1.6865 Y-0.0565
X1.5854 Y-0.0538
X1.4338 Y-0.0515
X1.2315 Y-0.0501
X0.7764 Y-0.0493
X0.3213 Y-0.0492
X0.2202
X0.1719 Y-0.0342
X0.1306 Y-0.005
X0.0963 Y0.0322
X0.068 Y0.0741
X0.045 Y0.1191
X0.0263 Y0.1661
X0.0112 Y0.2144
X-0.0009 Y0.2635
X-0.0107 Y0.3131
X-0.0185 Y0.363
X-0.0247 Y0.4132
X-0.0297 Y0.4635
X-0.0337 Y0.5139
X-0.0368 Y0.5644
X-0.0394 Y0.6149
X-0.0414 Y0.6654
X-0.0442 Y0.7665
X-0.0467 Y0.9182
X-0.0482 Y1.1205
X-0.0491 Y1.525
X-0.0492 Y1.7272
X-0.0493 Y2.2835
X-0.033 Y2.3313
X-0.0031 Y2.3721
X0.0344 Y2.406
X0.0766 Y2.4338
X0.1218 Y2.4565
X0.1689 Y2.475
X0.2173 Y2.4898
X0.2664 Y2.5018
X0.316 Y2.5114
X0.366 Y2.5191
X0.4162 Y2.5252
X0.4665 Y2.5301
X0.5169 Y2.534
X0.5674 Y2.5371
X0.6179 Y2.5396
X0.6684 Y2.5416
X0.7695 Y2.5444
X0.9212 Y2.5468
X1.1235 Y2.5482
X1.2752 Y2.5487
X2.1392 Y2.5492
X2.1577 Y2.5506
X2.1757 Y2.555
X2.1928 Y2.5622
X2.2085 Y2.572
X2.2225 Y2.5841
X2.2344 Y2.5984
X2.2439 Y2.6143
G3 X2.2482 Y2.6333 I-0.0456 J0.0205 F#104
G1 X2.2483 Y2.6361
X2.2484 Y2.6389 Z-0.354
X2.2485 Y2.6417 Z-0.3536
X2.2486 Y2.6444 Z-0.3531
Y2.6471 Z-0.3524
X2.2487 Y2.6498 Z-0.3515
X2.2488 Y2.6524 Z-0.3505
X2.2489 Y2.655 Z-0.3494
Y2.6575 Z-0.3481
X2.249 Y2.6599 Z-0.3467
X2.2491 Y2.6622 Z-0.3451
X2.2492 Y2.6645 Z-0.3434
Y2.6666 Z-0.3416
X2.2493 Y2.6687 Z-0.3397
Y2.6706 Z-0.3376
X2.2494 Y2.6724 Z-0.3355
Y2.6741 Z-0.3333
X2.2495 Y2.6756 Z-0.3309
Y2.6771 Z-0.3285
X2.2496 Y2.6783 Z-0.326
Y2.6795 Z-0.3235
Y2.6805 Z-0.3208
X2.2497 Y2.6813 Z-0.3182
Y2.682 Z-0.3155
Y2.6826 Z-0.3127
Y2.683 Z-0.3099
Y2.6832 Z-0.3071
Y2.6833 Z-0.3043
G0 Z0.2
X2.3271 Y-0.2636
Z-0.2543
G1 Z-0.3043 F#103
Y-0.2635 Z-0.3071
Y-0.2633 Z-0.3099
X2.327 Y-0.2629 Z-0.3127
X2.3268 Y-0.2624 Z-0.3155
X2.3267 Y-0.2617 Z-0.3182
X2.3264 Y-0.2608 Z-0.3208
X2.3262 Y-0.2599 Z-0.3235
X2.3259 Y-0.2588 Z-0.326
X2.3256 Y-0.2575 Z-0.3285
X2.3252 Y-0.2561 Z-0.3309
X2.3249 Y-0.2546 Z-0.3333
X2.3244 Y-0.253 Z-0.3355
X2.324 Y-0.2512 Z-0.3376
X2.3235 Y-0.2494 Z-0.3397
X2.323 Y-0.2474 Z-0.3416
X2.3225 Y-0.2453 Z-0.3434
X2.3219 Y-0.2432 Z-0.3451
X2.3214 Y-0.2409 Z-0.3467
X2.3208 Y-0.2386 Z-0.3481
X2.3201 Y-0.2361 Z-0.3494
X2.3195 Y-0.2337 Z-0.3505
X2.3189 Y-0.2311 Z-0.3515
X2.3182 Y-0.2285 Z-0.3524
X2.3175 Y-0.2259 Z-0.3531
X2.3168 Y-0.2232 Z-0.3536
X2.3162 Y-0.2205 Z-0.354
X2.3155 Y-0.2178 Z-0.3543
X2.3148 Y-0.2151
G3 X2.3054 Y-0.1979 I-0.0383 J-0.0098
G1 X2.2869 Y-0.1794 F#100
X2.2803 Y-0.1722
X2.2569 Y-0.1392
X2.2503 Y-0.1273
X2.2419 Y-0.1103
X2.2404 Y-0.1064
X2.2363 Y-0.0971
X2.2292 Y-0.0841
X2.2202 Y-0.0704
X2.2082 Y-0.0549
X2.1936 Y-0.039
X2.1749 Y-0.0215
X2.1519 Y-0.0033
X2.1234 Y0.0158
X2.0877 Y0.0357
X2.0427 Y0.0563
X1.9952 Y0.0736
X1.9466 Y0.0877
X1.8974 Y0.0993
X1.8477 Y0.1087
X1.7978 Y0.1165
X1.7476 Y0.1228
X1.6973 Y0.128
X1.6469 Y0.1322
X1.5964 Y0.1356
X1.546 Y0.1385
X1.4954 Y0.1408
X1.3944 Y0.1442
X1.2933 Y0.1464
X1.1416 Y0.1485
X0.8888 Y0.15
X0.4842 Y0.1507
X0.4352 Y0.1631
X0.3906 Y0.1868
X0.3513 Y0.2187
X0.3175 Y0.2563
X0.2887 Y0.2979
X0.2645 Y0.3423
X0.2443 Y0.3886
X0.2275 Y0.4363
X0.2136 Y0.4849
X0.2021 Y0.5342
X0.1926 Y0.5839
X0.1849 Y0.6338
X0.1785 Y0.684
X0.1734 Y0.7343
X0.1691 Y0.7847
X0.1657 Y0.8351
X0.1629 Y0.8856
X0.1606 Y0.9361
X0.1572 Y1.0372
X0.155 Y1.1383
X0.153 Y1.29
X0.1515 Y1.5428
X0.1508 Y1.9979
X0.1582 Y2.0479
X0.1783 Y2.0944
X0.2075 Y2.1356
X0.2433 Y2.1713
X0.2836 Y2.2018
X0.3272 Y2.2276
X0.3729 Y2.2491
X0.4202 Y2.2671
X0.4685 Y2.282
X0.5176 Y2.2943
X0.5671 Y2.3044
X0.617 Y2.3127
X0.6671 Y2.3195
X0.7173 Y2.325
X0.7677 Y2.3295
X0.8181 Y2.3332
X0.8686 Y2.3363
X0.9191 Y2.3387
X1.0202 Y2.3423
X1.1213 Y2.3447
X1.273 Y2.3468
X1.4752 Y2.3482
X1.9303 Y2.349
X1.9809 Y2.3495
X2.0314 Y2.3517
X2.0797 Y2.3568
X2.1198 Y2.3644
X2.1544 Y2.3738
X2.1846 Y2.3847
X2.1958 Y2.3914
X2.2052 Y2.4005
X2.2122 Y2.4115
X2.2166 Y2.4238
X2.2181 Y2.4367
X2.2182 Y2.4926
G3 X2.2139 Y2.5116 I-0.05 J-0.0014 F#104
G1 X2.2127 Y2.5142
X2.2116 Y2.5167 Z-0.354
X2.2105 Y2.5192 Z-0.3536
X2.2093 Y2.5218 Z-0.3531
X2.2082 Y2.5242 Z-0.3524
X2.2071 Y2.5267 Z-0.3515
X2.2061 Y2.5291 Z-0.3505
X2.205 Y2.5314 Z-0.3494
X2.204 Y2.5337 Z-0.3481
X2.203 Y2.5359 Z-0.3467
X2.2021 Y2.538 Z-0.3451
X2.2011 Y2.5401 Z-0.3434
X2.2003 Y2.542 Z-0.3416
X2.1994 Y2.5439 Z-0.3397
X2.1986 Y2.5456 Z-0.3376
X2.1979 Y2.5473 Z-0.3355
X2.1972 Y2.5488 Z-0.3333
X2.1966 Y2.5502 Z-0.3309
X2.196 Y2.5515 Z-0.3285
X2.1955 Y2.5527 Z-0.326
X2.195 Y2.5538 Z-0.3235
X2.1946 Y2.5547 Z-0.3208
X2.1942 Y2.5555 Z-0.3182
X2.194 Y2.5561 Z-0.3155
X2.1937 Y2.5566 Z-0.3127
X2.1936 Y2.5569 Z-0.3099
X2.1935 Y2.5572 Z-0.3071
X2.1934 Z-0.3043
G0 Z0.2
X2.2337 Y-0.1753
Z-0.2543
G1 Z-0.3043 F#103
Y-0.1752 Z-0.3071
Y-0.175 Z-0.3099
X2.2338 Y-0.1746 Z-0.3127
X2.2339 Y-0.174 Z-0.3155
X2.234 Y-0.1733 Z-0.3182
X2.2341 Y-0.1725 Z-0.3208
X2.2343 Y-0.1715 Z-0.3235
X2.2345 Y-0.1704 Z-0.326
X2.2347 Y-0.1691 Z-0.3285
X2.2349 Y-0.1677 Z-0.3309
X2.2352 Y-0.1662 Z-0.3333
X2.2355 Y-0.1645 Z-0.3355
X2.2358 Y-0.1627 Z-0.3376
X2.2361 Y-0.1608 Z-0.3397
X2.2364 Y-0.1588 Z-0.3416
X2.2368 Y-0.1567 Z-0.3434
X2.2372 Y-0.1545 Z-0.3451
X2.2376 Y-0.1522 Z-0.3467
X2.238 Y-0.1498 Z-0.3481
X2.2384 Y-0.1474 Z-0.3494
X2.2388 Y-0.1448 Z-0.3505
X2.2392 Y-0.1422 Z-0.3515
X2.2397 Y-0.1396 Z-0.3524
X2.2401 Y-0.1369 Z-0.3531
X2.2406 Y-0.1342 Z-0.3536
X2.2411 Y-0.1315 Z-0.354
X2.2415 Y-0.1287 Z-0.3543
X2.242 Y-0.126
G3 X2.2404 Y-0.1064 I-0.039 J0.0066
G1 X2.2315 Y-0.0824 F#100
X2.2269 Y-0.0663
X2.2208 Y-0.0375
X2.2192 Y-0.0225
X2.2187 Y-0.0143
X2.2174 Y-0.0021
X2.215 Y0.0107
X2.2113 Y0.0237
X2.2058 Y0.0391
X2.1983 Y0.0552
X2.1887 Y0.0725
X2.176 Y0.0914
X2.1606 Y0.1107
X2.1412 Y0.1315
X2.1173 Y0.1533
X2.0887 Y0.1754
X2.0532 Y0.1986
X2.0095 Y0.2224
X1.9633 Y0.2429
X1.9158 Y0.2602
X1.8674 Y0.2749
X1.8183 Y0.2872
X1.7688 Y0.2976
X1.719 Y0.3063
X1.669 Y0.3137
X1.6188 Y0.3198
X1.5685 Y0.325
X1.5181 Y0.3293
X1.4677 Y0.3329
X1.4172 Y0.336
X1.3667 Y0.3385
X1.2657 Y0.3424
X1.1646 Y0.345
X1.0129 Y0.3476
X0.8106 Y0.3493
X0.7601 Y0.3496
X0.7095 Y0.3514
X0.6606 Y0.3642
X0.6154 Y0.3868
X0.575 Y0.4172
X0.5395 Y0.4532
X0.5089 Y0.4935
X0.4828 Y0.5368
X0.4607 Y0.5823
X0.442 Y0.6293
X0.4264 Y0.6773
X0.4133 Y0.7262
X0.4024 Y0.7756
X0.3933 Y0.8253
X0.3858 Y0.8753
X0.3796 Y0.9255
X0.3745 Y0.9758
X0.3702 Y1.0262
X0.3667 Y1.0766
X0.3639 Y1.1271
X0.3615 Y1.1776
X0.3579 Y1.2787
X0.3556 Y1.3798
X0.3534 Y1.5315
X0.3519 Y1.7337
X0.3523 Y1.7843
X0.3636 Y1.8336
X0.3851 Y1.8794
X0.4146 Y1.9205
X0.45 Y1.9565
X0.4898 Y1.9877
X0.5328 Y2.0143
X0.578 Y2.0369
X0.6249 Y2.056
X0.6728 Y2.072
X0.7216 Y2.0854
X0.7709 Y2.0965
X0.8206 Y2.1058
X0.8706 Y2.1134
X0.9208 Y2.1198
X0.9711 Y2.125
X1.0215 Y2.1294
X1.0719 Y2.1329
X1.1224 Y2.1359
X1.1729 Y2.1383
X1.274 Y2.1419
X1.3751 Y2.1443
X1.5267 Y2.1465
X1.7796 Y2.1483
X1.8301 Y2.1489
X1.8807 Y2.1502
X1.9312 Y2.1525
X1.9816 Y2.1564
X2.0318 Y2.1624
X2.0817 Y2.1709
X2.1209 Y2.1806
X2.1536 Y2.1916
X2.1692 Y2.1999
X2.1833 Y2.2107
X2.1953 Y2.2236
X2.2051 Y2.2384
X2.2123 Y2.2546
X2.2166 Y2.2717
X2.2181 Y2.2894
Y2.4367
G3 X2.2136 Y2.4557 I-0.05 J-0.0017 F#104
G1 X2.2125 Y2.4583
X2.2113 Y2.4608 Z-0.354
X2.2102 Y2.4633 Z-0.3536
X2.209 Y2.4659 Z-0.3531
X2.2079 Y2.4683 Z-0.3524
X2.2068 Y2.4708 Z-0.3515
X2.2057 Y2.4731 Z-0.3505
X2.2046 Y2.4755 Z-0.3494
X2.2036 Y2.4777 Z-0.3481
X2.2026 Y2.4799 Z-0.3467
X2.2016 Y2.4821 Z-0.3451
X2.2007 Y2.4841 Z-0.3434
X2.1998 Y2.486 Z-0.3416
X2.199 Y2.4879 Z-0.3397
X2.1982 Y2.4897 Z-0.3376
X2.1974 Y2.4913 Z-0.3355
X2.1967 Y2.4928 Z-0.3333
X2.1961 Y2.4943 Z-0.3309
X2.1955 Y2.4955 Z-0.3285
X2.195 Y2.4967 Z-0.326
X2.1945 Y2.4978 Z-0.3235
X2.1941 Y2.4987 Z-0.3208
X2.1937 Y2.4994 Z-0.3182
X2.1934 Y2.5001 Z-0.3155
X2.1932 Y2.5006 Z-0.3127
X2.193 Y2.5009 Z-0.3099
X2.1929 Y2.5012 Z-0.3071
Z-0.3043
G0 Z0.2
X2.1913 Y-0.0778
Z-0.2543
G1 Z-0.3043 F#103
X2.1914 Z-0.3071
X2.1915 Y-0.0775 Z-0.3099
X2.1916 Y-0.0772 Z-0.3127
X2.1919 Y-0.0767 Z-0.3155
X2.1922 Y-0.0761 Z-0.3182
X2.1926 Y-0.0753 Z-0.3208
X2.1931 Y-0.0744 Z-0.3235
X2.1936 Y-0.0734 Z-0.326
X2.1942 Y-0.0723 Z-0.3285
X2.1948 Y-0.071 Z-0.3309
X2.1956 Y-0.0696 Z-0.3333
X2.1963 Y-0.0681 Z-0.3355
X2.1972 Y-0.0665 Z-0.3376
X2.1981 Y-0.0648 Z-0.3397
X2.199 Y-0.063 Z-0.3416
X2.2 Y-0.0611 Z-0.3434
X2.201 Y-0.0591 Z-0.3451
X2.2021 Y-0.057 Z-0.3467
X2.2032 Y-0.0549 Z-0.3481
X2.2043 Y-0.0527 Z-0.3494
X2.2055 Y-0.0504 Z-0.3505
X2.2067 Y-0.0481 Z-0.3515
X2.2079 Y-0.0457 Z-0.3524
X2.2092 Y-0.0433 Z-0.3531
X2.2105 Y-0.0409 Z-0.3536
X2.2117 Y-0.0384 Z-0.354
X2.213 Y-0.0359 Z-0.3543
X2.2143 Y-0.0334
G3 X2.2187 Y-0.0143 I-0.0351 J0.0182
G1 X2.2183 Y-0.0076 F#100
X2.2181 Y0.1122
X2.2173 Y0.1288
X2.2154 Y0.1428
X2.2119 Y0.1592
X2.2068 Y0.1763
X2.1995 Y0.1951
X2.1896 Y0.2155
X2.1771 Y0.2366
X2.1611 Y0.2594
X2.1415 Y0.2831
X2.1177 Y0.3075
X2.0882 Y0.3333
X2.0524 Y0.3598
X2.0094 Y0.3865
X1.9645 Y0.4097
X1.9181 Y0.4298
X1.8706 Y0.4472
X1.8223 Y0.4622
X1.7735 Y0.4752
X1.7241 Y0.4863
X1.6745 Y0.4959
X1.6246 Y0.5041
X1.5745 Y0.5111
X1.5243 Y0.5171
X1.474 Y0.5223
X1.4236 Y0.5267
X1.3732 Y0.5304
X1.3227 Y0.5336
X1.2723 Y0.5363
X1.1712 Y0.5405
X1.0701 Y0.5436
X0.969 Y0.5457
X0.9186 Y0.5501
X0.8701 Y0.5643
X0.8251 Y0.5874
X0.7847 Y0.6178
X0.749 Y0.6536
X0.718 Y0.6935
X0.6913 Y0.7365
X0.6685 Y0.7816
X0.6492 Y0.8283
X0.6328 Y0.8762
X0.6191 Y0.9248
X0.6075 Y0.9741
X0.5979 Y1.0237
X0.5898 Y1.0736
X0.5831 Y1.1238
X0.5775 Y1.174
X0.5729 Y1.2244
X0.5691 Y1.2748
X0.5659 Y1.3253
X0.5632 Y1.3757
X0.5592 Y1.4768
X0.5577 Y1.5273
X0.5597 Y1.5779
X0.5723 Y1.6269
X0.5943 Y1.6724
X0.6239 Y1.7134
X0.6593 Y1.7495
X0.6989 Y1.7809
X0.7417 Y1.8079
X0.7867 Y1.8309
X0.8334 Y1.8504
X0.8812 Y1.8669
X0.9298 Y1.8807
X0.979 Y1.8923
X1.0286 Y1.902
X1.0786 Y1.9101
X1.1287 Y1.9169
X1.1789 Y1.9225
X1.2293 Y1.9271
X1.2797 Y1.931
X1.3302 Y1.9341
X1.3807 Y1.9368
X1.4817 Y1.9408
X1.5828 Y1.9435
X1.7345 Y1.947
X1.785 Y1.9488
X1.8355 Y1.9512
X1.886 Y1.9546
X1.9363 Y1.9591
X1.9865 Y1.9652
X2.0364 Y1.9734
X2.0835 Y1.9841
X2.1217 Y1.9961
X2.1547 Y2.0095
X2.1702 Y2.0189
X2.1841 Y2.0306
X2.1959 Y2.0443
X2.2054 Y2.0598
X2.2124 Y2.0765
X2.2167 Y2.0941
X2.2181 Y2.1122
Y2.2894
G3 X2.2136 Y2.3084 I-0.05 J-0.0017 F#104
G1 X2.2125 Y2.3109
X2.2113 Y2.3135 Z-0.354
X2.2102 Y2.316 Z-0.3536
X2.209 Y2.3185 Z-0.3531
X2.2079 Y2.321 Z-0.3524
X2.2068 Y2.3234 Z-0.3515
X2.2057 Y2.3258 Z-0.3505
X2.2046 Y2.3281 Z-0.3494
X2.2036 Y2.3304 Z-0.3481
X2.2026 Y2.3326 Z-0.3467
X2.2016 Y2.3347 Z-0.3451
X2.2007 Y2.3367 Z-0.3434
X2.1998 Y2.3387 Z-0.3416
X2.199 Y2.3405 Z-0.3397
X2.1982 Y2.3423 Z-0.3376
X2.1974 Y2.3439 Z-0.3355
X2.1967 Y2.3455 Z-0.3333
X2.1961 Y2.3469 Z-0.3309
X2.1955 Y2.3482 Z-0.3285
X2.195 Y2.3494 Z-0.326
X2.1945 Y2.3504 Z-0.3235
X2.1941 Y2.3513 Z-0.3208
X2.1937 Y2.3521 Z-0.3182
X2.1934 Y2.3527 Z-0.3155
X2.1932 Y2.3532 Z-0.3127
X2.193 Y2.3536 Z-0.3099
X2.1929 Y2.3538 Z-0.3071
Y2.3539 Z-0.3043
G0 Z0.2
X2.187 Y0.0504
Z-0.2543
G1 Z-0.3043 F#103
X2.1871 Y0.0505 Z-0.3071
X2.1872 Y0.0507 Z-0.3099
X2.1874 Y0.051 Z-0.3127
X2.1877 Y0.0515 Z-0.3155
X2.188 Y0.0521 Z-0.3182
X2.1885 Y0.0528 Z-0.3208
X2.189 Y0.0537 Z-0.3235
X2.1896 Y0.0547 Z-0.326
X2.1902 Y0.0558 Z-0.3285
X2.1909 Y0.057 Z-0.3309
X2.1917 Y0.0583 Z-0.3333
X2.1926 Y0.0598 Z-0.3355
X2.1935 Y0.0613 Z-0.3376
X2.1945 Y0.063 Z-0.3397
X2.1956 Y0.0647 Z-0.3416
X2.1966 Y0.0666 Z-0.3434
X2.1978 Y0.0685 Z-0.3451
X2.199 Y0.0705 Z-0.3467
X2.2002 Y0.0726 Z-0.3481
X2.2015 Y0.0747 Z-0.3494
X2.2028 Y0.0769 Z-0.3505
X2.2041 Y0.0792 Z-0.3515
X2.2055 Y0.0815 Z-0.3524
X2.2069 Y0.0838 Z-0.3531
X2.2083 Y0.0862 Z-0.3536
X2.2097 Y0.0886 Z-0.354
X2.2111 Y0.091 Z-0.3543
X2.2126 Y0.0934
G3 X2.2181 Y0.1122 I-0.034 J0.0202
G1 Y0.2769 F#100
X2.2177 Y0.2859
X2.2156 Y0.3017
X2.2117 Y0.3199
X2.2062 Y0.3384
X2.1978 Y0.36
X2.1874 Y0.3814
X2.1731 Y0.4056
X2.1561 Y0.4298
X2.1342 Y0.4562
X2.1076 Y0.4835
X2.0757 Y0.5113
X2.0365 Y0.5403
X1.9936 Y0.567
X1.9488 Y0.5906
X1.9027 Y0.6114
X1.8555 Y0.6296
X1.8076 Y0.6456
X1.759 Y0.6596
X1.7099 Y0.6719
X1.6605 Y0.6826
X1.6108 Y0.6919
X1.5609 Y0.7001
X1.5108 Y0.7071
X1.4607 Y0.7133
X1.4104 Y0.7186
X1.36 Y0.7232
X1.3096 Y0.7272
X1.2592 Y0.7306
X1.1582 Y0.7363
X1.1085 Y0.7459
X1.0614 Y0.7642
X1.0181 Y0.7903
X0.9792 Y0.8226
X0.945 Y0.8598
X0.9151 Y0.9007
X0.8894 Y0.9442
X0.8674 Y0.9897
X0.8486 Y1.0367
X0.8327 Y1.0847
X0.8193 Y1.1334
X0.808 Y1.1827
X0.7984 Y1.2324
X0.7905 Y1.2823
X0.7839 Y1.3324
X0.7856 Y1.383
X0.7988 Y1.4318
X0.8217 Y1.4769
X0.8521 Y1.5173
X0.8881 Y1.5528
X0.9282 Y1.5836
X0.9713 Y1.6101
X1.0165 Y1.6326
X1.0633 Y1.6517
X1.1113 Y1.6679
X1.16 Y1.6814
X1.2093 Y1.6928
X1.2589 Y1.7023
X1.3088 Y1.7103
X1.359 Y1.7169
X1.4092 Y1.7224
X1.4596 Y1.7271
X1.51 Y1.731
X1.6109 Y1.7375
X1.7119 Y1.7436
X1.7623 Y1.747
X1.8127 Y1.751
X1.8631 Y1.7557
X1.9133 Y1.7615
X1.9634 Y1.7688
X2.0131 Y1.7778
X2.0624 Y1.7892
X2.106 Y1.8024
X2.1417 Y1.8165
X2.1528 Y1.8219
X2.1687 Y1.8314
X2.183 Y1.8432
X2.1952 Y1.8572
X2.205 Y1.873
X2.2122 Y1.8901
X2.2166 Y1.9082
X2.2181 Y1.9267
Y2.1122
G3 X2.2136 Y2.1312 I-0.05 J-0.0017 F#104
G1 X2.2125 Y2.1338
X2.2113 Y2.1363 Z-0.354
X2.2102 Y2.1388 Z-0.3536
X2.209 Y2.1413 Z-0.3531
X2.2079 Y2.1438 Z-0.3524
X2.2068 Y2.1463 Z-0.3515
X2.2057 Y2.1486 Z-0.3505
X2.2046 Y2.151 Z-0.3494
X2.2036 Y2.1532 Z-0.3481
X2.2026 Y2.1554 Z-0.3467
X2.2016 Y2.1576 Z-0.3451
X2.2007 Y2.1596 Z-0.3434
X2.1998 Y2.1615 Z-0.3416
X2.199 Y2.1634 Z-0.3397
X2.1982 Y2.1651 Z-0.3376
X2.1974 Y2.1668 Z-0.3355
X2.1967 Y2.1683 Z-0.3333
X2.1961 Y2.1697 Z-0.3309
X2.1955 Y2.171 Z-0.3285
X2.195 Y2.1722 Z-0.326
X2.1945 Y2.1733 Z-0.3235
X2.1941 Y2.1742 Z-0.3208
X2.1937 Y2.1749 Z-0.3182
X2.1934 Y2.1756 Z-0.3155
X2.1932 Y2.1761 Z-0.3127
X2.193 Y2.1764 Z-0.3099
X2.1929 Y2.1766 Z-0.3071
Y2.1767 Z-0.3043
G0 Z0.2
X2.187 Y0.2151
Z-0.2543
G1 Z-0.3043 F#103
X2.1871 Z-0.3071
X2.1872 Y0.2153 Z-0.3099
X2.1874 Y0.2157 Z-0.3127
X2.1877 Y0.2162 Z-0.3155
X2.188 Y0.2168 Z-0.3182
X2.1885 Y0.2175 Z-0.3208
X2.189 Y0.2183 Z-0.3235
X2.1896 Y0.2193 Z-0.326
X2.1902 Y0.2204 Z-0.3285
X2.1909 Y0.2217 Z-0.3309
X2.1917 Y0.223 Z-0.3333
X2.1926 Y0.2245 Z-0.3355
X2.1935 Y0.226 Z-0.3376
X2.1945 Y0.2277 Z-0.3397
X2.1956 Y0.2294 Z-0.3416
X2.1966 Y0.2313 Z-0.3434
X2.1978 Y0.2332 Z-0.3451
X2.199 Y0.2352 Z-0.3467
X2.2002 Y0.2373 Z-0.3481
X2.2015 Y0.2394 Z-0.3494
X2.2028 Y0.2416 Z-0.3505
X2.2041 Y0.2439 Z-0.3515
X2.2055 Y0.2462 Z-0.3524
X2.2069 Y0.2485 Z-0.3531
X2.2083 Y0.2509 Z-0.3536
X2.2097 Y0.2532 Z-0.354
X2.2111 Y0.2556 Z-0.3543
X2.2126 Y0.2581
G3 X2.2181 Y0.2769 I-0.034 J0.0202
G1 Y0.4416 F#100
X2.2175 Y0.4545
X2.2153 Y0.4707
X2.2113 Y0.4895
X2.2053 Y0.5097
X2.1968 Y0.5313
X2.1854 Y0.5548
X2.1708 Y0.5797
X2.1525 Y0.6058
X2.1291 Y0.6339
X2.1011 Y0.6626
X2.0669 Y0.6925
X2.0262 Y0.7226
X1.9833 Y0.7494
X1.9388 Y0.7733
X1.8929 Y0.7946
X1.846 Y0.8135
X1.7983 Y0.8302
X1.75 Y0.8451
X1.7011 Y0.8582
X1.6519 Y0.8699
X1.6024 Y0.8801
X1.5527 Y0.8892
X1.5027 Y0.8971
X1.4526 Y0.9041
X1.4025 Y0.9103
X1.3523 Y0.9171
X1.3036 Y0.9306
X1.2577 Y0.9518
X1.2156 Y0.9798
X1.1778 Y1.0134
X1.1444 Y1.0513
X1.1152 Y1.0926
X1.09 Y1.1365
X1.0844 Y1.1611
X1.0828 Y1.2117
X1.097 Y1.2602
X1.122 Y1.3042
X1.1547 Y1.3427
X1.1928 Y1.376
X1.2346 Y1.4045
X1.279 Y1.4286
X1.3253 Y1.4489
X1.3729 Y1.466
X1.4214 Y1.4804
X1.4705 Y1.4925
X1.52 Y1.5029
X1.5697 Y1.5118
X1.6197 Y1.5197
X1.7198 Y1.5338
X1.82 Y1.5475
X1.87 Y1.555
X1.9199 Y1.5633
X1.9696 Y1.5729
X2.0189 Y1.5841
X2.0677 Y1.5974
X2.113 Y1.6128
X2.1496 Y1.6287
X2.1563 Y1.6322
X2.1715 Y1.6419
X2.185 Y1.6538
X2.1965 Y1.6676
X2.2058 Y1.6831
X2.2126 Y1.6997
X2.2167 Y1.7173
X2.2181 Y1.7352
Y1.9267
G3 X2.2136 Y1.9457 I-0.05 J-0.0017 F#104
G1 X2.2125 Y1.9482
X2.2113 Y1.9508 Z-0.354
X2.2102 Y1.9533 Z-0.3536
X2.209 Y1.9558 Z-0.3531
X2.2079 Y1.9583 Z-0.3524
X2.2068 Y1.9607 Z-0.3515
X2.2057 Y1.9631 Z-0.3505
X2.2046 Y1.9654 Z-0.3494
X2.2036 Y1.9677 Z-0.3481
X2.2026 Y1.9699 Z-0.3467
X2.2016 Y1.972 Z-0.3451
X2.2007 Y1.974 Z-0.3434
X2.1998 Y1.976 Z-0.3416
X2.199 Y1.9778 Z-0.3397
X2.1982 Y1.9796 Z-0.3376
X2.1974 Y1.9812 Z-0.3355
X2.1967 Y1.9828 Z-0.3333
X2.1961 Y1.9842 Z-0.3309
X2.1955 Y1.9855 Z-0.3285
X2.195 Y1.9867 Z-0.326
X2.1945 Y1.9877 Z-0.3235
X2.1941 Y1.9886 Z-0.3208
X2.1937 Y1.9894 Z-0.3182
X2.1934 Y1.99 Z-0.3155
X2.1932 Y1.9905 Z-0.3127
X2.193 Y1.9909 Z-0.3099
X2.1929 Y1.9911 Z-0.3071
Y1.9912 Z-0.3043
G0 Z0.2
X2.187 Y0.3798
Z-0.2543
G1 Z-0.3043 F#103
X2.1871 Z-0.3071
X2.1872 Y0.38 Z-0.3099
X2.1874 Y0.3804 Z-0.3127
X2.1877 Y0.3808 Z-0.3155
X2.188 Y0.3814 Z-0.3182
X2.1885 Y0.3822 Z-0.3208
X2.189 Y0.383 Z-0.3235
X2.1896 Y0.384 Z-0.326
X2.1902 Y0.3851 Z-0.3285
X2.1909 Y0.3863 Z-0.3309
X2.1917 Y0.3877 Z-0.3333
X2.1926 Y0.3891 Z-0.3355
X2.1935 Y0.3907 Z-0.3376
X2.1945 Y0.3923 Z-0.3397
X2.1956 Y0.3941 Z-0.3416
X2.1966 Y0.3959 Z-0.3434
X2.1978 Y0.3979 Z-0.3451
X2.199 Y0.3999 Z-0.3467
X2.2002 Y0.4019 Z-0.3481
X2.2015 Y0.4041 Z-0.3494
X2.2028 Y0.4063 Z-0.3505
X2.2041 Y0.4085 Z-0.3515
X2.2055 Y0.4108 Z-0.3524
X2.2069 Y0.4132 Z-0.3531
X2.2083 Y0.4155 Z-0.3536
X2.2097 Y0.4179 Z-0.354
X2.2111 Y0.4203 Z-0.3543
X2.2126 Y0.4227
G3 X2.2181 Y0.4416 I-0.034 J0.0202
G1 Y0.6063 F#100
X2.217 Y0.6284
X2.2147 Y0.6458
X2.2107 Y0.6646
X2.2043 Y0.6861
X2.1958 Y0.708
X2.1838 Y0.7327
X2.1689 Y0.758
X2.1496 Y0.7854
X2.1253 Y0.8147
X2.0961 Y0.8447
X2.06 Y0.8761
X2.0194 Y0.9062
X1.9766 Y0.9332
X1.9322 Y0.9574
X1.8866 Y0.9791
X1.8399 Y0.9986
X1.7924 Y1.0159
X1.7413 Y1.0324
X1.6926 Y1.0461
X1.6436 Y1.0584
X1.5942 Y1.0695
X1.5789 Y1.0735
G3 X1.5594 Y1.0742 I-0.0117 J-0.0486 F#104
X1.5387 Y0.9838 I0.0078 J-0.0494 F#105
G1 X2.1396 Y0.5669
G3 X2.2136 Y0.5873 I0.0285 J0.0411
X2.2181 Y0.6063 I-0.0455 J0.0207 F#103
G1 Y0.7859 F#100
X2.2171 Y0.806
X2.2147 Y0.8243
X2.2107 Y0.8432
X2.2041 Y0.8653
X2.1953 Y0.8877
X2.183 Y0.9131
X2.1677 Y0.939
X2.1478 Y0.9674
X2.1227 Y0.9976
X2.0924 Y1.0287
X2.055 Y1.0614
X2.0319 Y1.078
X1.9901 Y1.1065
X1.9684 Y1.1194
X1.9517 Y1.1285
G3 X1.9329 Y1.1335 I-0.022 J-0.0449 F#104
X1.8908 Y1.0522 I-0.0031 J-0.0499 F#105
G1 X2.1292 Y0.7563
G3 X2.2136 Y0.7669 I0.0389 J0.0314
X2.2181 Y0.7859 I-0.0455 J0.0207 F#103
G1 Y0.9656 F#100
X2.217 Y0.9869
X2.2146 Y1.0057
X2.2105 Y1.0247
X2.2043 Y1.0455
X2.1949 Y1.0695
X2.1828 Y1.0946
X2.1763 Y1.1055
X2.1696 Y1.1162
X2.164 Y1.1275
X2.1597 Y1.1394
X2.1567 Y1.1517
X2.1551 Y1.1642
X2.1548 Y1.1769
X2.1591 Y1.2272
X2.1798 Y1.2734
X2.2028 Y1.3137
X2.2094 Y1.3273
X2.2142 Y1.3416
X2.2171 Y1.3564
X2.2181 Y1.3715
Y1.7352
G3 X2.2136 Y1.7542 I-0.05 J-0.0017 F#104
X2.1181 Y1.7335 I-0.0455 J-0.0207 F#105
G1 Y0.9673
G3 X2.2136 Y0.9466 I0.05 J0.
X2.2181 Y0.9656 I-0.0455 J0.0207 F#103
G1 Y1.3715 F#100
G3 X2.2136 Y1.3905 I-0.05 J-0.0017 F#104
G1 X2.2125 Y1.3931
X2.2113 Y1.3956 Z-0.354
X2.2102 Y1.3981 Z-0.3536
X2.209 Y1.4006 Z-0.3531
X2.2079 Y1.4031 Z-0.3524
X2.2068 Y1.4056 Z-0.3515
X2.2057 Y1.4079 Z-0.3505
X2.2046 Y1.4103 Z-0.3494
X2.2036 Y1.4125 Z-0.3481
X2.2026 Y1.4147 Z-0.3467
X2.2016 Y1.4169 Z-0.3451
X2.2007 Y1.4189 Z-0.3434
X2.1998 Y1.4208 Z-0.3416
X2.199 Y1.4227 Z-0.3397
X2.1982 Y1.4244 Z-0.3376
X2.1974 Y1.4261 Z-0.3355
X2.1967 Y1.4276 Z-0.3333
X2.1961 Y1.429 Z-0.3309
X2.1955 Y1.4303 Z-0.3285
X2.195 Y1.4315 Z-0.326
X2.1945 Y1.4326 Z-0.3235
X2.1941 Y1.4335 Z-0.3208
X2.1937 Y1.4342 Z-0.3182
X2.1934 Y1.4349 Z-0.3155
X2.1932 Y1.4354 Z-0.3127
X2.193 Y1.4357 Z-0.3099
X2.1929 Y1.436 Z-0.3071
Z-0.3043
G0 Z0.6
M9
G53 Z0.
M30
%
