(CODE FOR ENGRAVING LinuxCNC RF45)
(CREATED USING F-ENGRAVE AND MODIFIED BY KCJ)
(DATE: 1/26/17 1:18PM)

#<FEED>=300
#<PLUNGE>=100

G90
G20
G17 G64 P0.001 M3 S3000
 F#<FEED>
G0 Z0.2500
(MSG, CUTTING THE LETTER L)
G0 X-3.6027 Y0.6802
G1 Z-0.0050  F#<PLUNGE>
G1 X-3.6027 Y0.6802 F#<FEED>
G1 X-3.5972 Y0.6801
G1 X-3.5919 Y0.6798
G1 X-3.5869 Y0.6792
G1 X-3.5821 Y0.6785
G1 X-3.5775 Y0.6776
G1 X-3.5731 Y0.6765
G1 X-3.5690 Y0.6751
G1 X-3.5651 Y0.6736
G1 X-3.5614 Y0.6718
G1 X-3.5580 Y0.6699
G1 X-3.5548 Y0.6677
G1 X-3.5518 Y0.6653
G1 X-3.5491 Y0.6628
G1 X-3.5465 Y0.6600
G1 X-3.5443 Y0.6570
G1 X-3.5401 Y0.6504
G1 X-3.5382 Y0.6468
G1 X-3.5364 Y0.6430
G1 X-3.5347 Y0.6391
G1 X-3.5318 Y0.6305
G1 X-3.5305 Y0.6260
G1 X-3.5284 Y0.6163
G1 X-3.5275 Y0.6111
G1 X-3.5262 Y0.6003
G1 X-3.5254 Y0.5886
G1 X-3.5251 Y0.5762
G1 Y0.2783
G1 X-4.2575
G1 X-4.2699 Y0.2786
G1 X-4.2815 Y0.2795
G1 X-4.2870 Y0.2802
G1 X-4.2974 Y0.2820
G1 X-4.3070 Y0.2844
G1 X-4.3116 Y0.2859
G1 X-4.3159 Y0.2874
G1 X-4.3200 Y0.2892
G1 X-4.3239 Y0.2911
G1 X-4.3276 Y0.2931
G1 X-4.3311 Y0.2953
G1 X-4.3344 Y0.2977
G1 X-4.3375 Y0.3002
G1 X-4.3404 Y0.3028
G1 X-4.3431 Y0.3056
G1 X-4.3456 Y0.3086
G1 X-4.3479 Y0.3117
G1 X-4.3500 Y0.3149
G1 X-4.3519 Y0.3184
G1 X-4.3536 Y0.3219
G1 X-4.3551 Y0.3256
G1 X-4.3564 Y0.3295
G1 X-4.3575 Y0.3335
G1 X-4.3584 Y0.3377
G1 X-4.3591 Y0.3420
G1 X-4.3596 Y0.3465
G1 X-4.3599 Y0.3511
G1 X-4.3600 Y0.3559
G1 X-4.3599 Y0.3614
G1 X-4.3595 Y0.3667
G1 X-4.3590 Y0.3717
G1 X-4.3583 Y0.3765
G1 X-4.3574 Y0.3811
G1 X-4.3562 Y0.3855
G1 X-4.3549 Y0.3896
G1 X-4.3534 Y0.3935
G1 X-4.3516 Y0.3972
G1 X-4.3497 Y0.4006
G1 X-4.3475 Y0.4038
G1 X-4.3451 Y0.4068
G1 X-4.3425 Y0.4095
G1 X-4.3398 Y0.4120
G1 X-4.3368 Y0.4143
G1 X-4.3336 Y0.4164
G1 X-4.3302 Y0.4184
G1 X-4.3266 Y0.4204
G1 X-4.3229 Y0.4222
G1 X-4.3148 Y0.4254
G1 X-4.3060 Y0.4280
G1 X-4.3014 Y0.4292
G1 X-4.2965 Y0.4302
G1 X-4.2863 Y0.4318
G1 X-4.2753 Y0.4328
G1 X-4.2637 Y0.4334
G1 X-4.1691 Y0.4334
G1 Y1.0278
G1 X-4.2575
G1 X-4.2699 Y1.0281
G1 X-4.2815 Y1.0290
G1 X-4.2870 Y1.0297
G1 X-4.2974 Y1.0315
G1 X-4.3070 Y1.0339
G1 X-4.3116 Y1.0353
G1 X-4.3159 Y1.0369
G1 X-4.3200 Y1.0387
G1 X-4.3239 Y1.0406
G1 X-4.3276 Y1.0426
G1 X-4.3311 Y1.0448
G1 X-4.3344 Y1.0472
G1 X-4.3375 Y1.0497
G1 X-4.3404 Y1.0523
G1 X-4.3431 Y1.0551
G1 X-4.3456 Y1.0581
G1 X-4.3479 Y1.0612
G1 X-4.3500 Y1.0644
G1 X-4.3519 Y1.0678
G1 X-4.3536 Y1.0714
G1 X-4.3551 Y1.0751
G1 X-4.3564 Y1.0790
G1 X-4.3575 Y1.0830
G1 X-4.3584 Y1.0872
G1 X-4.3591 Y1.0915
G1 X-4.3596 Y1.0959
G1 X-4.3599 Y1.1006
G1 X-4.3600 Y1.1053
G1 X-4.3599 Y1.1109
G1 X-4.3595 Y1.1161
G1 X-4.3590 Y1.1212
G1 X-4.3583 Y1.1260
G1 X-4.3574 Y1.1306
G1 X-4.3562 Y1.1349
G1 X-4.3549 Y1.1391
G1 X-4.3534 Y1.1430
G1 X-4.3516 Y1.1466
G1 X-4.3497 Y1.1501
G1 X-4.3475 Y1.1533
G1 X-4.3451 Y1.1563
G1 X-4.3425 Y1.1590
G1 X-4.3398 Y1.1615
G1 X-4.3368 Y1.1638
G1 X-4.3302 Y1.1679
G1 X-4.3266 Y1.1699
G1 X-4.3229 Y1.1717
G1 X-4.3148 Y1.1749
G1 X-4.3060 Y1.1775
G1 X-4.3014 Y1.1787
G1 X-4.2965 Y1.1797
G1 X-4.2863 Y1.1813
G1 X-4.2753 Y1.1823
G1 X-4.2637 Y1.1829
G1 X-4.2575 Y1.1829
G1 X-3.9255
G1 X-3.9131 Y1.1826
G1 X-3.9015 Y1.1817
G1 X-3.8907 Y1.1802
G1 X-3.8856 Y1.1792
G1 X-3.8760 Y1.1768
G1 X-3.8715 Y1.1754
G1 X-3.8672 Y1.1738
G1 X-3.8631 Y1.1720
G1 X-3.8592 Y1.1701
G1 X-3.8555 Y1.1681
G1 X-3.8520 Y1.1659
G1 X-3.8487 Y1.1635
G1 X-3.8456 Y1.1610
G1 X-3.8427 Y1.1584
G1 X-3.8400 Y1.1556
G1 X-3.8375 Y1.1526
G1 X-3.8352 Y1.1495
G1 X-3.8331 Y1.1463
G1 X-3.8312 Y1.1428
G1 X-3.8295 Y1.1393
G1 X-3.8280 Y1.1356
G1 X-3.8267 Y1.1317
G1 X-3.8256 Y1.1277
G1 X-3.8247 Y1.1235
G1 X-3.8240 Y1.1192
G1 X-3.8235 Y1.1147
G1 X-3.8232 Y1.1101
G1 X-3.8231 Y1.1053
G1 X-3.8232 Y1.1006
G1 X-3.8235 Y1.0959
G1 X-3.8240 Y1.0915
G1 X-3.8247 Y1.0872
G1 X-3.8256 Y1.0830
G1 X-3.8267 Y1.0790
G1 X-3.8280 Y1.0751
G1 X-3.8295 Y1.0714
G1 X-3.8312 Y1.0678
G1 X-3.8331 Y1.0644
G1 X-3.8352 Y1.0612
G1 X-3.8375 Y1.0581
G1 X-3.8400 Y1.0551
G1 X-3.8427 Y1.0523
G1 X-3.8456 Y1.0497
G1 X-3.8487 Y1.0472
G1 X-3.8520 Y1.0448
G1 X-3.8555 Y1.0426
G1 X-3.8592 Y1.0406
G1 X-3.8631 Y1.0387
G1 X-3.8672 Y1.0369
G1 X-3.8715 Y1.0353
G1 X-3.8760 Y1.0339
G1 X-3.8856 Y1.0315
G1 X-3.8960 Y1.0297
G1 X-3.9015 Y1.0290
G1 X-3.9131 Y1.0281
G1 X-3.9255 Y1.0278
G1 X-4.0139
G1 Y0.4334
G1 X-3.6803
G1 Y0.5762
G1 X-3.6800 Y0.5888
G1 X-3.6791 Y0.6006
G1 X-3.6784 Y0.6062
G1 X-3.6766 Y0.6167
G1 X-3.6742 Y0.6265
G1 X-3.6727 Y0.6310
G1 X-3.6711 Y0.6354
G1 X-3.6694 Y0.6396
G1 X-3.6675 Y0.6435
G1 X-3.6655 Y0.6473
G1 X-3.6633 Y0.6508
G1 X-3.6609 Y0.6542
G1 X-3.6584 Y0.6573
G1 X-3.6558 Y0.6603
G1 X-3.6529 Y0.6630
G1 X-3.6500 Y0.6656
G1 X-3.6469 Y0.6679
G1 X-3.6436 Y0.6700
G1 X-3.6402 Y0.6719
G1 X-3.6367 Y0.6737
G1 X-3.6329 Y0.6752
G1 X-3.6291 Y0.6765
G1 X-3.6251 Y0.6776
G1 X-3.6209 Y0.6785
G1 X-3.6166 Y0.6793
G1 X-3.6121 Y0.6798
G1 X-3.6075 Y0.6801
G1 X-3.6027 Y0.6802
G0 Z0.2500
M1
(MSG, CUTTING THE LETTER i)
G0 X-2.7594 Y1.2450
G1 Z-0.0050  F#<PLUNGE>
G1 X-2.7594 Y1.2450 F#<FEED>
G1 Y1.0821
G1 X-2.9425
G1 Y1.2450
G1 X-2.7594
G0 Z0.2500
G0 X-2.5483 Y0.4334
G1 Z-0.0050  F#<PLUNGE>
G1 X-2.5483 Y0.4334 F#<FEED>
G1 X-2.5359 Y0.4331
G1 X-2.5243 Y0.4322
G1 X-2.5188 Y0.4316
G1 X-2.5084 Y0.4297
G1 X-2.4988 Y0.4273
G1 X-2.4943 Y0.4259
G1 X-2.4900 Y0.4243
G1 X-2.4859 Y0.4225
G1 X-2.4820 Y0.4206
G1 X-2.4783 Y0.4186
G1 X-2.4748 Y0.4164
G1 X-2.4715 Y0.4141
G1 X-2.4684 Y0.4116
G1 X-2.4655 Y0.4089
G1 X-2.4628 Y0.4061
G1 X-2.4603 Y0.4031
G1 X-2.4580 Y0.4000
G1 X-2.4559 Y0.3968
G1 X-2.4540 Y0.3934
G1 X-2.4523 Y0.3898
G1 X-2.4508 Y0.3861
G1 X-2.4495 Y0.3822
G1 X-2.4484 Y0.3782
G1 X-2.4475 Y0.3740
G1 X-2.4468 Y0.3697
G1 X-2.4463 Y0.3653
G1 X-2.4460 Y0.3606
G1 X-2.4459 Y0.3559
G1 X-2.4460 Y0.3511
G1 X-2.4463 Y0.3465
G1 X-2.4468 Y0.3420
G1 X-2.4475 Y0.3377
G1 X-2.4484 Y0.3335
G1 X-2.4495 Y0.3295
G1 X-2.4508 Y0.3256
G1 X-2.4523 Y0.3219
G1 X-2.4540 Y0.3184
G1 X-2.4559 Y0.3149
G1 X-2.4580 Y0.3117
G1 X-2.4603 Y0.3086
G1 X-2.4628 Y0.3056
G1 X-2.4655 Y0.3028
G1 X-2.4684 Y0.3002
G1 X-2.4715 Y0.2977
G1 X-2.4748 Y0.2953
G1 X-2.4783 Y0.2931
G1 X-2.4820 Y0.2911
G1 X-2.4859 Y0.2892
G1 X-2.4900 Y0.2874
G1 X-2.4943 Y0.2859
G1 X-2.4988 Y0.2844
G1 X-2.5035 Y0.2831
G1 X-2.5084 Y0.2820
G1 X-2.5188 Y0.2802
G1 X-2.5243 Y0.2795
G1 X-2.5359 Y0.2786
G1 X-2.5483 Y0.2783
G1 X-3.0821
G1 X-3.0945 Y0.2786
G1 X-3.1061 Y0.2795
G1 X-3.1116 Y0.2802
G1 X-3.1220 Y0.2820
G1 X-3.1316 Y0.2844
G1 X-3.1361 Y0.2859
G1 X-3.1404 Y0.2874
G1 X-3.1445 Y0.2892
G1 X-3.1484 Y0.2911
G1 X-3.1521 Y0.2931
G1 X-3.1556 Y0.2953
G1 X-3.1589 Y0.2977
G1 X-3.1620 Y0.3002
G1 X-3.1649 Y0.3028
G1 X-3.1676 Y0.3056
G1 X-3.1701 Y0.3086
G1 X-3.1724 Y0.3117
G1 X-3.1745 Y0.3149
G1 X-3.1764 Y0.3184
G1 X-3.1781 Y0.3219
G1 X-3.1796 Y0.3256
G1 X-3.1809 Y0.3295
G1 X-3.1820 Y0.3335
G1 X-3.1829 Y0.3377
G1 X-3.1836 Y0.3420
G1 X-3.1841 Y0.3465
G1 X-3.1844 Y0.3511
G1 X-3.1845 Y0.3559
G1 X-3.1844 Y0.3614
G1 X-3.1841 Y0.3667
G1 X-3.1836 Y0.3717
G1 X-3.1829 Y0.3765
G1 X-3.1819 Y0.3811
G1 X-3.1808 Y0.3855
G1 X-3.1795 Y0.3896
G1 X-3.1779 Y0.3935
G1 X-3.1762 Y0.3972
G1 X-3.1742 Y0.4006
G1 X-3.1721 Y0.4038
G1 X-3.1697 Y0.4068
G1 X-3.1671 Y0.4095
G1 X-3.1643 Y0.4120
G1 X-3.1613 Y0.4143
G1 X-3.1581 Y0.4164
G1 X-3.1548 Y0.4184
G1 X-3.1512 Y0.4204
G1 X-3.1474 Y0.4222
G1 X-3.1394 Y0.4254
G1 X-3.1306 Y0.4280
G1 X-3.1211 Y0.4302
G1 X-3.1109 Y0.4318
G1 X-3.0999 Y0.4328
G1 X-3.0882 Y0.4334
G1 X-3.0821 Y0.4334
G1 X-2.8928
G1 Y0.8012
G1 X-3.0138
G1 X-3.0264 Y0.8015
G1 X-3.0382 Y0.8024
G1 X-3.0492 Y0.8039
G1 X-3.0593 Y0.8061
G1 X-3.0641 Y0.8073
G1 X-3.0687 Y0.8088
G1 X-3.0730 Y0.8104
G1 X-3.0772 Y0.8121
G1 X-3.0811 Y0.8140
G1 X-3.0849 Y0.8161
G1 X-3.0885 Y0.8183
G1 X-3.0918 Y0.8206
G1 X-3.0950 Y0.8231
G1 X-3.0979 Y0.8258
G1 X-3.1006 Y0.8286
G1 X-3.1032 Y0.8315
G1 X-3.1055 Y0.8346
G1 X-3.1076 Y0.8379
G1 X-3.1096 Y0.8413
G1 X-3.1113 Y0.8448
G1 X-3.1128 Y0.8486
G1 X-3.1141 Y0.8524
G1 X-3.1153 Y0.8564
G1 X-3.1162 Y0.8606
G1 X-3.1169 Y0.8649
G1 X-3.1174 Y0.8694
G1 X-3.1177 Y0.8740
G1 X-3.1178 Y0.8788
G1 X-3.1177 Y0.8845
G1 X-3.1174 Y0.8899
G1 X-3.1169 Y0.8952
G1 X-3.1162 Y0.9001
G1 X-3.1152 Y0.9049
G1 X-3.1141 Y0.9093
G1 X-3.1128 Y0.9136
G1 X-3.1112 Y0.9176
G1 X-3.1095 Y0.9213
G1 X-3.1075 Y0.9249
G1 X-3.1053 Y0.9281
G1 X-3.1030 Y0.9312
G1 X-3.1004 Y0.9340
G1 X-3.0976 Y0.9365
G1 X-3.0946 Y0.9388
G1 X-3.0914 Y0.9409
G1 X-3.0841 Y0.9445
G1 X-3.0761 Y0.9477
G1 X-3.0674 Y0.9503
G1 X-3.0581 Y0.9525
G1 X-3.0480 Y0.9542
G1 X-3.0373 Y0.9554
G1 X-3.0259 Y0.9561
G1 X-3.0138 Y0.9564
G1 X-2.7376
G1 Y0.4334
G1 X-2.5483
G0 Z0.2500
M1
(MSG, CUTTING THE LETTER n)
G0 X-2.0634 Y0.2783
G1 Z-0.0050  F#<PLUNGE>
G1 X-2.0634 Y0.2783 F#<FEED>
G1 X-2.0758 Y0.2786
G1 X-2.0874 Y0.2795
G1 X-2.0929 Y0.2802
G1 X-2.1033 Y0.2820
G1 X-2.1129 Y0.2844
G1 X-2.1174 Y0.2859
G1 X-2.1217 Y0.2874
G1 X-2.1258 Y0.2892
G1 X-2.1297 Y0.2911
G1 X-2.1334 Y0.2931
G1 X-2.1369 Y0.2953
G1 X-2.1402 Y0.2977
G1 X-2.1433 Y0.3002
G1 X-2.1462 Y0.3028
G1 X-2.1489 Y0.3056
G1 X-2.1514 Y0.3086
G1 X-2.1537 Y0.3117
G1 X-2.1558 Y0.3149
G1 X-2.1577 Y0.3184
G1 X-2.1594 Y0.3219
G1 X-2.1609 Y0.3256
G1 X-2.1622 Y0.3295
G1 X-2.1633 Y0.3335
G1 X-2.1642 Y0.3377
G1 X-2.1649 Y0.3420
G1 X-2.1654 Y0.3465
G1 X-2.1657 Y0.3511
G1 X-2.1658 Y0.3559
G1 X-2.1657 Y0.3606
G1 X-2.1654 Y0.3653
G1 X-2.1649 Y0.3697
G1 X-2.1642 Y0.3740
G1 X-2.1633 Y0.3782
G1 X-2.1622 Y0.3822
G1 X-2.1609 Y0.3861
G1 X-2.1594 Y0.3898
G1 X-2.1577 Y0.3934
G1 X-2.1558 Y0.3968
G1 X-2.1537 Y0.4000
G1 X-2.1514 Y0.4031
G1 X-2.1489 Y0.4061
G1 X-2.1462 Y0.4089
G1 X-2.1433 Y0.4116
G1 X-2.1402 Y0.4141
G1 X-2.1369 Y0.4164
G1 X-2.1334 Y0.4186
G1 X-2.1297 Y0.4206
G1 X-2.1258 Y0.4225
G1 X-2.1217 Y0.4243
G1 X-2.1174 Y0.4259
G1 X-2.1129 Y0.4273
G1 X-2.1033 Y0.4297
G1 X-2.0929 Y0.4316
G1 X-2.0874 Y0.4322
G1 X-2.0758 Y0.4331
G1 X-2.0634 Y0.4334
G1 X-2.0541
G1 Y0.8012
G1 X-2.0656 Y0.8019
G1 X-2.0763 Y0.8031
G1 X-2.0814 Y0.8039
G1 X-2.0910 Y0.8060
G1 X-2.0955 Y0.8072
G1 X-2.0999 Y0.8086
G1 X-2.1080 Y0.8118
G1 X-2.1118 Y0.8136
G1 X-2.1154 Y0.8155
G1 X-2.1188 Y0.8176
G1 X-2.1220 Y0.8198
G1 X-2.1251 Y0.8222
G1 X-2.1280 Y0.8246
G1 X-2.1306 Y0.8273
G1 X-2.1331 Y0.8301
G1 X-2.1354 Y0.8330
G1 X-2.1376 Y0.8360
G1 X-2.1395 Y0.8392
G1 X-2.1413 Y0.8425
G1 X-2.1428 Y0.8460
G1 X-2.1442 Y0.8496
G1 X-2.1454 Y0.8534
G1 X-2.1464 Y0.8573
G1 X-2.1473 Y0.8613
G1 X-2.1479 Y0.8655
G1 X-2.1484 Y0.8698
G1 X-2.1487 Y0.8788
G1 X-2.1486 Y0.8836
G1 X-2.1483 Y0.8882
G1 X-2.1478 Y0.8927
G1 X-2.1471 Y0.8970
G1 X-2.1462 Y0.9011
G1 X-2.1451 Y0.9052
G1 X-2.1438 Y0.9090
G1 X-2.1423 Y0.9127
G1 X-2.1405 Y0.9163
G1 X-2.1386 Y0.9197
G1 X-2.1365 Y0.9230
G1 X-2.1341 Y0.9261
G1 X-2.1316 Y0.9290
G1 X-2.1289 Y0.9318
G1 X-2.1259 Y0.9345
G1 X-2.1228 Y0.9370
G1 X-2.1194 Y0.9393
G1 X-2.1159 Y0.9415
G1 X-2.1121 Y0.9436
G1 X-2.1081 Y0.9455
G1 X-2.1040 Y0.9472
G1 X-2.0996 Y0.9488
G1 X-2.0950 Y0.9502
G1 X-2.0853 Y0.9527
G1 X-2.0747 Y0.9545
G1 X-2.0692 Y0.9552
G1 X-2.0574 Y0.9561
G1 X-2.0448 Y0.9564
G1 X-1.8989
G1 Y0.8819
G1 X-1.8851 Y0.8946
G1 X-1.8716 Y0.9062
G1 X-1.8583 Y0.9169
G1 X-1.8454 Y0.9265
G1 X-1.8327 Y0.9351
G1 X-1.8204 Y0.9427
G1 X-1.8083 Y0.9493
G1 X-1.7965 Y0.9548
G1 X-1.7846 Y0.9599
G1 X-1.7722 Y0.9643
G1 X-1.7592 Y0.9681
G1 X-1.7457 Y0.9711
G1 X-1.7317 Y0.9735
G1 X-1.7171 Y0.9752
G1 X-1.7020 Y0.9762
G1 X-1.6863 Y0.9766
G1 X-1.6568 Y0.9755
G1 X-1.6425 Y0.9742
G1 X-1.6285 Y0.9723
G1 X-1.6149 Y0.9699
G1 X-1.6017 Y0.9670
G1 X-1.5887 Y0.9635
G1 X-1.5762 Y0.9595
G1 X-1.5639 Y0.9549
G1 X-1.5520 Y0.9499
G1 X-1.5404 Y0.9443
G1 X-1.5292 Y0.9381
G1 X-1.5183 Y0.9315
G1 X-1.5078 Y0.9243
G1 X-1.4976 Y0.9165
G1 X-1.4877 Y0.9083
G1 X-1.4783 Y0.8995
G1 X-1.4695 Y0.8903
G1 X-1.4613 Y0.8807
G1 X-1.4538 Y0.8706
G1 X-1.4468 Y0.8601
G1 X-1.4404 Y0.8492
G1 X-1.4347 Y0.8378
G1 X-1.4295 Y0.8260
G1 X-1.4250 Y0.8138
G1 X-1.4210 Y0.8011
G1 X-1.4177 Y0.7880
G1 X-1.4150 Y0.7744
G1 X-1.4129 Y0.7604
G1 X-1.4113 Y0.7460
G1 X-1.4104 Y0.7312
G1 X-1.4101 Y0.7159
G1 Y0.4334
G1 X-1.3987 Y0.4331
G1 X-1.3879 Y0.4322
G1 X-1.3829 Y0.4316
G1 X-1.3732 Y0.4297
G1 X-1.3644 Y0.4273
G1 X-1.3602 Y0.4259
G1 X-1.3562 Y0.4243
G1 X-1.3524 Y0.4225
G1 X-1.3488 Y0.4206
G1 X-1.3454 Y0.4186
G1 X-1.3422 Y0.4164
G1 X-1.3391 Y0.4141
G1 X-1.3363 Y0.4116
G1 X-1.3336 Y0.4089
G1 X-1.3311 Y0.4061
G1 X-1.3288 Y0.4031
G1 X-1.3267 Y0.4000
G1 X-1.3247 Y0.3968
G1 X-1.3230 Y0.3934
G1 X-1.3214 Y0.3898
G1 X-1.3200 Y0.3861
G1 X-1.3188 Y0.3822
G1 X-1.3178 Y0.3782
G1 X-1.3170 Y0.3740
G1 X-1.3163 Y0.3697
G1 X-1.3158 Y0.3653
G1 X-1.3155 Y0.3559
G1 X-1.3156 Y0.3511
G1 X-1.3159 Y0.3465
G1 X-1.3164 Y0.3420
G1 X-1.3171 Y0.3377
G1 X-1.3180 Y0.3335
G1 X-1.3191 Y0.3295
G1 X-1.3204 Y0.3256
G1 X-1.3219 Y0.3219
G1 X-1.3236 Y0.3184
G1 X-1.3255 Y0.3149
G1 X-1.3276 Y0.3117
G1 X-1.3299 Y0.3086
G1 X-1.3324 Y0.3056
G1 X-1.3351 Y0.3028
G1 X-1.3380 Y0.3002
G1 X-1.3411 Y0.2977
G1 X-1.3444 Y0.2953
G1 X-1.3479 Y0.2931
G1 X-1.3516 Y0.2911
G1 X-1.3555 Y0.2892
G1 X-1.3596 Y0.2874
G1 X-1.3639 Y0.2859
G1 X-1.3684 Y0.2844
G1 X-1.3780 Y0.2820
G1 X-1.3884 Y0.2802
G1 X-1.3939 Y0.2795
G1 X-1.4055 Y0.2786
G1 X-1.4179 Y0.2783
G1 X-1.5560
G1 X-1.5686 Y0.2786
G1 X-1.5804 Y0.2795
G1 X-1.5859 Y0.2802
G1 X-1.5965 Y0.2820
G1 X-1.6062 Y0.2844
G1 X-1.6108 Y0.2859
G1 X-1.6152 Y0.2874
G1 X-1.6193 Y0.2892
G1 X-1.6233 Y0.2911
G1 X-1.6271 Y0.2931
G1 X-1.6306 Y0.2953
G1 X-1.6340 Y0.2977
G1 X-1.6371 Y0.3002
G1 X-1.6401 Y0.3028
G1 X-1.6428 Y0.3056
G1 X-1.6453 Y0.3086
G1 X-1.6477 Y0.3117
G1 X-1.6498 Y0.3149
G1 X-1.6517 Y0.3184
G1 X-1.6535 Y0.3219
G1 X-1.6550 Y0.3256
G1 X-1.6563 Y0.3295
G1 X-1.6574 Y0.3335
G1 X-1.6583 Y0.3377
G1 X-1.6590 Y0.3420
G1 X-1.6596 Y0.3465
G1 X-1.6599 Y0.3511
G1 X-1.6600 Y0.3559
G1 X-1.6596 Y0.3653
G1 X-1.6591 Y0.3697
G1 X-1.6585 Y0.3740
G1 X-1.6576 Y0.3782
G1 X-1.6566 Y0.3822
G1 X-1.6554 Y0.3861
G1 X-1.6540 Y0.3898
G1 X-1.6525 Y0.3934
G1 X-1.6507 Y0.3968
G1 X-1.6488 Y0.4000
G1 X-1.6466 Y0.4031
G1 X-1.6443 Y0.4061
G1 X-1.6418 Y0.4089
G1 X-1.6392 Y0.4116
G1 X-1.6363 Y0.4141
G1 X-1.6332 Y0.4164
G1 X-1.6300 Y0.4186
G1 X-1.6266 Y0.4206
G1 X-1.6230 Y0.4225
G1 X-1.6192 Y0.4243
G1 X-1.6152 Y0.4259
G1 X-1.6111 Y0.4273
G1 X-1.6067 Y0.4286
G1 X-1.6022 Y0.4297
G1 X-1.5926 Y0.4316
G1 X-1.5822 Y0.4328
G1 X-1.5711 Y0.4334
G1 X-1.5653 Y0.4334
G1 Y0.7097
G1 X-1.5654 Y0.7165
G1 X-1.5658 Y0.7232
G1 X-1.5665 Y0.7296
G1 X-1.5675 Y0.7358
G1 X-1.5687 Y0.7418
G1 X-1.5702 Y0.7476
G1 X-1.5720 Y0.7532
G1 X-1.5740 Y0.7585
G1 X-1.5763 Y0.7637
G1 X-1.5789 Y0.7686
G1 X-1.5818 Y0.7733
G1 X-1.5849 Y0.7777
G1 X-1.5884 Y0.7820
G1 X-1.5920 Y0.7860
G1 X-1.5960 Y0.7898
G1 X-1.6002 Y0.7934
G1 X-1.6047 Y0.7968
G1 X-1.6095 Y0.8000
G1 X-1.6145 Y0.8029
G1 X-1.6199 Y0.8057
G1 X-1.6254 Y0.8082
G1 X-1.6313 Y0.8105
G1 X-1.6374 Y0.8125
G1 X-1.6439 Y0.8144
G1 X-1.6505 Y0.8160
G1 X-1.6575 Y0.8175
G1 X-1.6647 Y0.8187
G1 X-1.6722 Y0.8196
G1 X-1.6800 Y0.8204
G1 X-1.6964 Y0.8213
G1 X-1.7050 Y0.8214
G1 X-1.7184 Y0.8210
G1 X-1.7314 Y0.8199
G1 X-1.7442 Y0.8181
G1 X-1.7566 Y0.8156
G1 X-1.7686 Y0.8123
G1 X-1.7803 Y0.8083
G1 X-1.7917 Y0.8036
G1 X-1.8027 Y0.7981
G1 X-1.8080 Y0.7951
G1 X-1.8189 Y0.7881
G1 X-1.8301 Y0.7801
G1 X-1.8418 Y0.7709
G1 X-1.8538 Y0.7606
G1 X-1.8662 Y0.7492
G1 X-1.8790 Y0.7367
G1 X-1.8922 Y0.7231
G1 X-1.8989 Y0.7159
G1 Y0.4334
G1 X-1.8896
G1 X-1.8772 Y0.4331
G1 X-1.8656 Y0.4322
G1 X-1.8601 Y0.4316
G1 X-1.8497 Y0.4297
G1 X-1.8401 Y0.4273
G1 X-1.8356 Y0.4259
G1 X-1.8313 Y0.4243
G1 X-1.8272 Y0.4225
G1 X-1.8233 Y0.4206
G1 X-1.8196 Y0.4186
G1 X-1.8161 Y0.4164
G1 X-1.8128 Y0.4141
G1 X-1.8097 Y0.4116
G1 X-1.8068 Y0.4089
G1 X-1.8041 Y0.4061
G1 X-1.8016 Y0.4031
G1 X-1.7993 Y0.4000
G1 X-1.7972 Y0.3968
G1 X-1.7953 Y0.3934
G1 X-1.7936 Y0.3898
G1 X-1.7921 Y0.3861
G1 X-1.7908 Y0.3822
G1 X-1.7897 Y0.3782
G1 X-1.7888 Y0.3740
G1 X-1.7881 Y0.3697
G1 X-1.7876 Y0.3653
G1 X-1.7873 Y0.3606
G1 X-1.7872 Y0.3559
G1 X-1.7873 Y0.3511
G1 X-1.7876 Y0.3465
G1 X-1.7881 Y0.3420
G1 X-1.7888 Y0.3377
G1 X-1.7897 Y0.3335
G1 X-1.7908 Y0.3295
G1 X-1.7921 Y0.3256
G1 X-1.7936 Y0.3219
G1 X-1.7953 Y0.3184
G1 X-1.7972 Y0.3149
G1 X-1.7993 Y0.3117
G1 X-1.8016 Y0.3086
G1 X-1.8041 Y0.3056
G1 X-1.8068 Y0.3028
G1 X-1.8097 Y0.3002
G1 X-1.8128 Y0.2977
G1 X-1.8161 Y0.2953
G1 X-1.8196 Y0.2931
G1 X-1.8233 Y0.2911
G1 X-1.8272 Y0.2892
G1 X-1.8313 Y0.2874
G1 X-1.8356 Y0.2859
G1 X-1.8401 Y0.2844
G1 X-1.8448 Y0.2831
G1 X-1.8548 Y0.2810
G1 X-1.8656 Y0.2795
G1 X-1.8772 Y0.2786
G1 X-1.8896 Y0.2783
G1 X-2.0634
G0 Z0.2500
M1

(MSG, CUTTING THE LETTER u)
G0 X-0.5047 Y0.8012
G1 Z-0.0050  F#<PLUNGE>
G1 X-0.5047 Y0.8012 F#<FEED>
G1 X-0.5104 Y0.8013
G1 X-0.5212 Y0.8020
G1 X-0.5263 Y0.8027
G1 X-0.5312 Y0.8035
G1 X-0.5359 Y0.8045
G1 X-0.5404 Y0.8057
G1 X-0.5447 Y0.8070
G1 X-0.5487 Y0.8086
G1 X-0.5526 Y0.8103
G1 X-0.5562 Y0.8122
G1 X-0.5597 Y0.8143
G1 X-0.5629 Y0.8166
G1 X-0.5660 Y0.8190
G1 X-0.5688 Y0.8217
G1 X-0.5714 Y0.8245
G1 X-0.5762 Y0.8308
G1 X-0.5802 Y0.8372
G1 X-0.5837 Y0.8438
G1 X-0.5852 Y0.8471
G1 X-0.5877 Y0.8539
G1 X-0.5888 Y0.8573
G1 X-0.5903 Y0.8643
G1 X-0.5913 Y0.8715
G1 X-0.5916 Y0.8788
G1 X-0.5915 Y0.8836
G1 X-0.5912 Y0.8882
G1 X-0.5907 Y0.8927
G1 X-0.5900 Y0.8970
G1 X-0.5891 Y0.9011
G1 X-0.5880 Y0.9052
G1 X-0.5867 Y0.9090
G1 X-0.5852 Y0.9127
G1 X-0.5835 Y0.9163
G1 X-0.5816 Y0.9197
G1 X-0.5795 Y0.9230
G1 X-0.5772 Y0.9261
G1 X-0.5747 Y0.9290
G1 X-0.5720 Y0.9318
G1 X-0.5691 Y0.9345
G1 X-0.5660 Y0.9370
G1 X-0.5627 Y0.9393
G1 X-0.5592 Y0.9415
G1 X-0.5555 Y0.9436
G1 X-0.5516 Y0.9455
G1 X-0.5475 Y0.9472
G1 X-0.5432 Y0.9488
G1 X-0.5387 Y0.9502
G1 X-0.5340 Y0.9515
G1 X-0.5240 Y0.9537
G1 X-0.5132 Y0.9552
G1 X-0.5016 Y0.9561
G1 X-0.4892 Y0.9564
G1 X-0.2797
G1 Y0.4334
G1 X-0.2682 Y0.4331
G1 X-0.2575 Y0.4322
G1 X-0.2524 Y0.4316
G1 X-0.2428 Y0.4297
G1 X-0.2339 Y0.4273
G1 X-0.2298 Y0.4259
G1 X-0.2258 Y0.4243
G1 X-0.2220 Y0.4225
G1 X-0.2184 Y0.4206
G1 X-0.2150 Y0.4186
G1 X-0.2118 Y0.4164
G1 X-0.2087 Y0.4141
G1 X-0.2058 Y0.4116
G1 X-0.2032 Y0.4089
G1 X-0.2007 Y0.4061
G1 X-0.1984 Y0.4031
G1 X-0.1962 Y0.4000
G1 X-0.1943 Y0.3968
G1 X-0.1925 Y0.3934
G1 X-0.1910 Y0.3898
G1 X-0.1896 Y0.3861
G1 X-0.1884 Y0.3822
G1 X-0.1874 Y0.3782
G1 X-0.1865 Y0.3740
G1 X-0.1859 Y0.3697
G1 X-0.1854 Y0.3653
G1 X-0.1851 Y0.3606
G1 X-0.1851 Y0.3511
G1 X-0.1854 Y0.3465
G1 X-0.1859 Y0.3420
G1 X-0.1866 Y0.3377
G1 X-0.1875 Y0.3335
G1 X-0.1886 Y0.3295
G1 X-0.1899 Y0.3256
G1 X-0.1914 Y0.3219
G1 X-0.1931 Y0.3184
G1 X-0.1950 Y0.3149
G1 X-0.1971 Y0.3117
G1 X-0.1994 Y0.3086
G1 X-0.2019 Y0.3056
G1 X-0.2046 Y0.3028
G1 X-0.2075 Y0.3002
G1 X-0.2106 Y0.2977
G1 X-0.2139 Y0.2953
G1 X-0.2174 Y0.2931
G1 X-0.2211 Y0.2911
G1 X-0.2250 Y0.2892
G1 X-0.2291 Y0.2874
G1 X-0.2334 Y0.2859
G1 X-0.2380 Y0.2844
G1 X-0.2476 Y0.2820
G1 X-0.2580 Y0.2802
G1 X-0.2635 Y0.2795
G1 X-0.2751 Y0.2786
G1 X-0.2875 Y0.2783
G1 X-0.4349
G1 Y0.3528
G1 X-0.4491 Y0.3397
G1 X-0.4629 Y0.3277
G1 X-0.4764 Y0.3168
G1 X-0.4896 Y0.3070
G1 X-0.5024 Y0.2982
G1 X-0.5149 Y0.2905
G1 X-0.5270 Y0.2839
G1 X-0.5388 Y0.2783
G1 X-0.5504 Y0.2735
G1 X-0.5625 Y0.2695
G1 X-0.5752 Y0.2660
G1 X-0.5885 Y0.2631
G1 X-0.6024 Y0.2609
G1 X-0.6168 Y0.2594
G1 X-0.6318 Y0.2584
G1 X-0.6475 Y0.2581
G1 X-0.6774 Y0.2592
G1 X-0.6918 Y0.2605
G1 X-0.7059 Y0.2624
G1 X-0.7197 Y0.2648
G1 X-0.7331 Y0.2677
G1 X-0.7461 Y0.2712
G1 X-0.7588 Y0.2752
G1 X-0.7711 Y0.2797
G1 X-0.7831 Y0.2848
G1 X-0.7947 Y0.2904
G1 X-0.8060 Y0.2965
G1 X-0.8170 Y0.3032
G1 X-0.8275 Y0.3104
G1 X-0.8378 Y0.3181
G1 X-0.8476 Y0.3264
G1 X-0.8568 Y0.3353
G1 X-0.8654 Y0.3447
G1 X-0.8735 Y0.3545
G1 X-0.8809 Y0.3647
G1 X-0.8877 Y0.3753
G1 X-0.8940 Y0.3864
G1 X-0.8996 Y0.3979
G1 X-0.9047 Y0.4098
G1 X-0.9091 Y0.4221
G1 X-0.9130 Y0.4349
G1 X-0.9162 Y0.4481
G1 X-0.9189 Y0.4617
G1 X-0.9210 Y0.4757
G1 X-0.9225 Y0.4902
G1 X-0.9234 Y0.5050
G1 X-0.9237 Y0.5203
G1 Y0.8012
G1 X-0.9703 Y0.8013
G1 X-0.9796 Y0.8020
G1 X-0.9883 Y0.8033
G1 X-0.9925 Y0.8043
G1 X-1.0005 Y0.8066
G1 X-1.0043 Y0.8081
G1 X-1.0080 Y0.8097
G1 X-1.0116 Y0.8115
G1 X-1.0150 Y0.8134
G1 X-1.0184 Y0.8155
G1 X-1.0216 Y0.8178
G1 X-1.0247 Y0.8203
G1 X-1.0276 Y0.8229
G1 X-1.0304 Y0.8257
G1 X-1.0331 Y0.8286
G1 X-1.0355 Y0.8315
G1 X-1.0378 Y0.8346
G1 X-1.0399 Y0.8377
G1 X-1.0418 Y0.8410
G1 X-1.0435 Y0.8443
G1 X-1.0451 Y0.8478
G1 X-1.0465 Y0.8513
G1 X-1.0476 Y0.8549
G1 X-1.0486 Y0.8587
G1 X-1.0501 Y0.8664
G1 X-1.0505 Y0.8705
G1 X-1.0509 Y0.8788
G1 X-1.0508 Y0.8843
G1 X-1.0505 Y0.8896
G1 X-1.0500 Y0.8946
G1 X-1.0493 Y0.8995
G1 X-1.0483 Y0.9040
G1 X-1.0472 Y0.9084
G1 X-1.0459 Y0.9125
G1 X-1.0443 Y0.9164
G1 X-1.0426 Y0.9201
G1 X-1.0406 Y0.9235
G1 X-1.0384 Y0.9267
G1 X-1.0361 Y0.9297
G1 X-1.0335 Y0.9325
G1 X-1.0307 Y0.9350
G1 X-1.0277 Y0.9373
G1 X-1.0245 Y0.9393
G1 X-1.0211 Y0.9414
G1 X-1.0176 Y0.9433
G1 X-1.0099 Y0.9468
G1 X-1.0015 Y0.9497
G1 X-0.9923 Y0.9521
G1 X-0.9875 Y0.9531
G1 X-0.9773 Y0.9547
G1 X-0.9663 Y0.9558
G1 X-0.9546 Y0.9563
G1 X-0.9485 Y0.9564
G1 X-0.7685
G1 Y0.5250
G1 X-0.7684 Y0.5181
G1 X-0.7680 Y0.5115
G1 X-0.7673 Y0.5050
G1 X-0.7664 Y0.4988
G1 X-0.7652 Y0.4928
G1 X-0.7637 Y0.4870
G1 X-0.7620 Y0.4815
G1 X-0.7600 Y0.4761
G1 X-0.7577 Y0.4710
G1 X-0.7552 Y0.4661
G1 X-0.7524 Y0.4614
G1 X-0.7493 Y0.4569
G1 X-0.7460 Y0.4527
G1 X-0.7424 Y0.4486
G1 X-0.7385 Y0.4448
G1 X-0.7344 Y0.4412
G1 X-0.7300 Y0.4378
G1 X-0.7253 Y0.4347
G1 X-0.7204 Y0.4317
G1 X-0.7152 Y0.4290
G1 X-0.7097 Y0.4265
G1 X-0.7039 Y0.4242
G1 X-0.6979 Y0.4221
G1 X-0.6917 Y0.4203
G1 X-0.6851 Y0.4186
G1 X-0.6783 Y0.4172
G1 X-0.6713 Y0.4160
G1 X-0.6639 Y0.4150
G1 X-0.6563 Y0.4143
G1 X-0.6403 Y0.4134
G1 X-0.6319 Y0.4133
G1 X-0.6175 Y0.4136
G1 X-0.6037 Y0.4145
G1 X-0.5906 Y0.4161
G1 X-0.5780 Y0.4183
G1 X-0.5661 Y0.4212
G1 X-0.5548 Y0.4246
G1 X-0.5442 Y0.4287
G1 X-0.5342 Y0.4334
G1 X-0.5241 Y0.4395
G1 X-0.5134 Y0.4469
G1 X-0.5078 Y0.4511
G1 X-0.4961 Y0.4605
G1 X-0.4900 Y0.4656
G1 X-0.4772 Y0.4770
G1 X-0.4638 Y0.4896
G1 X-0.4497 Y0.5035
G1 X-0.4349 Y0.5188
G1 Y0.8012
G1 X-0.4892
G1 X-0.5047
G0 Z0.2500
M1

(MSG, CUTTING THE LETTER x)
G0 X0.3666 Y0.9564
G1 Z-0.0050  F#<PLUNGE>
G1 X0.3666 Y0.9564 F#<FEED>
G1 X0.3790 Y0.9561
G1 X0.3906 Y0.9552
G1 X0.3961 Y0.9545
G1 X0.4014 Y0.9537
G1 X0.4114 Y0.9516
G1 X0.4161 Y0.9504
G1 X0.4206 Y0.9490
G1 X0.4249 Y0.9474
G1 X0.4290 Y0.9457
G1 X0.4329 Y0.9438
G1 X0.4366 Y0.9418
G1 X0.4401 Y0.9397
G1 X0.4434 Y0.9374
G1 X0.4465 Y0.9349
G1 X0.4494 Y0.9323
G1 X0.4521 Y0.9296
G1 X0.4546 Y0.9267
G1 X0.4569 Y0.9236
G1 X0.4590 Y0.9204
G1 X0.4609 Y0.9171
G1 X0.4626 Y0.9136
G1 X0.4641 Y0.9100
G1 X0.4654 Y0.9062
G1 X0.4665 Y0.9022
G1 X0.4674 Y0.8982
G1 X0.4681 Y0.8939
G1 X0.4686 Y0.8896
G1 X0.4689 Y0.8850
G1 X0.4690 Y0.8803
G1 X0.4689 Y0.8748
G1 X0.4684 Y0.8694
G1 X0.4676 Y0.8641
G1 X0.4665 Y0.8590
G1 X0.4651 Y0.8540
G1 X0.4633 Y0.8492
G1 X0.4613 Y0.8445
G1 X0.4589 Y0.8400
G1 X0.4562 Y0.8356
G1 X0.4532 Y0.8314
G1 X0.4499 Y0.8273
G1 X0.4463 Y0.8233
G1 X0.4424 Y0.8195
G1 X0.4381 Y0.8159
G1 X0.4335 Y0.8123
G1 X0.4287 Y0.8090
G1 X0.5233 Y0.7329
G1 X0.6180 Y0.8105
G1 X0.6131 Y0.8141
G1 X0.6085 Y0.8177
G1 X0.6043 Y0.8214
G1 X0.6003 Y0.8252
G1 X0.5967 Y0.8290
G1 X0.5934 Y0.8330
G1 X0.5904 Y0.8370
G1 X0.5877 Y0.8412
G1 X0.5854 Y0.8454
G1 X0.5833 Y0.8497
G1 X0.5816 Y0.8541
G1 X0.5802 Y0.8585
G1 X0.5790 Y0.8631
G1 X0.5783 Y0.8677
G1 X0.5778 Y0.8724
G1 X0.5776 Y0.8772
G1 X0.5777 Y0.8821
G1 X0.5780 Y0.8868
G1 X0.5785 Y0.8914
G1 X0.5792 Y0.8958
G1 X0.5801 Y0.9000
G1 X0.5812 Y0.9041
G1 X0.5825 Y0.9081
G1 X0.5840 Y0.9119
G1 X0.5857 Y0.9155
G1 X0.5876 Y0.9190
G1 X0.5897 Y0.9223
G1 X0.5920 Y0.9255
G1 X0.5945 Y0.9285
G1 X0.5972 Y0.9313
G1 X0.6001 Y0.9340
G1 X0.6032 Y0.9366
G1 X0.6065 Y0.9390
G1 X0.6100 Y0.9412
G1 X0.6137 Y0.9433
G1 X0.6176 Y0.9453
G1 X0.6217 Y0.9470
G1 X0.6260 Y0.9487
G1 X0.6305 Y0.9501
G1 X0.6352 Y0.9514
G1 X0.6401 Y0.9526
G1 X0.6452 Y0.9536
G1 X0.6560 Y0.9551
G1 X0.6676 Y0.9561
G1 X0.6800 Y0.9564
G1 X0.8212
G1 X0.8338 Y0.9561
G1 X0.8456 Y0.9552
G1 X0.8566 Y0.9537
G1 X0.8667 Y0.9515
G1 X0.8715 Y0.9502
G1 X0.8761 Y0.9488
G1 X0.8804 Y0.9472
G1 X0.8846 Y0.9455
G1 X0.8886 Y0.9436
G1 X0.8923 Y0.9415
G1 X0.8959 Y0.9393
G1 X0.8992 Y0.9370
G1 X0.9024 Y0.9345
G1 X0.9053 Y0.9318
G1 X0.9081 Y0.9290
G1 X0.9106 Y0.9261
G1 X0.9129 Y0.9230
G1 X0.9151 Y0.9197
G1 X0.9170 Y0.9163
G1 X0.9187 Y0.9127
G1 X0.9202 Y0.9090
G1 X0.9216 Y0.9052
G1 X0.9227 Y0.9011
G1 X0.9236 Y0.8970
G1 X0.9243 Y0.8927
G1 X0.9248 Y0.8882
G1 X0.9251 Y0.8836
G1 X0.9252 Y0.8788
G1 X0.9251 Y0.8745
G1 X0.9245 Y0.8662
G1 X0.9232 Y0.8585
G1 X0.9213 Y0.8512
G1 X0.9187 Y0.8444
G1 X0.9155 Y0.8381
G1 X0.9137 Y0.8352
G1 X0.9116 Y0.8323
G1 X0.9095 Y0.8296
G1 X0.9071 Y0.8270
G1 X0.9020 Y0.8221
G1 X0.8962 Y0.8178
G1 X0.8931 Y0.8158
G1 X0.8863 Y0.8121
G1 X0.8790 Y0.8090
G1 X0.8709 Y0.8063
G1 X0.8622 Y0.8041
G1 X0.8529 Y0.8024
G1 X0.8430 Y0.8012
G1 X0.6381 Y0.6305
G1 X0.8740 Y0.4334
G1 X0.8842 Y0.4326
G1 X0.8890 Y0.4320
G1 X0.8981 Y0.4303
G1 X0.9067 Y0.4281
G1 X0.9145 Y0.4254
G1 X0.9217 Y0.4222
G1 X0.9283 Y0.4184
G1 X0.9313 Y0.4163
G1 X0.9342 Y0.4141
G1 X0.9369 Y0.4117
G1 X0.9394 Y0.4092
G1 X0.9418 Y0.4066
G1 X0.9440 Y0.4039
G1 X0.9460 Y0.4010
G1 X0.9479 Y0.3979
G1 X0.9496 Y0.3948
G1 X0.9512 Y0.3915
G1 X0.9526 Y0.3881
G1 X0.9549 Y0.3808
G1 X0.9565 Y0.3730
G1 X0.9575 Y0.3647
G1 X0.9578 Y0.3559
G1 X0.9577 Y0.3511
G1 X0.9574 Y0.3465
G1 X0.9569 Y0.3420
G1 X0.9562 Y0.3377
G1 X0.9553 Y0.3335
G1 X0.9542 Y0.3295
G1 X0.9529 Y0.3256
G1 X0.9514 Y0.3219
G1 X0.9497 Y0.3184
G1 X0.9478 Y0.3149
G1 X0.9457 Y0.3117
G1 X0.9434 Y0.3086
G1 X0.9409 Y0.3056
G1 X0.9382 Y0.3028
G1 X0.9353 Y0.3002
G1 X0.9322 Y0.2977
G1 X0.9289 Y0.2953
G1 X0.9254 Y0.2931
G1 X0.9217 Y0.2911
G1 X0.9178 Y0.2892
G1 X0.9137 Y0.2874
G1 X0.9094 Y0.2859
G1 X0.9049 Y0.2844
G1 X0.8953 Y0.2820
G1 X0.8849 Y0.2802
G1 X0.8794 Y0.2795
G1 X0.8678 Y0.2786
G1 X0.8554 Y0.2783
G1 X0.6816
G1 X0.6690 Y0.2786
G1 X0.6572 Y0.2795
G1 X0.6516 Y0.2802
G1 X0.6411 Y0.2821
G1 X0.6313 Y0.2845
G1 X0.6268 Y0.2860
G1 X0.6224 Y0.2876
G1 X0.6182 Y0.2894
G1 X0.6143 Y0.2913
G1 X0.6105 Y0.2934
G1 X0.6070 Y0.2957
G1 X0.6036 Y0.2981
G1 X0.6005 Y0.3006
G1 X0.5975 Y0.3033
G1 X0.5948 Y0.3062
G1 X0.5922 Y0.3092
G1 X0.5899 Y0.3124
G1 X0.5878 Y0.3157
G1 X0.5859 Y0.3192
G1 X0.5841 Y0.3228
G1 X0.5826 Y0.3266
G1 X0.5813 Y0.3305
G1 X0.5802 Y0.3346
G1 X0.5793 Y0.3389
G1 X0.5785 Y0.3433
G1 X0.5780 Y0.3478
G1 X0.5777 Y0.3525
G1 X0.5776 Y0.3574
G1 X0.5779 Y0.3646
G1 X0.5786 Y0.3715
G1 X0.5791 Y0.3748
G1 X0.5806 Y0.3812
G1 X0.5825 Y0.3873
G1 X0.5850 Y0.3930
G1 X0.5864 Y0.3957
G1 X0.5895 Y0.4010
G1 X0.5931 Y0.4059
G1 X0.5951 Y0.4082
G1 X0.5995 Y0.4127
G1 X0.6019 Y0.4148
G1 X0.6070 Y0.4187
G1 X0.6097 Y0.4205
G1 X0.6155 Y0.4240
G1 X0.6218 Y0.4271
G1 X0.6286 Y0.4299
G1 X0.6359 Y0.4323
G1 X0.6397 Y0.4334
G1 X0.5233 Y0.5281
G1 X0.4100 Y0.4334
G1 X0.4172 Y0.4302
G1 X0.4239 Y0.4268
G1 X0.4301 Y0.4232
G1 X0.4358 Y0.4194
G1 X0.4411 Y0.4154
G1 X0.4460 Y0.4111
G1 X0.4504 Y0.4067
G1 X0.4543 Y0.4020
G1 X0.4577 Y0.3972
G1 X0.4607 Y0.3921
G1 X0.4633 Y0.3868
G1 X0.4653 Y0.3814
G1 X0.4669 Y0.3757
G1 X0.4681 Y0.3698
G1 X0.4688 Y0.3637
G1 X0.4690 Y0.3574
G1 X0.4689 Y0.3525
G1 X0.4686 Y0.3478
G1 X0.4681 Y0.3433
G1 X0.4674 Y0.3389
G1 X0.4665 Y0.3346
G1 X0.4654 Y0.3305
G1 X0.4641 Y0.3266
G1 X0.4626 Y0.3228
G1 X0.4609 Y0.3192
G1 X0.4590 Y0.3157
G1 X0.4569 Y0.3124
G1 X0.4546 Y0.3092
G1 X0.4521 Y0.3062
G1 X0.4494 Y0.3033
G1 X0.4465 Y0.3006
G1 X0.4434 Y0.2981
G1 X0.4401 Y0.2957
G1 X0.4366 Y0.2934
G1 X0.4329 Y0.2913
G1 X0.4290 Y0.2894
G1 X0.4249 Y0.2876
G1 X0.4206 Y0.2860
G1 X0.4161 Y0.2845
G1 X0.4065 Y0.2821
G1 X0.3961 Y0.2802
G1 X0.3906 Y0.2795
G1 X0.3790 Y0.2786
G1 X0.3666 Y0.2783
G1 X0.1944
G1 X0.1820 Y0.2786
G1 X0.1704 Y0.2795
G1 X0.1595 Y0.2810
G1 X0.1495 Y0.2831
G1 X0.1448 Y0.2844
G1 X0.1403 Y0.2859
G1 X0.1360 Y0.2874
G1 X0.1319 Y0.2892
G1 X0.1280 Y0.2911
G1 X0.1243 Y0.2931
G1 X0.1208 Y0.2953
G1 X0.1175 Y0.2977
G1 X0.1144 Y0.3002
G1 X0.1115 Y0.3028
G1 X0.1088 Y0.3056
G1 X0.1063 Y0.3086
G1 X0.1040 Y0.3117
G1 X0.1019 Y0.3149
G1 X0.1000 Y0.3184
G1 X0.0983 Y0.3219
G1 X0.0968 Y0.3256
G1 X0.0955 Y0.3295
G1 X0.0944 Y0.3335
G1 X0.0935 Y0.3377
G1 X0.0928 Y0.3420
G1 X0.0923 Y0.3465
G1 X0.0920 Y0.3511
G1 X0.0919 Y0.3559
G1 X0.0923 Y0.3647
G1 X0.0932 Y0.3730
G1 X0.0949 Y0.3808
G1 X0.0972 Y0.3881
G1 X0.0986 Y0.3915
G1 X0.1001 Y0.3948
G1 X0.1018 Y0.3979
G1 X0.1037 Y0.4010
G1 X0.1058 Y0.4039
G1 X0.1080 Y0.4066
G1 X0.1104 Y0.4092
G1 X0.1129 Y0.4117
G1 X0.1156 Y0.4141
G1 X0.1185 Y0.4163
G1 X0.1215 Y0.4184
G1 X0.1280 Y0.4222
G1 X0.1352 Y0.4254
G1 X0.1431 Y0.4281
G1 X0.1516 Y0.4303
G1 X0.1608 Y0.4320
G1 X0.1706 Y0.4331
G1 X0.1757 Y0.4334
G1 X0.4007 Y0.6321
G1 X0.2021 Y0.8012
G1 X0.1923 Y0.8024
G1 X0.1832 Y0.8041
G1 X0.1747 Y0.8063
G1 X0.1668 Y0.8090
G1 X0.1631 Y0.8105
G1 X0.1562 Y0.8139
G1 X0.1499 Y0.8178
G1 X0.1442 Y0.8221
G1 X0.1416 Y0.8245
G1 X0.1369 Y0.8296
G1 X0.1347 Y0.8323
G1 X0.1310 Y0.8381
G1 X0.1278 Y0.8444
G1 X0.1265 Y0.8478
G1 X0.1253 Y0.8512
G1 X0.1234 Y0.8585
G1 X0.1221 Y0.8662
G1 X0.1217 Y0.8703
G1 X0.1214 Y0.8788
G1 X0.1215 Y0.8836
G1 X0.1218 Y0.8882
G1 X0.1223 Y0.8927
G1 X0.1230 Y0.8970
G1 X0.1239 Y0.9011
G1 X0.1250 Y0.9052
G1 X0.1263 Y0.9090
G1 X0.1278 Y0.9127
G1 X0.1295 Y0.9163
G1 X0.1314 Y0.9197
G1 X0.1335 Y0.9230
G1 X0.1358 Y0.9261
G1 X0.1383 Y0.9290
G1 X0.1410 Y0.9318
G1 X0.1439 Y0.9345
G1 X0.1470 Y0.9370
G1 X0.1503 Y0.9393
G1 X0.1538 Y0.9415
G1 X0.1575 Y0.9436
G1 X0.1614 Y0.9455
G1 X0.1655 Y0.9472
G1 X0.1698 Y0.9488
G1 X0.1743 Y0.9502
G1 X0.1790 Y0.9515
G1 X0.1890 Y0.9537
G1 X0.1943 Y0.9545
G1 X0.1998 Y0.9552
G1 X0.2114 Y0.9561
G1 X0.2238 Y0.9564
G1 X0.3666
G0 Z0.2500
M1

(MSG, CUTTING THE LETTER C)
G0 X1.7143 Y0.4117
G1 Z-0.0050  F#<PLUNGE>
G1 X1.7143 Y0.4117 F#<FEED>
G1 X1.7322 Y0.4120
G1 X1.7494 Y0.4128
G1 X1.7659 Y0.4141
G1 X1.7818 Y0.4160
G1 X1.7969 Y0.4184
G1 X1.8114 Y0.4213
G1 X1.8253 Y0.4248
G1 X1.8384 Y0.4288
G1 X1.8511 Y0.4335
G1 X1.8628 Y0.4382
G1 X1.8736 Y0.4430
G1 X1.8834 Y0.4478
G1 X1.8879 Y0.4502
G1 X1.8963 Y0.4551
G1 X1.9037 Y0.4601
G1 X1.9101 Y0.4651
G1 X1.9129 Y0.4676
G1 X1.9237 Y0.4782
G1 X1.9455 Y0.4976
G1 X1.9563 Y0.5064
G1 X1.9621 Y0.5107
G1 X1.9678 Y0.5145
G1 X1.9734 Y0.5177
G1 X1.9761 Y0.5191
G1 X1.9815 Y0.5214
G1 X1.9869 Y0.5232
G1 X1.9921 Y0.5243
G1 X1.9947 Y0.5247
G1 X1.9998 Y0.5250
G1 X2.0074 Y0.5246
G1 X2.0148 Y0.5235
G1 X2.0220 Y0.5217
G1 X2.0289 Y0.5192
G1 X2.0355 Y0.5159
G1 X2.0420 Y0.5119
G1 X2.0482 Y0.5072
G1 X2.0541 Y0.5017
G1 X2.0595 Y0.4958
G1 X2.0643 Y0.4896
G1 X2.0683 Y0.4832
G1 X2.0700 Y0.4799
G1 X2.0729 Y0.4731
G1 X2.0751 Y0.4661
G1 X2.0766 Y0.4588
G1 X2.0773 Y0.4513
G1 X2.0773 Y0.4432
G1 X2.0770 Y0.4391
G1 X2.0764 Y0.4349
G1 X2.0757 Y0.4308
G1 X2.0748 Y0.4267
G1 X2.0736 Y0.4226
G1 X2.0722 Y0.4184
G1 X2.0707 Y0.4143
G1 X2.0669 Y0.4062
G1 X2.0623 Y0.3980
G1 X2.0569 Y0.3899
G1 X2.0506 Y0.3819
G1 X2.0435 Y0.3738
G1 X2.0355 Y0.3658
G1 X2.0268 Y0.3579
G1 X2.0171 Y0.3499
G1 X2.0067 Y0.3421
G1 X1.9954 Y0.3342
G1 X1.9833 Y0.3264
G1 X1.9703 Y0.3186
G1 X1.9431 Y0.3041
G1 X1.9144 Y0.2915
G1 X1.8842 Y0.2808
G1 X1.8524 Y0.2721
G1 X1.8190 Y0.2653
G1 X1.7841 Y0.2604
G1 X1.7476 Y0.2575
G1 X1.7096 Y0.2566
G1 X1.6614 Y0.2583
G1 X1.6381 Y0.2606
G1 X1.6152 Y0.2637
G1 X1.5930 Y0.2678
G1 X1.5712 Y0.2727
G1 X1.5499 Y0.2785
G1 X1.5292 Y0.2853
G1 X1.5090 Y0.2929
G1 X1.4893 Y0.3014
G1 X1.4702 Y0.3108
G1 X1.4515 Y0.3211
G1 X1.4334 Y0.3324
G1 X1.4158 Y0.3445
G1 X1.3988 Y0.3575
G1 X1.3822 Y0.3714
G1 X1.3666 Y0.3862
G1 X1.3520 Y0.4014
G1 X1.3384 Y0.4171
G1 X1.3259 Y0.4334
G1 X1.3143 Y0.4500
G1 X1.3037 Y0.4672
G1 X1.2942 Y0.4848
G1 X1.2856 Y0.5029
G1 X1.2781 Y0.5215
G1 X1.2715 Y0.5405
G1 X1.2660 Y0.5600
G1 X1.2615 Y0.5800
G1 X1.2579 Y0.6004
G1 X1.2554 Y0.6214
G1 X1.2539 Y0.6428
G1 X1.2534 Y0.6647
G1 Y0.7671
G1 X1.2539 Y0.7901
G1 X1.2553 Y0.8127
G1 X1.2577 Y0.8348
G1 X1.2610 Y0.8564
G1 X1.2652 Y0.8775
G1 X1.2704 Y0.8982
G1 X1.2766 Y0.9184
G1 X1.2837 Y0.9381
G1 X1.2917 Y0.9574
G1 X1.3007 Y0.9762
G1 X1.3106 Y0.9945
G1 X1.3215 Y1.0123
G1 X1.3333 Y1.0297
G1 X1.3461 Y1.0466
G1 X1.3598 Y1.0630
G1 X1.3744 Y1.0790
G1 X1.3898 Y1.0942
G1 X1.4056 Y1.1084
G1 X1.4219 Y1.1217
G1 X1.4386 Y1.1340
G1 X1.4558 Y1.1452
G1 X1.4735 Y1.1556
G1 X1.4916 Y1.1649
G1 X1.5102 Y1.1732
G1 X1.5293 Y1.1806
G1 X1.5488 Y1.1870
G1 X1.5687 Y1.1924
G1 X1.5892 Y1.1968
G1 X1.6100 Y1.2002
G1 X1.6314 Y1.2027
G1 X1.6532 Y1.2042
G1 X1.6755 Y1.2047
G1 X1.7027 Y1.2038
G1 X1.7300 Y1.2014
G1 X1.7574 Y1.1972
G1 X1.7849 Y1.1915
G1 X1.8125 Y1.1840
G1 X1.8402 Y1.1750
G1 X1.8679 Y1.1643
G1 X1.8958 Y1.1519
G1 X1.9113 Y1.1457
G1 X1.9147 Y1.1502
G1 X1.9181 Y1.1544
G1 X1.9217 Y1.1583
G1 X1.9253 Y1.1620
G1 X1.9290 Y1.1653
G1 X1.9329 Y1.1684
G1 X1.9368 Y1.1711
G1 X1.9408 Y1.1736
G1 X1.9449 Y1.1758
G1 X1.9492 Y1.1777
G1 X1.9535 Y1.1793
G1 X1.9579 Y1.1806
G1 X1.9624 Y1.1816
G1 X1.9670 Y1.1823
G1 X1.9717 Y1.1828
G1 X1.9765 Y1.1829
G1 X1.9820 Y1.1828
G1 X1.9873 Y1.1825
G1 X1.9923 Y1.1820
G1 X1.9972 Y1.1813
G1 X2.0018 Y1.1804
G1 X2.0061 Y1.1792
G1 X2.0102 Y1.1779
G1 X2.0141 Y1.1763
G1 X2.0178 Y1.1746
G1 X2.0212 Y1.1726
G1 X2.0244 Y1.1705
G1 X2.0274 Y1.1681
G1 X2.0302 Y1.1655
G1 X2.0327 Y1.1627
G1 X2.0350 Y1.1597
G1 X2.0391 Y1.1532
G1 X2.0410 Y1.1496
G1 X2.0445 Y1.1419
G1 X2.0460 Y1.1378
G1 X2.0487 Y1.1290
G1 X2.0508 Y1.1195
G1 X2.0524 Y1.1093
G1 X2.0535 Y1.0983
G1 X2.0540 Y1.0866
G1 X2.0541 Y0.9502
G1 X2.0538 Y0.9378
G1 X2.0529 Y0.9262
G1 X2.0514 Y0.9154
G1 X2.0492 Y0.9054
G1 X2.0480 Y0.9007
G1 X2.0465 Y0.8962
G1 X2.0449 Y0.8919
G1 X2.0432 Y0.8878
G1 X2.0413 Y0.8839
G1 X2.0392 Y0.8802
G1 X2.0370 Y0.8767
G1 X2.0347 Y0.8734
G1 X2.0322 Y0.8703
G1 X2.0295 Y0.8674
G1 X2.0267 Y0.8647
G1 X2.0238 Y0.8622
G1 X2.0207 Y0.8599
G1 X2.0174 Y0.8578
G1 X2.0140 Y0.8559
G1 X2.0105 Y0.8542
G1 X2.0067 Y0.8527
G1 X2.0029 Y0.8514
G1 X1.9989 Y0.8503
G1 X1.9947 Y0.8494
G1 X1.9904 Y0.8487
G1 X1.9859 Y0.8482
G1 X1.9813 Y0.8479
G1 X1.9765 Y0.8478
G1 X1.9697 Y0.8480
G1 X1.9631 Y0.8487
G1 X1.9569 Y0.8499
G1 X1.9539 Y0.8507
G1 X1.9480 Y0.8527
G1 X1.9452 Y0.8538
G1 X1.9398 Y0.8565
G1 X1.9373 Y0.8580
G1 X1.9323 Y0.8614
G1 X1.9300 Y0.8633
G1 X1.9259 Y0.8671
G1 X1.9222 Y0.8708
G1 X1.9189 Y0.8745
G1 X1.9160 Y0.8780
G1 X1.9135 Y0.8815
G1 X1.9113 Y0.8848
G1 X1.9096 Y0.8881
G1 X1.9082 Y0.8912
G1 X1.9047 Y0.9079
G1 X1.9005 Y0.9300
G1 X1.8992 Y0.9357
G1 X1.8975 Y0.9413
G1 X1.8956 Y0.9468
G1 X1.8934 Y0.9521
G1 X1.8909 Y0.9573
G1 X1.8880 Y0.9623
G1 X1.8849 Y0.9672
G1 X1.8815 Y0.9719
G1 X1.8777 Y0.9765
G1 X1.8737 Y0.9809
G1 X1.8693 Y0.9852
G1 X1.8647 Y0.9894
G1 X1.8597 Y0.9934
G1 X1.8545 Y0.9972
G1 X1.8489 Y1.0009
G1 X1.8315 Y1.0115
G1 X1.8202 Y1.0179
G1 X1.8090 Y1.0235
G1 X1.7981 Y1.0285
G1 X1.7873 Y1.0329
G1 X1.7767 Y1.0365
G1 X1.7663 Y1.0394
G1 X1.7562 Y1.0417
G1 X1.7364 Y1.0451
G1 X1.7174 Y1.0475
G1 X1.6991 Y1.0490
G1 X1.6817 Y1.0495
G1 X1.6671 Y1.0492
G1 X1.6528 Y1.0482
G1 X1.6389 Y1.0466
G1 X1.6252 Y1.0444
G1 X1.6119 Y1.0416
G1 X1.5989 Y1.0381
G1 X1.5862 Y1.0340
G1 X1.5738 Y1.0293
G1 X1.5618 Y1.0240
G1 X1.5500 Y1.0180
G1 X1.5386 Y1.0113
G1 X1.5275 Y1.0041
G1 X1.5167 Y0.9962
G1 X1.5062 Y0.9877
G1 X1.4960 Y0.9786
G1 X1.4862 Y0.9688
G1 X1.4768 Y0.9587
G1 X1.4680 Y0.9483
G1 X1.4598 Y0.9376
G1 X1.4522 Y0.9265
G1 X1.4452 Y0.9151
G1 X1.4389 Y0.9033
G1 X1.4331 Y0.8912
G1 X1.4280 Y0.8788
G1 X1.4234 Y0.8660
G1 X1.4195 Y0.8529
G1 X1.4162 Y0.8394
G1 X1.4134 Y0.8256
G1 X1.4113 Y0.8115
G1 X1.4098 Y0.7970
G1 X1.4089 Y0.7822
G1 X1.4086 Y0.7671
G1 Y0.6678
G1 X1.4089 Y0.6534
G1 X1.4099 Y0.6394
G1 X1.4115 Y0.6258
G1 X1.4137 Y0.6125
G1 X1.4166 Y0.5996
G1 X1.4201 Y0.5870
G1 X1.4243 Y0.5748
G1 X1.4291 Y0.5630
G1 X1.4346 Y0.5516
G1 X1.4407 Y0.5405
G1 X1.4474 Y0.5297
G1 X1.4548 Y0.5194
G1 X1.4629 Y0.5094
G1 X1.4715 Y0.4997
G1 X1.4809 Y0.4905
G1 X1.4908 Y0.4816
G1 X1.5015 Y0.4731
G1 X1.5126 Y0.4652
G1 X1.5242 Y0.4578
G1 X1.5362 Y0.4510
G1 X1.5486 Y0.4447
G1 X1.5615 Y0.4390
G1 X1.5748 Y0.4338
G1 X1.5886 Y0.4292
G1 X1.6028 Y0.4251
G1 X1.6174 Y0.4215
G1 X1.6324 Y0.4185
G1 X1.6479 Y0.4161
G1 X1.6802 Y0.4128
G1 X1.7143 Y0.4117
G0 Z0.2500
M1

(MSG, CUTTING THE LETTER N)
G0 X3.1380 Y1.1829
G1 Z-0.0050  F#<PLUNGE>
G1 X3.1380 Y1.1829 F#<FEED>
G1 X3.1504 Y1.1826
G1 X3.1620 Y1.1817
G1 X3.1728 Y1.1802
G1 X3.1828 Y1.1781
G1 X3.1875 Y1.1768
G1 X3.1920 Y1.1754
G1 X3.1963 Y1.1738
G1 X3.2004 Y1.1720
G1 X3.2043 Y1.1701
G1 X3.2080 Y1.1681
G1 X3.2115 Y1.1659
G1 X3.2148 Y1.1635
G1 X3.2179 Y1.1610
G1 X3.2208 Y1.1584
G1 X3.2235 Y1.1556
G1 X3.2260 Y1.1526
G1 X3.2283 Y1.1495
G1 X3.2304 Y1.1463
G1 X3.2323 Y1.1428
G1 X3.2340 Y1.1393
G1 X3.2355 Y1.1356
G1 X3.2368 Y1.1317
G1 X3.2379 Y1.1277
G1 X3.2388 Y1.1235
G1 X3.2395 Y1.1192
G1 X3.2400 Y1.1147
G1 X3.2403 Y1.1101
G1 X3.2404 Y1.1053
G1 X3.2400 Y1.0959
G1 X3.2396 Y1.0915
G1 X3.2389 Y1.0872
G1 X3.2381 Y1.0830
G1 X3.2371 Y1.0790
G1 X3.2359 Y1.0751
G1 X3.2345 Y1.0714
G1 X3.2329 Y1.0678
G1 X3.2311 Y1.0644
G1 X3.2292 Y1.0612
G1 X3.2271 Y1.0581
G1 X3.2248 Y1.0551
G1 X3.2223 Y1.0523
G1 X3.2196 Y1.0497
G1 X3.2167 Y1.0472
G1 X3.2137 Y1.0448
G1 X3.2104 Y1.0426
G1 X3.2070 Y1.0406
G1 X3.2034 Y1.0387
G1 X3.1996 Y1.0369
G1 X3.1956 Y1.0353
G1 X3.1915 Y1.0339
G1 X3.1871 Y1.0326
G1 X3.1779 Y1.0305
G1 X3.1679 Y1.0290
G1 X3.1626 Y1.0284
G1 X3.1516 Y1.0278
G1 X3.1457 Y1.0278
G1 Y0.2783
G1 X2.9921
G1 X2.5902 Y0.8897
G1 Y0.4334
G1 X2.6445
G1 X2.6566 Y0.4332
G1 X2.6679 Y0.4324
G1 X2.6785 Y0.4310
G1 X2.6884 Y0.4292
G1 X2.6930 Y0.4280
G1 X2.7018 Y0.4254
G1 X2.7098 Y0.4222
G1 X2.7136 Y0.4204
G1 X2.7172 Y0.4184
G1 X2.7238 Y0.4143
G1 X2.7267 Y0.4120
G1 X2.7295 Y0.4095
G1 X2.7321 Y0.4068
G1 X2.7345 Y0.4038
G1 X2.7366 Y0.4006
G1 X2.7386 Y0.3972
G1 X2.7403 Y0.3935
G1 X2.7419 Y0.3896
G1 X2.7432 Y0.3855
G1 X2.7444 Y0.3811
G1 X2.7453 Y0.3765
G1 X2.7460 Y0.3717
G1 X2.7465 Y0.3667
G1 X2.7468 Y0.3614
G1 X2.7469 Y0.3559
G1 X2.7468 Y0.3511
G1 X2.7465 Y0.3465
G1 X2.7460 Y0.3420
G1 X2.7453 Y0.3377
G1 X2.7444 Y0.3335
G1 X2.7433 Y0.3295
G1 X2.7420 Y0.3256
G1 X2.7405 Y0.3219
G1 X2.7388 Y0.3184
G1 X2.7369 Y0.3149
G1 X2.7348 Y0.3117
G1 X2.7325 Y0.3086
G1 X2.7300 Y0.3056
G1 X2.7273 Y0.3028
G1 X2.7244 Y0.3002
G1 X2.7213 Y0.2977
G1 X2.7180 Y0.2953
G1 X2.7145 Y0.2931
G1 X2.7108 Y0.2911
G1 X2.7069 Y0.2892
G1 X2.7028 Y0.2874
G1 X2.6985 Y0.2859
G1 X2.6940 Y0.2844
G1 X2.6844 Y0.2820
G1 X2.6740 Y0.2802
G1 X2.6685 Y0.2795
G1 X2.6569 Y0.2786
G1 X2.6445 Y0.2783
G1 X2.4444
G1 X2.4318 Y0.2786
G1 X2.4200 Y0.2795
G1 X2.4144 Y0.2802
G1 X2.4038 Y0.2820
G1 X2.3941 Y0.2844
G1 X2.3895 Y0.2859
G1 X2.3852 Y0.2874
G1 X2.3810 Y0.2892
G1 X2.3770 Y0.2911
G1 X2.3733 Y0.2931
G1 X2.3697 Y0.2953
G1 X2.3664 Y0.2977
G1 X2.3632 Y0.3002
G1 X2.3603 Y0.3028
G1 X2.3575 Y0.3056
G1 X2.3550 Y0.3086
G1 X2.3527 Y0.3117
G1 X2.3505 Y0.3149
G1 X2.3486 Y0.3184
G1 X2.3469 Y0.3219
G1 X2.3454 Y0.3256
G1 X2.3440 Y0.3295
G1 X2.3429 Y0.3335
G1 X2.3420 Y0.3377
G1 X2.3413 Y0.3420
G1 X2.3408 Y0.3465
G1 X2.3405 Y0.3511
G1 X2.3404 Y0.3559
G1 X2.3408 Y0.3653
G1 X2.3412 Y0.3697
G1 X2.3419 Y0.3740
G1 X2.3427 Y0.3782
G1 X2.3437 Y0.3822
G1 X2.3449 Y0.3861
G1 X2.3463 Y0.3898
G1 X2.3479 Y0.3934
G1 X2.3496 Y0.3968
G1 X2.3516 Y0.4000
G1 X2.3537 Y0.4031
G1 X2.3560 Y0.4061
G1 X2.3585 Y0.4089
G1 X2.3612 Y0.4116
G1 X2.3641 Y0.4141
G1 X2.3671 Y0.4164
G1 X2.3703 Y0.4186
G1 X2.3738 Y0.4206
G1 X2.3774 Y0.4225
G1 X2.3812 Y0.4243
G1 X2.3851 Y0.4259
G1 X2.3893 Y0.4273
G1 X2.3936 Y0.4286
G1 X2.3982 Y0.4297
G1 X2.4078 Y0.4316
G1 X2.4181 Y0.4328
G1 X2.4292 Y0.4334
G1 X2.4350 Y0.4334
G1 Y1.0278
G1 X2.4118
G1 X2.3994 Y1.0281
G1 X2.3878 Y1.0290
G1 X2.3823 Y1.0297
G1 X2.3719 Y1.0315
G1 X2.3670 Y1.0326
G1 X2.3623 Y1.0339
G1 X2.3578 Y1.0353
G1 X2.3535 Y1.0369
G1 X2.3494 Y1.0387
G1 X2.3455 Y1.0406
G1 X2.3418 Y1.0426
G1 X2.3383 Y1.0448
G1 X2.3350 Y1.0472
G1 X2.3319 Y1.0497
G1 X2.3290 Y1.0523
G1 X2.3263 Y1.0551
G1 X2.3238 Y1.0581
G1 X2.3215 Y1.0612
G1 X2.3194 Y1.0644
G1 X2.3175 Y1.0678
G1 X2.3158 Y1.0714
G1 X2.3143 Y1.0751
G1 X2.3130 Y1.0790
G1 X2.3119 Y1.0830
G1 X2.3110 Y1.0872
G1 X2.3103 Y1.0915
G1 X2.3098 Y1.0959
G1 X2.3095 Y1.1006
G1 X2.3094 Y1.1053
G1 X2.3095 Y1.1109
G1 X2.3098 Y1.1161
G1 X2.3103 Y1.1212
G1 X2.3110 Y1.1260
G1 X2.3119 Y1.1306
G1 X2.3131 Y1.1349
G1 X2.3144 Y1.1391
G1 X2.3159 Y1.1430
G1 X2.3177 Y1.1466
G1 X2.3197 Y1.1501
G1 X2.3218 Y1.1533
G1 X2.3242 Y1.1563
G1 X2.3268 Y1.1590
G1 X2.3295 Y1.1615
G1 X2.3325 Y1.1638
G1 X2.3357 Y1.1659
G1 X2.3391 Y1.1679
G1 X2.3427 Y1.1699
G1 X2.3464 Y1.1717
G1 X2.3545 Y1.1749
G1 X2.3633 Y1.1775
G1 X2.3728 Y1.1797
G1 X2.3830 Y1.1813
G1 X2.3940 Y1.1823
G1 X2.4057 Y1.1829
G1 X2.4118 Y1.1829
G1 X2.5902
G1 X2.9906 Y0.5747
G1 Y1.0278
G1 X2.9362
G1 X2.9238 Y1.0281
G1 X2.9122 Y1.0290
G1 X2.9014 Y1.0305
G1 X2.8914 Y1.0326
G1 X2.8867 Y1.0339
G1 X2.8822 Y1.0353
G1 X2.8779 Y1.0369
G1 X2.8738 Y1.0387
G1 X2.8699 Y1.0406
G1 X2.8662 Y1.0426
G1 X2.8627 Y1.0448
G1 X2.8594 Y1.0472
G1 X2.8563 Y1.0497
G1 X2.8534 Y1.0523
G1 X2.8507 Y1.0551
G1 X2.8482 Y1.0581
G1 X2.8459 Y1.0612
G1 X2.8438 Y1.0644
G1 X2.8419 Y1.0678
G1 X2.8402 Y1.0714
G1 X2.8387 Y1.0751
G1 X2.8374 Y1.0790
G1 X2.8363 Y1.0830
G1 X2.8354 Y1.0872
G1 X2.8347 Y1.0915
G1 X2.8342 Y1.0959
G1 X2.8339 Y1.1006
G1 X2.8338 Y1.1053
G1 X2.8339 Y1.1109
G1 X2.8342 Y1.1161
G1 X2.8348 Y1.1212
G1 X2.8355 Y1.1260
G1 X2.8364 Y1.1306
G1 X2.8375 Y1.1349
G1 X2.8389 Y1.1391
G1 X2.8404 Y1.1430
G1 X2.8422 Y1.1466
G1 X2.8441 Y1.1501
G1 X2.8463 Y1.1533
G1 X2.8487 Y1.1563
G1 X2.8513 Y1.1590
G1 X2.8540 Y1.1615
G1 X2.8570 Y1.1638
G1 X2.8636 Y1.1679
G1 X2.8672 Y1.1699
G1 X2.8709 Y1.1717
G1 X2.8790 Y1.1749
G1 X2.8878 Y1.1775
G1 X2.8973 Y1.1797
G1 X2.9075 Y1.1813
G1 X2.9184 Y1.1823
G1 X2.9301 Y1.1829
G1 X2.9362 Y1.1829
G1 X3.1380
G0 Z0.2500
M1
(MSG, CUTTING THE LETTER C)
G0 X3.9969 Y0.4117
G1 Z-0.0050  F#<PLUNGE>
G1 X3.9969 Y0.4117 F#<FEED>
G1 X4.0147 Y0.4120
G1 X4.0320 Y0.4128
G1 X4.0485 Y0.4141
G1 X4.0644 Y0.4160
G1 X4.0795 Y0.4184
G1 X4.0940 Y0.4213
G1 X4.1078 Y0.4248
G1 X4.1210 Y0.4288
G1 X4.1337 Y0.4335
G1 X4.1454 Y0.4382
G1 X4.1562 Y0.4430
G1 X4.1660 Y0.4478
G1 X4.1705 Y0.4502
G1 X4.1789 Y0.4551
G1 X4.1862 Y0.4601
G1 X4.1926 Y0.4651
G1 X4.1955 Y0.4676
G1 X4.2063 Y0.4782
G1 X4.2281 Y0.4976
G1 X4.2389 Y0.5064
G1 X4.2447 Y0.5107
G1 X4.2504 Y0.5145
G1 X4.2559 Y0.5177
G1 X4.2587 Y0.5191
G1 X4.2641 Y0.5214
G1 X4.2695 Y0.5232
G1 X4.2747 Y0.5243
G1 X4.2773 Y0.5247
G1 X4.2824 Y0.5250
G1 X4.2900 Y0.5246
G1 X4.2974 Y0.5235
G1 X4.3046 Y0.5217
G1 X4.3115 Y0.5192
G1 X4.3181 Y0.5159
G1 X4.3246 Y0.5119
G1 X4.3307 Y0.5072
G1 X4.3367 Y0.5017
G1 X4.3421 Y0.4958
G1 X4.3469 Y0.4896
G1 X4.3509 Y0.4832
G1 X4.3526 Y0.4799
G1 X4.3555 Y0.4731
G1 X4.3577 Y0.4661
G1 X4.3591 Y0.4588
G1 X4.3599 Y0.4513
G1 X4.3599 Y0.4432
G1 X4.3595 Y0.4391
G1 X4.3590 Y0.4349
G1 X4.3583 Y0.4308
G1 X4.3573 Y0.4267
G1 X4.3562 Y0.4226
G1 X4.3548 Y0.4184
G1 X4.3533 Y0.4143
G1 X4.3495 Y0.4062
G1 X4.3449 Y0.3980
G1 X4.3395 Y0.3899
G1 X4.3332 Y0.3819
G1 X4.3261 Y0.3738
G1 X4.3181 Y0.3658
G1 X4.3093 Y0.3579
G1 X4.2997 Y0.3499
G1 X4.2893 Y0.3421
G1 X4.2780 Y0.3342
G1 X4.2659 Y0.3264
G1 X4.2529 Y0.3186
G1 X4.2257 Y0.3041
G1 X4.1970 Y0.2915
G1 X4.1668 Y0.2808
G1 X4.1350 Y0.2721
G1 X4.1016 Y0.2653
G1 X4.0667 Y0.2604
G1 X4.0302 Y0.2575
G1 X3.9922 Y0.2566
G1 X3.9440 Y0.2583
G1 X3.9206 Y0.2606
G1 X3.8978 Y0.2637
G1 X3.8755 Y0.2678
G1 X3.8538 Y0.2727
G1 X3.8325 Y0.2785
G1 X3.8118 Y0.2853
G1 X3.7916 Y0.2929
G1 X3.7719 Y0.3014
G1 X3.7528 Y0.3108
G1 X3.7341 Y0.3211
G1 X3.7160 Y0.3324
G1 X3.6984 Y0.3445
G1 X3.6813 Y0.3575
G1 X3.6648 Y0.3714
G1 X3.6492 Y0.3862
G1 X3.6346 Y0.4014
G1 X3.6210 Y0.4171
G1 X3.6084 Y0.4334
G1 X3.5969 Y0.4500
G1 X3.5863 Y0.4672
G1 X3.5767 Y0.4848
G1 X3.5682 Y0.5029
G1 X3.5606 Y0.5215
G1 X3.5541 Y0.5405
G1 X3.5486 Y0.5600
G1 X3.5440 Y0.5800
G1 X3.5405 Y0.6004
G1 X3.5380 Y0.6214
G1 X3.5365 Y0.6428
G1 X3.5360 Y0.6647
G1 Y0.7671
G1 X3.5365 Y0.7901
G1 X3.5379 Y0.8127
G1 X3.5402 Y0.8348
G1 X3.5436 Y0.8564
G1 X3.5478 Y0.8775
G1 X3.5530 Y0.8982
G1 X3.5592 Y0.9184
G1 X3.5662 Y0.9381
G1 X3.5743 Y0.9574
G1 X3.5833 Y0.9762
G1 X3.5932 Y0.9945
G1 X3.6041 Y1.0123
G1 X3.6159 Y1.0297
G1 X3.6287 Y1.0466
G1 X3.6424 Y1.0630
G1 X3.6570 Y1.0790
G1 X3.6724 Y1.0942
G1 X3.6882 Y1.1084
G1 X3.7045 Y1.1217
G1 X3.7212 Y1.1340
G1 X3.7384 Y1.1452
G1 X3.7561 Y1.1556
G1 X3.7742 Y1.1649
G1 X3.7928 Y1.1732
G1 X3.8118 Y1.1806
G1 X3.8314 Y1.1870
G1 X3.8513 Y1.1924
G1 X3.8717 Y1.1968
G1 X3.8926 Y1.2002
G1 X3.9140 Y1.2027
G1 X3.9358 Y1.2042
G1 X3.9581 Y1.2047
G1 X3.9853 Y1.2038
G1 X4.0126 Y1.2014
G1 X4.0400 Y1.1972
G1 X4.0675 Y1.1915
G1 X4.0950 Y1.1840
G1 X4.1227 Y1.1750
G1 X4.1505 Y1.1643
G1 X4.1784 Y1.1519
G1 X4.1939 Y1.1457
G1 X4.1973 Y1.1502
G1 X4.2007 Y1.1544
G1 X4.2043 Y1.1583
G1 X4.2079 Y1.1620
G1 X4.2116 Y1.1653
G1 X4.2155 Y1.1684
G1 X4.2194 Y1.1711
G1 X4.2234 Y1.1736
G1 X4.2275 Y1.1758
G1 X4.2317 Y1.1777
G1 X4.2361 Y1.1793
G1 X4.2405 Y1.1806
G1 X4.2450 Y1.1816
G1 X4.2496 Y1.1823
G1 X4.2543 Y1.1828
G1 X4.2591 Y1.1829
G1 X4.2646 Y1.1828
G1 X4.2699 Y1.1825
G1 X4.2749 Y1.1820
G1 X4.2798 Y1.1813
G1 X4.2843 Y1.1804
G1 X4.2887 Y1.1792
G1 X4.2928 Y1.1779
G1 X4.2967 Y1.1763
G1 X4.3004 Y1.1746
G1 X4.3038 Y1.1726
G1 X4.3070 Y1.1705
G1 X4.3100 Y1.1681
G1 X4.3128 Y1.1655
G1 X4.3153 Y1.1627
G1 X4.3176 Y1.1597
G1 X4.3217 Y1.1532
G1 X4.3236 Y1.1496
G1 X4.3271 Y1.1419
G1 X4.3286 Y1.1378
G1 X4.3313 Y1.1290
G1 X4.3334 Y1.1195
G1 X4.3350 Y1.1093
G1 X4.3361 Y1.0983
G1 X4.3366 Y1.0866
G1 X4.3367 Y0.9502
G1 X4.3364 Y0.9378
G1 X4.3355 Y0.9262
G1 X4.3340 Y0.9154
G1 X4.3318 Y0.9054
G1 X4.3305 Y0.9007
G1 X4.3291 Y0.8962
G1 X4.3275 Y0.8919
G1 X4.3258 Y0.8878
G1 X4.3239 Y0.8839
G1 X4.3218 Y0.8802
G1 X4.3196 Y0.8767
G1 X4.3173 Y0.8734
G1 X4.3148 Y0.8703
G1 X4.3121 Y0.8674
G1 X4.3093 Y0.8647
G1 X4.3064 Y0.8622
G1 X4.3033 Y0.8599
G1 X4.3000 Y0.8578
G1 X4.2966 Y0.8559
G1 X4.2930 Y0.8542
G1 X4.2893 Y0.8527
G1 X4.2855 Y0.8514
G1 X4.2814 Y0.8503
G1 X4.2773 Y0.8494
G1 X4.2730 Y0.8487
G1 X4.2685 Y0.8482
G1 X4.2639 Y0.8479
G1 X4.2591 Y0.8478
G1 X4.2523 Y0.8480
G1 X4.2457 Y0.8487
G1 X4.2395 Y0.8499
G1 X4.2364 Y0.8507
G1 X4.2306 Y0.8527
G1 X4.2278 Y0.8538
G1 X4.2224 Y0.8565
G1 X4.2199 Y0.8580
G1 X4.2149 Y0.8614
G1 X4.2125 Y0.8633
G1 X4.2085 Y0.8671
G1 X4.2048 Y0.8708
G1 X4.2015 Y0.8745
G1 X4.1986 Y0.8780
G1 X4.1961 Y0.8815
G1 X4.1939 Y0.8848
G1 X4.1922 Y0.8881
G1 X4.1908 Y0.8912
G1 X4.1873 Y0.9079
G1 X4.1831 Y0.9300
G1 X4.1817 Y0.9357
G1 X4.1801 Y0.9413
G1 X4.1782 Y0.9468
G1 X4.1760 Y0.9521
G1 X4.1735 Y0.9573
G1 X4.1706 Y0.9623
G1 X4.1675 Y0.9672
G1 X4.1641 Y0.9719
G1 X4.1603 Y0.9765
G1 X4.1563 Y0.9809
G1 X4.1519 Y0.9852
G1 X4.1473 Y0.9894
G1 X4.1423 Y0.9934
G1 X4.1371 Y0.9972
G1 X4.1315 Y1.0009
G1 X4.1141 Y1.0115
G1 X4.1028 Y1.0179
G1 X4.0916 Y1.0235
G1 X4.0806 Y1.0285
G1 X4.0699 Y1.0329
G1 X4.0593 Y1.0365
G1 X4.0489 Y1.0394
G1 X4.0387 Y1.0417
G1 X4.0190 Y1.0451
G1 X4.0000 Y1.0475
G1 X3.9817 Y1.0490
G1 X3.9643 Y1.0495
G1 X3.9497 Y1.0492
G1 X3.9354 Y1.0482
G1 X3.9215 Y1.0466
G1 X3.9078 Y1.0444
G1 X3.8945 Y1.0416
G1 X3.8815 Y1.0381
G1 X3.8688 Y1.0340
G1 X3.8564 Y1.0293
G1 X3.8444 Y1.0240
G1 X3.8326 Y1.0180
G1 X3.8212 Y1.0113
G1 X3.8101 Y1.0041
G1 X3.7993 Y0.9962
G1 X3.7888 Y0.9877
G1 X3.7786 Y0.9786
G1 X3.7687 Y0.9688
G1 X3.7594 Y0.9587
G1 X3.7506 Y0.9483
G1 X3.7424 Y0.9376
G1 X3.7348 Y0.9265
G1 X3.7278 Y0.9151
G1 X3.7215 Y0.9033
G1 X3.7157 Y0.8912
G1 X3.7106 Y0.8788
G1 X3.7060 Y0.8660
G1 X3.7021 Y0.8529
G1 X3.6987 Y0.8394
G1 X3.6960 Y0.8256
G1 X3.6939 Y0.8115
G1 X3.6924 Y0.7970
G1 X3.6915 Y0.7822
G1 X3.6912 Y0.7671
G1 Y0.6678
G1 X3.6915 Y0.6534
G1 X3.6924 Y0.6394
G1 X3.6941 Y0.6258
G1 X3.6963 Y0.6125
G1 X3.6992 Y0.5996
G1 X3.7027 Y0.5870
G1 X3.7069 Y0.5748
G1 X3.7117 Y0.5630
G1 X3.7172 Y0.5516
G1 X3.7233 Y0.5405
G1 X3.7300 Y0.5297
G1 X3.7374 Y0.5194
G1 X3.7455 Y0.5094
G1 X3.7541 Y0.4997
G1 X3.7634 Y0.4905
G1 X3.7734 Y0.4816
G1 X3.7841 Y0.4731
G1 X3.7952 Y0.4652
G1 X3.8068 Y0.4578
G1 X3.8188 Y0.4510
G1 X3.8312 Y0.4447
G1 X3.8441 Y0.4390
G1 X3.8574 Y0.4338
G1 X3.8712 Y0.4292
G1 X3.8853 Y0.4251
G1 X3.9000 Y0.4215
G1 X3.9150 Y0.4185
G1 X3.9305 Y0.4161
G1 X3.9628 Y0.4128
G1 X3.9969 Y0.4117
G0 Z0.2500
M1

(MSG, CUTTING THE LETTER R)
G0 X-1.8027 Y-0.7221
G1 Z-0.0050  F#<PLUNGE>
G1 X-1.8027 Y-0.7221 F#<FEED>
G1 X-1.6848
G1 X-1.6609 Y-0.7215
G1 X-1.6380 Y-0.7197
G1 X-1.6163 Y-0.7168
G1 X-1.5956 Y-0.7128
G1 X-1.5759 Y-0.7075
G1 X-1.5573 Y-0.7011
G1 X-1.5398 Y-0.6936
G1 X-1.5234 Y-0.6848
G1 X-1.5155 Y-0.6799
G1 X-1.5081 Y-0.6748
G1 X-1.5013 Y-0.6696
G1 X-1.4949 Y-0.6643
G1 X-1.4890 Y-0.6588
G1 X-1.4837 Y-0.6531
G1 X-1.4789 Y-0.6473
G1 X-1.4745 Y-0.6414
G1 X-1.4707 Y-0.6353
G1 X-1.4674 Y-0.6291
G1 X-1.4646 Y-0.6227
G1 X-1.4623 Y-0.6162
G1 X-1.4605 Y-0.6095
G1 X-1.4593 Y-0.6027
G1 X-1.4585 Y-0.5957
G1 X-1.4582 Y-0.5886
G1 X-1.4584 Y-0.5825
G1 X-1.4590 Y-0.5765
G1 X-1.4599 Y-0.5706
G1 X-1.4612 Y-0.5649
G1 X-1.4629 Y-0.5593
G1 X-1.4650 Y-0.5538
G1 X-1.4674 Y-0.5484
G1 X-1.4703 Y-0.5432
G1 X-1.4735 Y-0.5382
G1 X-1.4770 Y-0.5332
G1 X-1.4810 Y-0.5284
G1 X-1.4853 Y-0.5237
G1 X-1.4900 Y-0.5192
G1 X-1.4951 Y-0.5148
G1 X-1.5005 Y-0.5105
G1 X-1.5125 Y-0.5022
G1 X-1.5188 Y-0.4984
G1 X-1.5253 Y-0.4948
G1 X-1.5320 Y-0.4914
G1 X-1.5390 Y-0.4884
G1 X-1.5461 Y-0.4856
G1 X-1.5610 Y-0.4808
G1 X-1.5768 Y-0.4770
G1 X-1.5933 Y-0.4744
G1 X-1.6107 Y-0.4728
G1 X-1.6289 Y-0.4722
G1 X-1.8027
G1 Y-0.7221
G0 Z0.2500
G0 X-1.2456 Y-1.0666
G1 Z-0.0050  F#<PLUNGE>
G1 X-1.2456 Y-1.0666 F#<FEED>
G1 X-1.2332 Y-1.0669
G1 X-1.2216 Y-1.0678
G1 X-1.2161 Y-1.0684
G1 X-1.2057 Y-1.0703
G1 X-1.2008 Y-1.0714
G1 X-1.1961 Y-1.0727
G1 X-1.1916 Y-1.0741
G1 X-1.1873 Y-1.0757
G1 X-1.1832 Y-1.0775
G1 X-1.1793 Y-1.0794
G1 X-1.1756 Y-1.0814
G1 X-1.1721 Y-1.0836
G1 X-1.1688 Y-1.0859
G1 X-1.1657 Y-1.0884
G1 X-1.1628 Y-1.0911
G1 X-1.1601 Y-1.0939
G1 X-1.1576 Y-1.0969
G1 X-1.1553 Y-1.1000
G1 X-1.1532 Y-1.1032
G1 X-1.1513 Y-1.1066
G1 X-1.1496 Y-1.1102
G1 X-1.1481 Y-1.1139
G1 X-1.1468 Y-1.1178
G1 X-1.1457 Y-1.1218
G1 X-1.1448 Y-1.1260
G1 X-1.1441 Y-1.1303
G1 X-1.1436 Y-1.1347
G1 X-1.1433 Y-1.1394
G1 X-1.1432 Y-1.1441
G1 X-1.1433 Y-1.1489
G1 X-1.1436 Y-1.1535
G1 X-1.1441 Y-1.1580
G1 X-1.1448 Y-1.1623
G1 X-1.1457 Y-1.1665
G1 X-1.1468 Y-1.1705
G1 X-1.1481 Y-1.1744
G1 X-1.1496 Y-1.1781
G1 X-1.1513 Y-1.1816
G1 X-1.1532 Y-1.1851
G1 X-1.1553 Y-1.1883
G1 X-1.1576 Y-1.1914
G1 X-1.1601 Y-1.1944
G1 X-1.1628 Y-1.1972
G1 X-1.1657 Y-1.1998
G1 X-1.1688 Y-1.2023
G1 X-1.1721 Y-1.2047
G1 X-1.1756 Y-1.2069
G1 X-1.1793 Y-1.2089
G1 X-1.1832 Y-1.2108
G1 X-1.1873 Y-1.2126
G1 X-1.1916 Y-1.2141
G1 X-1.1961 Y-1.2156
G1 X-1.2057 Y-1.2180
G1 X-1.2161 Y-1.2198
G1 X-1.2216 Y-1.2205
G1 X-1.2332 Y-1.2214
G1 X-1.2456 Y-1.2217
G1 X-1.3682
G1 X-1.3990 Y-1.1662
G1 X-1.4338 Y-1.1112
G1 X-1.4727 Y-1.0568
G1 X-1.5156 Y-1.0029
G1 X-1.5266 Y-0.9897
G1 X-1.5372 Y-0.9772
G1 X-1.5475 Y-0.9654
G1 X-1.5574 Y-0.9543
G1 X-1.5671 Y-0.9440
G1 X-1.5765 Y-0.9343
G1 X-1.5856 Y-0.9254
G1 X-1.5944 Y-0.9172
G1 X-1.6029 Y-0.9097
G1 X-1.6111 Y-0.9029
G1 X-1.6189 Y-0.8969
G1 X-1.6265 Y-0.8915
G1 X-1.6338 Y-0.8869
G1 X-1.6373 Y-0.8848
G1 X-1.6441 Y-0.8812
G1 X-1.6506 Y-0.8784
G1 X-1.6537 Y-0.8772
G1 X-1.8027
G1 Y-1.0666
G1 X-1.7484
G1 X-1.7360 Y-1.0669
G1 X-1.7244 Y-1.0678
G1 X-1.7136 Y-1.0693
G1 X-1.7085 Y-1.0703
G1 X-1.6989 Y-1.0727
G1 X-1.6944 Y-1.0741
G1 X-1.6901 Y-1.0757
G1 X-1.6860 Y-1.0775
G1 X-1.6821 Y-1.0794
G1 X-1.6784 Y-1.0814
G1 X-1.6749 Y-1.0836
G1 X-1.6716 Y-1.0859
G1 X-1.6685 Y-1.0884
G1 X-1.6656 Y-1.0911
G1 X-1.6629 Y-1.0939
G1 X-1.6604 Y-1.0969
G1 X-1.6581 Y-1.1000
G1 X-1.6560 Y-1.1032
G1 X-1.6541 Y-1.1066
G1 X-1.6524 Y-1.1102
G1 X-1.6509 Y-1.1139
G1 X-1.6496 Y-1.1178
G1 X-1.6485 Y-1.1218
G1 X-1.6476 Y-1.1260
G1 X-1.6469 Y-1.1303
G1 X-1.6464 Y-1.1347
G1 X-1.6461 Y-1.1394
G1 X-1.6460 Y-1.1441
G1 X-1.6461 Y-1.1489
G1 X-1.6464 Y-1.1535
G1 X-1.6469 Y-1.1580
G1 X-1.6476 Y-1.1623
G1 X-1.6485 Y-1.1665
G1 X-1.6496 Y-1.1705
G1 X-1.6509 Y-1.1744
G1 X-1.6524 Y-1.1781
G1 X-1.6541 Y-1.1816
G1 X-1.6560 Y-1.1851
G1 X-1.6581 Y-1.1883
G1 X-1.6604 Y-1.1914
G1 X-1.6629 Y-1.1944
G1 X-1.6656 Y-1.1972
G1 X-1.6685 Y-1.1998
G1 X-1.6716 Y-1.2023
G1 X-1.6749 Y-1.2047
G1 X-1.6784 Y-1.2069
G1 X-1.6821 Y-1.2089
G1 X-1.6860 Y-1.2108
G1 X-1.6901 Y-1.2126
G1 X-1.6944 Y-1.2141
G1 X-1.6989 Y-1.2156
G1 X-1.7085 Y-1.2180
G1 X-1.7189 Y-1.2198
G1 X-1.7244 Y-1.2205
G1 X-1.7360 Y-1.2214
G1 X-1.7484 Y-1.2217
G1 X-1.9812
G1 X-1.9936 Y-1.2214
G1 X-2.0052 Y-1.2205
G1 X-2.0107 Y-1.2198
G1 X-2.0211 Y-1.2180
G1 X-2.0307 Y-1.2156
G1 X-2.0352 Y-1.2141
G1 X-2.0395 Y-1.2126
G1 X-2.0436 Y-1.2108
G1 X-2.0475 Y-1.2089
G1 X-2.0512 Y-1.2069
G1 X-2.0547 Y-1.2047
G1 X-2.0580 Y-1.2023
G1 X-2.0611 Y-1.1998
G1 X-2.0640 Y-1.1972
G1 X-2.0667 Y-1.1944
G1 X-2.0692 Y-1.1914
G1 X-2.0715 Y-1.1883
G1 X-2.0736 Y-1.1851
G1 X-2.0755 Y-1.1816
G1 X-2.0772 Y-1.1781
G1 X-2.0787 Y-1.1744
G1 X-2.0800 Y-1.1705
G1 X-2.0811 Y-1.1665
G1 X-2.0820 Y-1.1623
G1 X-2.0827 Y-1.1580
G1 X-2.0832 Y-1.1535
G1 X-2.0835 Y-1.1489
G1 X-2.0836 Y-1.1441
G1 X-2.0835 Y-1.1394
G1 X-2.0832 Y-1.1347
G1 X-2.0827 Y-1.1303
G1 X-2.0820 Y-1.1260
G1 X-2.0811 Y-1.1218
G1 X-2.0800 Y-1.1178
G1 X-2.0787 Y-1.1139
G1 X-2.0772 Y-1.1102
G1 X-2.0755 Y-1.1066
G1 X-2.0736 Y-1.1032
G1 X-2.0715 Y-1.1000
G1 X-2.0692 Y-1.0969
G1 X-2.0667 Y-1.0939
G1 X-2.0640 Y-1.0911
G1 X-2.0611 Y-1.0884
G1 X-2.0580 Y-1.0859
G1 X-2.0547 Y-1.0836
G1 X-2.0512 Y-1.0814
G1 X-2.0475 Y-1.0794
G1 X-2.0436 Y-1.0775
G1 X-2.0395 Y-1.0757
G1 X-2.0352 Y-1.0741
G1 X-2.0307 Y-1.0727
G1 X-2.0260 Y-1.0714
G1 X-2.0211 Y-1.0703
G1 X-2.0107 Y-1.0684
G1 X-2.0052 Y-1.0678
G1 X-1.9936 Y-1.0669
G1 X-1.9812 Y-1.0666
G1 X-1.9579
G1 Y-0.4722
G1 X-1.9812
G1 X-1.9936 Y-0.4719
G1 X-2.0052 Y-0.4710
G1 X-2.0107 Y-0.4703
G1 X-2.0211 Y-0.4685
G1 X-2.0260 Y-0.4674
G1 X-2.0307 Y-0.4661
G1 X-2.0352 Y-0.4647
G1 X-2.0395 Y-0.4631
G1 X-2.0436 Y-0.4613
G1 X-2.0475 Y-0.4594
G1 X-2.0512 Y-0.4574
G1 X-2.0547 Y-0.4552
G1 X-2.0580 Y-0.4528
G1 X-2.0611 Y-0.4503
G1 X-2.0640 Y-0.4477
G1 X-2.0667 Y-0.4449
G1 X-2.0692 Y-0.4419
G1 X-2.0715 Y-0.4388
G1 X-2.0736 Y-0.4356
G1 X-2.0755 Y-0.4322
G1 X-2.0772 Y-0.4286
G1 X-2.0787 Y-0.4249
G1 X-2.0800 Y-0.4210
G1 X-2.0811 Y-0.4170
G1 X-2.0820 Y-0.4128
G1 X-2.0827 Y-0.4085
G1 X-2.0832 Y-0.4041
G1 X-2.0835 Y-0.3994
G1 X-2.0836 Y-0.3947
G1 X-2.0835 Y-0.3891
G1 X-2.0832 Y-0.3839
G1 X-2.0827 Y-0.3788
G1 X-2.0819 Y-0.3740
G1 X-2.0810 Y-0.3694
G1 X-2.0799 Y-0.3651
G1 X-2.0785 Y-0.3609
G1 X-2.0770 Y-0.3570
G1 X-2.0752 Y-0.3534
G1 X-2.0733 Y-0.3499
G1 X-2.0711 Y-0.3467
G1 X-2.0687 Y-0.3437
G1 X-2.0662 Y-0.3410
G1 X-2.0634 Y-0.3385
G1 X-2.0604 Y-0.3362
G1 X-2.0538 Y-0.3321
G1 X-2.0502 Y-0.3301
G1 X-2.0426 Y-0.3267
G1 X-2.0384 Y-0.3251
G1 X-2.0297 Y-0.3225
G1 X-2.0202 Y-0.3203
G1 X-2.0099 Y-0.3187
G1 X-1.9990 Y-0.3177
G1 X-1.9873 Y-0.3171
G1 X-1.9812 Y-0.3171
G1 X-1.6351
G1 X-1.5984 Y-0.3183
G1 X-1.5634 Y-0.3219
G1 X-1.5465 Y-0.3246
G1 X-1.5301 Y-0.3280
G1 X-1.5141 Y-0.3319
G1 X-1.4986 Y-0.3365
G1 X-1.4835 Y-0.3416
G1 X-1.4688 Y-0.3474
G1 X-1.4546 Y-0.3537
G1 X-1.4408 Y-0.3607
G1 X-1.4274 Y-0.3683
G1 X-1.4145 Y-0.3765
G1 X-1.4020 Y-0.3853
G1 X-1.3900 Y-0.3947
G1 X-1.3783 Y-0.4043
G1 X-1.3674 Y-0.4144
G1 X-1.3573 Y-0.4248
G1 X-1.3479 Y-0.4356
G1 X-1.3392 Y-0.4467
G1 X-1.3313 Y-0.4582
G1 X-1.3242 Y-0.4701
G1 X-1.3178 Y-0.4823
G1 X-1.3122 Y-0.4949
G1 X-1.3073 Y-0.5079
G1 X-1.3031 Y-0.5212
G1 X-1.2998 Y-0.5349
G1 X-1.2971 Y-0.5489
G1 X-1.2953 Y-0.5634
G1 X-1.2941 Y-0.5781
G1 X-1.2937 Y-0.5933
G1 X-1.2944 Y-0.6109
G1 X-1.2964 Y-0.6282
G1 X-1.2996 Y-0.6450
G1 X-1.3042 Y-0.6615
G1 X-1.3101 Y-0.6775
G1 X-1.3173 Y-0.6931
G1 X-1.3258 Y-0.7084
G1 X-1.3356 Y-0.7232
G1 X-1.3468 Y-0.7377
G1 X-1.3592 Y-0.7517
G1 X-1.3730 Y-0.7654
G1 X-1.3880 Y-0.7786
G1 X-1.4044 Y-0.7915
G1 X-1.4221 Y-0.8039
G1 X-1.4410 Y-0.8159
G1 X-1.4613 Y-0.8276
G1 X-1.4362 Y-0.8507
G1 X-1.4113 Y-0.8757
G1 X-1.3866 Y-0.9027
G1 X-1.3620 Y-0.9316
G1 X-1.3377 Y-0.9624
G1 X-1.3135 Y-0.9952
G1 X-1.2896 Y-1.0299
G1 X-1.2658 Y-1.0666
G1 X-1.2456
G0 Z0.2500
M1

(MSG, CUTTING THE LETTER F)
G0 X-0.3883 Y-0.9595
G1 Z-0.0050  F#<PLUNGE>
G1 X-0.3883 Y-0.9595 F#<FEED>
G1 X-0.3931 Y-0.9594
G1 X-0.3977 Y-0.9591
G1 X-0.4022 Y-0.9586
G1 X-0.4065 Y-0.9579
G1 X-0.4107 Y-0.9569
G1 X-0.4147 Y-0.9558
G1 X-0.4186 Y-0.9545
G1 X-0.4223 Y-0.9530
G1 X-0.4258 Y-0.9513
G1 X-0.4292 Y-0.9493
G1 X-0.4325 Y-0.9472
G1 X-0.4356 Y-0.9449
G1 X-0.4386 Y-0.9423
G1 X-0.4414 Y-0.9396
G1 X-0.4440 Y-0.9366
G1 X-0.4465 Y-0.9335
G1 X-0.4489 Y-0.9301
G1 X-0.4511 Y-0.9266
G1 X-0.4531 Y-0.9228
G1 X-0.4550 Y-0.9189
G1 X-0.4567 Y-0.9147
G1 X-0.4583 Y-0.9103
G1 X-0.4598 Y-0.9058
G1 X-0.4622 Y-0.8960
G1 X-0.4640 Y-0.8855
G1 X-0.4647 Y-0.8799
G1 X-0.4656 Y-0.8681
G1 X-0.4659 Y-0.8555
G1 Y-0.8447
G1 X-0.5978
G1 Y-1.0666
G1 X-0.4426
G1 X-0.4302 Y-1.0669
G1 X-0.4186 Y-1.0678
G1 X-0.4131 Y-1.0684
G1 X-0.4027 Y-1.0703
G1 X-0.3931 Y-1.0727
G1 X-0.3886 Y-1.0741
G1 X-0.3843 Y-1.0757
G1 X-0.3802 Y-1.0775
G1 X-0.3763 Y-1.0794
G1 X-0.3726 Y-1.0814
G1 X-0.3691 Y-1.0836
G1 X-0.3658 Y-1.0859
G1 X-0.3627 Y-1.0884
G1 X-0.3598 Y-1.0911
G1 X-0.3571 Y-1.0939
G1 X-0.3546 Y-1.0969
G1 X-0.3523 Y-1.1000
G1 X-0.3502 Y-1.1032
G1 X-0.3483 Y-1.1066
G1 X-0.3466 Y-1.1102
G1 X-0.3451 Y-1.1139
G1 X-0.3438 Y-1.1178
G1 X-0.3427 Y-1.1218
G1 X-0.3418 Y-1.1260
G1 X-0.3411 Y-1.1303
G1 X-0.3406 Y-1.1347
G1 X-0.3403 Y-1.1394
G1 X-0.3402 Y-1.1441
G1 X-0.3403 Y-1.1489
G1 X-0.3406 Y-1.1535
G1 X-0.3411 Y-1.1580
G1 X-0.3418 Y-1.1623
G1 X-0.3427 Y-1.1665
G1 X-0.3438 Y-1.1705
G1 X-0.3451 Y-1.1744
G1 X-0.3466 Y-1.1781
G1 X-0.3483 Y-1.1816
G1 X-0.3502 Y-1.1851
G1 X-0.3523 Y-1.1883
G1 X-0.3546 Y-1.1914
G1 X-0.3571 Y-1.1944
G1 X-0.3598 Y-1.1972
G1 X-0.3627 Y-1.1998
G1 X-0.3658 Y-1.2023
G1 X-0.3691 Y-1.2047
G1 X-0.3726 Y-1.2069
G1 X-0.3763 Y-1.2089
G1 X-0.3802 Y-1.2108
G1 X-0.3843 Y-1.2126
G1 X-0.3886 Y-1.2141
G1 X-0.3931 Y-1.2156
G1 X-0.4027 Y-1.2180
G1 X-0.4131 Y-1.2198
G1 X-0.4186 Y-1.2205
G1 X-0.4302 Y-1.2214
G1 X-0.4426 Y-1.2217
G1 X-0.7763
G1 X-0.7887 Y-1.2214
G1 X-0.8003 Y-1.2205
G1 X-0.8058 Y-1.2198
G1 X-0.8162 Y-1.2180
G1 X-0.8258 Y-1.2156
G1 X-0.8303 Y-1.2141
G1 X-0.8346 Y-1.2126
G1 X-0.8387 Y-1.2108
G1 X-0.8426 Y-1.2089
G1 X-0.8463 Y-1.2069
G1 X-0.8498 Y-1.2047
G1 X-0.8531 Y-1.2023
G1 X-0.8562 Y-1.1998
G1 X-0.8591 Y-1.1972
G1 X-0.8618 Y-1.1944
G1 X-0.8643 Y-1.1914
G1 X-0.8666 Y-1.1883
G1 X-0.8687 Y-1.1851
G1 X-0.8706 Y-1.1816
G1 X-0.8723 Y-1.1781
G1 X-0.8738 Y-1.1744
G1 X-0.8751 Y-1.1705
G1 X-0.8762 Y-1.1665
G1 X-0.8771 Y-1.1623
G1 X-0.8778 Y-1.1580
G1 X-0.8783 Y-1.1535
G1 X-0.8786 Y-1.1489
G1 X-0.8787 Y-1.1441
G1 X-0.8786 Y-1.1394
G1 X-0.8783 Y-1.1347
G1 X-0.8778 Y-1.1303
G1 X-0.8771 Y-1.1260
G1 X-0.8762 Y-1.1218
G1 X-0.8751 Y-1.1178
G1 X-0.8738 Y-1.1139
G1 X-0.8723 Y-1.1102
G1 X-0.8706 Y-1.1066
G1 X-0.8687 Y-1.1032
G1 X-0.8666 Y-1.1000
G1 X-0.8643 Y-1.0969
G1 X-0.8618 Y-1.0939
G1 X-0.8591 Y-1.0911
G1 X-0.8562 Y-1.0884
G1 X-0.8531 Y-1.0859
G1 X-0.8498 Y-1.0836
G1 X-0.8463 Y-1.0814
G1 X-0.8426 Y-1.0794
G1 X-0.8387 Y-1.0775
G1 X-0.8346 Y-1.0757
G1 X-0.8303 Y-1.0741
G1 X-0.8258 Y-1.0727
G1 X-0.8211 Y-1.0714
G1 X-0.8162 Y-1.0703
G1 X-0.8058 Y-1.0684
G1 X-0.8003 Y-1.0678
G1 X-0.7887 Y-1.0669
G1 X-0.7763 Y-1.0666
G1 X-0.7530
G1 Y-0.4722
G1 X-0.7763
G1 X-0.7887 Y-0.4719
G1 X-0.8003 Y-0.4710
G1 X-0.8058 Y-0.4703
G1 X-0.8162 Y-0.4685
G1 X-0.8211 Y-0.4674
G1 X-0.8258 Y-0.4661
G1 X-0.8303 Y-0.4647
G1 X-0.8346 Y-0.4631
G1 X-0.8387 Y-0.4613
G1 X-0.8426 Y-0.4594
G1 X-0.8463 Y-0.4574
G1 X-0.8498 Y-0.4552
G1 X-0.8531 Y-0.4528
G1 X-0.8562 Y-0.4503
G1 X-0.8591 Y-0.4477
G1 X-0.8618 Y-0.4449
G1 X-0.8643 Y-0.4419
G1 X-0.8666 Y-0.4388
G1 X-0.8687 Y-0.4356
G1 X-0.8706 Y-0.4322
G1 X-0.8723 Y-0.4286
G1 X-0.8738 Y-0.4249
G1 X-0.8751 Y-0.4210
G1 X-0.8762 Y-0.4170
G1 X-0.8771 Y-0.4128
G1 X-0.8778 Y-0.4085
G1 X-0.8783 Y-0.4041
G1 X-0.8786 Y-0.3994
G1 X-0.8787 Y-0.3947
G1 X-0.8786 Y-0.3891
G1 X-0.8783 Y-0.3839
G1 X-0.8777 Y-0.3788
G1 X-0.8770 Y-0.3740
G1 X-0.8761 Y-0.3694
G1 X-0.8750 Y-0.3651
G1 X-0.8736 Y-0.3609
G1 X-0.8721 Y-0.3570
G1 X-0.8703 Y-0.3534
G1 X-0.8684 Y-0.3499
G1 X-0.8662 Y-0.3467
G1 X-0.8638 Y-0.3437
G1 X-0.8612 Y-0.3410
G1 X-0.8585 Y-0.3385
G1 X-0.8555 Y-0.3362
G1 X-0.8489 Y-0.3321
G1 X-0.8453 Y-0.3301
G1 X-0.8416 Y-0.3283
G1 X-0.8335 Y-0.3251
G1 X-0.8247 Y-0.3225
G1 X-0.8152 Y-0.3203
G1 X-0.8050 Y-0.3187
G1 X-0.7941 Y-0.3177
G1 X-0.7824 Y-0.3171
G1 X-0.0454 Y-0.3171
G1 Y-0.5514
G1 X-0.0457 Y-0.5638
G1 X-0.0466 Y-0.5754
G1 X-0.0473 Y-0.5809
G1 X-0.0491 Y-0.5913
G1 X-0.0515 Y-0.6009
G1 X-0.0530 Y-0.6054
G1 X-0.0546 Y-0.6097
G1 X-0.0563 Y-0.6138
G1 X-0.0582 Y-0.6177
G1 X-0.0602 Y-0.6214
G1 X-0.0624 Y-0.6249
G1 X-0.0648 Y-0.6282
G1 X-0.0673 Y-0.6313
G1 X-0.0699 Y-0.6342
G1 X-0.0727 Y-0.6369
G1 X-0.0757 Y-0.6394
G1 X-0.0788 Y-0.6417
G1 X-0.0821 Y-0.6438
G1 X-0.0855 Y-0.6457
G1 X-0.0890 Y-0.6474
G1 X-0.0927 Y-0.6489
G1 X-0.0966 Y-0.6502
G1 X-0.1006 Y-0.6513
G1 X-0.1048 Y-0.6522
G1 X-0.1091 Y-0.6529
G1 X-0.1136 Y-0.6534
G1 X-0.1182 Y-0.6537
G1 X-0.1230 Y-0.6538
G1 X-0.1277 Y-0.6537
G1 X-0.1324 Y-0.6534
G1 X-0.1368 Y-0.6529
G1 X-0.1412 Y-0.6522
G1 X-0.1453 Y-0.6513
G1 X-0.1493 Y-0.6502
G1 X-0.1532 Y-0.6489
G1 X-0.1569 Y-0.6474
G1 X-0.1605 Y-0.6457
G1 X-0.1639 Y-0.6438
G1 X-0.1671 Y-0.6417
G1 X-0.1703 Y-0.6394
G1 X-0.1732 Y-0.6369
G1 X-0.1760 Y-0.6342
G1 X-0.1787 Y-0.6313
G1 X-0.1812 Y-0.6282
G1 X-0.1835 Y-0.6249
G1 X-0.1857 Y-0.6214
G1 X-0.1878 Y-0.6177
G1 X-0.1896 Y-0.6138
G1 X-0.1914 Y-0.6097
G1 X-0.1930 Y-0.6054
G1 X-0.1944 Y-0.6009
G1 X-0.1968 Y-0.5913
G1 X-0.1987 Y-0.5809
G1 X-0.1993 Y-0.5754
G1 X-0.2003 Y-0.5638
G1 X-0.2006 Y-0.5514
G1 Y-0.4722
G1 X-0.5978
G1 Y-0.6910
G1 X-0.4659
G1 Y-0.6802
G1 X-0.4656 Y-0.6678
G1 X-0.4647 Y-0.6562
G1 X-0.4632 Y-0.6454
G1 X-0.4611 Y-0.6354
G1 X-0.4598 Y-0.6307
G1 X-0.4583 Y-0.6262
G1 X-0.4567 Y-0.6219
G1 X-0.4550 Y-0.6178
G1 X-0.4531 Y-0.6139
G1 X-0.4511 Y-0.6102
G1 X-0.4489 Y-0.6067
G1 X-0.4465 Y-0.6034
G1 X-0.4440 Y-0.6003
G1 X-0.4414 Y-0.5974
G1 X-0.4386 Y-0.5947
G1 X-0.4356 Y-0.5922
G1 X-0.4325 Y-0.5899
G1 X-0.4292 Y-0.5878
G1 X-0.4258 Y-0.5859
G1 X-0.4223 Y-0.5842
G1 X-0.4186 Y-0.5827
G1 X-0.4147 Y-0.5814
G1 X-0.4107 Y-0.5803
G1 X-0.4065 Y-0.5794
G1 X-0.4022 Y-0.5787
G1 X-0.3977 Y-0.5782
G1 X-0.3931 Y-0.5779
G1 X-0.3883 Y-0.5778
G1 X-0.3836 Y-0.5779
G1 X-0.3791 Y-0.5782
G1 X-0.3747 Y-0.5787
G1 X-0.3705 Y-0.5794
G1 X-0.3664 Y-0.5803
G1 X-0.3625 Y-0.5814
G1 X-0.3587 Y-0.5827
G1 X-0.3551 Y-0.5842
G1 X-0.3516 Y-0.5859
G1 X-0.3482 Y-0.5878
G1 X-0.3450 Y-0.5899
G1 X-0.3420 Y-0.5922
G1 X-0.3391 Y-0.5947
G1 X-0.3363 Y-0.5974
G1 X-0.3337 Y-0.6003
G1 X-0.3313 Y-0.6034
G1 X-0.3290 Y-0.6067
G1 X-0.3268 Y-0.6102
G1 X-0.3248 Y-0.6139
G1 X-0.3230 Y-0.6178
G1 X-0.3213 Y-0.6219
G1 X-0.3197 Y-0.6262
G1 X-0.3183 Y-0.6307
G1 X-0.3159 Y-0.6403
G1 X-0.3141 Y-0.6507
G1 X-0.3135 Y-0.6562
G1 X-0.3126 Y-0.6678
G1 X-0.3123 Y-0.6802
G1 Y-0.8555
G1 X-0.3126 Y-0.8681
G1 X-0.3135 Y-0.8799
G1 X-0.3150 Y-0.8908
G1 X-0.3159 Y-0.8960
G1 X-0.3183 Y-0.9058
G1 X-0.3197 Y-0.9103
G1 X-0.3213 Y-0.9147
G1 X-0.3230 Y-0.9189
G1 X-0.3248 Y-0.9228
G1 X-0.3268 Y-0.9266
G1 X-0.3290 Y-0.9301
G1 X-0.3313 Y-0.9335
G1 X-0.3337 Y-0.9366
G1 X-0.3363 Y-0.9396
G1 X-0.3391 Y-0.9423
G1 X-0.3420 Y-0.9449
G1 X-0.3450 Y-0.9472
G1 X-0.3482 Y-0.9493
G1 X-0.3516 Y-0.9513
G1 X-0.3551 Y-0.9530
G1 X-0.3587 Y-0.9545
G1 X-0.3625 Y-0.9558
G1 X-0.3664 Y-0.9569
G1 X-0.3705 Y-0.9579
G1 X-0.3747 Y-0.9586
G1 X-0.3791 Y-0.9591
G1 X-0.3836 Y-0.9594
G1 X-0.3883 Y-0.9595
G0 Z0.2500
M1

(MSG, CUTTING THE NUMBER 4)
G0 X0.6785 Y-1.2217
G1 Z-0.0050  F#<PLUNGE>
G1 X0.6785 Y-1.2217 F#<FEED>
G1 X0.6661 Y-1.2214
G1 X0.6545 Y-1.2205
G1 X0.6490 Y-1.2198
G1 X0.6386 Y-1.2180
G1 X0.6290 Y-1.2156
G1 X0.6245 Y-1.2141
G1 X0.6202 Y-1.2126
G1 X0.6161 Y-1.2108
G1 X0.6122 Y-1.2089
G1 X0.6085 Y-1.2069
G1 X0.6050 Y-1.2047
G1 X0.6017 Y-1.2023
G1 X0.5986 Y-1.1998
G1 X0.5957 Y-1.1972
G1 X0.5930 Y-1.1944
G1 X0.5905 Y-1.1914
G1 X0.5882 Y-1.1883
G1 X0.5861 Y-1.1851
G1 X0.5842 Y-1.1816
G1 X0.5825 Y-1.1781
G1 X0.5810 Y-1.1744
G1 X0.5797 Y-1.1705
G1 X0.5786 Y-1.1665
G1 X0.5777 Y-1.1623
G1 X0.5770 Y-1.1580
G1 X0.5765 Y-1.1535
G1 X0.5762 Y-1.1489
G1 X0.5761 Y-1.1441
G1 X0.5762 Y-1.1394
G1 X0.5765 Y-1.1347
G1 X0.5770 Y-1.1303
G1 X0.5777 Y-1.1260
G1 X0.5786 Y-1.1218
G1 X0.5797 Y-1.1178
G1 X0.5810 Y-1.1139
G1 X0.5825 Y-1.1102
G1 X0.5842 Y-1.1066
G1 X0.5861 Y-1.1032
G1 X0.5882 Y-1.1000
G1 X0.5905 Y-1.0969
G1 X0.5930 Y-1.0939
G1 X0.5957 Y-1.0911
G1 X0.5986 Y-1.0884
G1 X0.6017 Y-1.0859
G1 X0.6050 Y-1.0836
G1 X0.6085 Y-1.0814
G1 X0.6122 Y-1.0794
G1 X0.6161 Y-1.0775
G1 X0.6202 Y-1.0757
G1 X0.6245 Y-1.0741
G1 X0.6290 Y-1.0727
G1 X0.6337 Y-1.0714
G1 X0.6437 Y-1.0693
G1 X0.6545 Y-1.0678
G1 X0.6661 Y-1.0669
G1 X0.6785 Y-1.0666
G1 X0.7375
G1 Y-1.0076
G1 X0.3154
G1 Y-0.8788
G1 X0.6894 Y-0.2566
G1 X0.8926
G1 Y-0.8524
G1 X0.9041 Y-0.8527
G1 X0.9148 Y-0.8536
G1 X0.9248 Y-0.8551
G1 X0.9340 Y-0.8573
G1 X0.9384 Y-0.8586
G1 X0.9425 Y-0.8600
G1 X0.9465 Y-0.8616
G1 X0.9503 Y-0.8633
G1 X0.9539 Y-0.8652
G1 X0.9573 Y-0.8673
G1 X0.9606 Y-0.8695
G1 X0.9636 Y-0.8718
G1 X0.9665 Y-0.8743
G1 X0.9692 Y-0.8770
G1 X0.9717 Y-0.8798
G1 X0.9740 Y-0.8827
G1 X0.9761 Y-0.8858
G1 X0.9780 Y-0.8891
G1 X0.9798 Y-0.8925
G1 X0.9814 Y-0.8961
G1 X0.9828 Y-0.8998
G1 X0.9840 Y-0.9036
G1 X0.9850 Y-0.9076
G1 X0.9858 Y-0.9118
G1 X0.9865 Y-0.9161
G1 X0.9869 Y-0.9206
G1 X0.9873 Y-0.9300
G1 X0.9869 Y-0.9390
G1 X0.9865 Y-0.9433
G1 X0.9858 Y-0.9475
G1 X0.9850 Y-0.9515
G1 X0.9840 Y-0.9554
G1 X0.9828 Y-0.9592
G1 X0.9814 Y-0.9628
G1 X0.9798 Y-0.9663
G1 X0.9780 Y-0.9696
G1 X0.9761 Y-0.9728
G1 X0.9740 Y-0.9758
G1 X0.9717 Y-0.9787
G1 X0.9692 Y-0.9815
G1 X0.9665 Y-0.9841
G1 X0.9636 Y-0.9866
G1 X0.9606 Y-0.9890
G1 X0.9573 Y-0.9912
G1 X0.9539 Y-0.9933
G1 X0.9503 Y-0.9952
G1 X0.9465 Y-0.9970
G1 X0.9425 Y-0.9987
G1 X0.9340 Y-1.0016
G1 X0.9248 Y-1.0039
G1 X0.9148 Y-1.0057
G1 X0.9041 Y-1.0069
G1 X0.8926 Y-1.0076
G1 Y-1.0666
G1 X0.9041 Y-1.0669
G1 X0.9148 Y-1.0678
G1 X0.9248 Y-1.0693
G1 X0.9340 Y-1.0714
G1 X0.9384 Y-1.0727
G1 X0.9425 Y-1.0741
G1 X0.9465 Y-1.0757
G1 X0.9503 Y-1.0775
G1 X0.9539 Y-1.0794
G1 X0.9573 Y-1.0814
G1 X0.9606 Y-1.0836
G1 X0.9636 Y-1.0859
G1 X0.9665 Y-1.0884
G1 X0.9692 Y-1.0911
G1 X0.9717 Y-1.0939
G1 X0.9740 Y-1.0969
G1 X0.9761 Y-1.1000
G1 X0.9780 Y-1.1032
G1 X0.9798 Y-1.1066
G1 X0.9814 Y-1.1102
G1 X0.9828 Y-1.1139
G1 X0.9840 Y-1.1178
G1 X0.9850 Y-1.1218
G1 X0.9858 Y-1.1260
G1 X0.9865 Y-1.1303
G1 X0.9869 Y-1.1347
G1 X0.9873 Y-1.1441
G1 X0.9872 Y-1.1489
G1 X0.9869 Y-1.1535
G1 X0.9864 Y-1.1580
G1 X0.9857 Y-1.1623
G1 X0.9847 Y-1.1665
G1 X0.9836 Y-1.1705
G1 X0.9823 Y-1.1744
G1 X0.9808 Y-1.1781
G1 X0.9791 Y-1.1816
G1 X0.9771 Y-1.1851
G1 X0.9750 Y-1.1883
G1 X0.9727 Y-1.1914
G1 X0.9701 Y-1.1944
G1 X0.9674 Y-1.1972
G1 X0.9644 Y-1.1998
G1 X0.9613 Y-1.2023
G1 X0.9579 Y-1.2047
G1 X0.9544 Y-1.2069
G1 X0.9506 Y-1.2089
G1 X0.9467 Y-1.2108
G1 X0.9425 Y-1.2126
G1 X0.9381 Y-1.2141
G1 X0.9336 Y-1.2156
G1 X0.9288 Y-1.2169
G1 X0.9187 Y-1.2190
G1 X0.9077 Y-1.2205
G1 X0.8959 Y-1.2214
G1 X0.8833 Y-1.2217
G1 X0.6785
G0 Z0.2500
G0 X0.7375 Y-0.8524
G1 Z-0.0050  F#<PLUNGE>
G1 X0.7375 Y-0.8524 F#<FEED>
G1 Y-0.4769
G1 X0.5047 Y-0.8524
G1 X0.7375
G0 Z0.2500
G0 X1.9874 Y-0.3341
M1

(MSG, CUTTING THE NUMBER 5)
G1 Z-0.0050  F#<PLUNGE>
G1 X1.9874 Y-0.3341 F#<FEED>
G1 X1.9873 Y-0.3389
G1 X1.9870 Y-0.3435
G1 X1.9865 Y-0.3480
G1 X1.9858 Y-0.3523
G1 X1.9849 Y-0.3565
G1 X1.9838 Y-0.3605
G1 X1.9825 Y-0.3644
G1 X1.9810 Y-0.3681
G1 X1.9793 Y-0.3716
G1 X1.9774 Y-0.3751
G1 X1.9753 Y-0.3783
G1 X1.9730 Y-0.3814
G1 X1.9705 Y-0.3844
G1 X1.9678 Y-0.3872
G1 X1.9649 Y-0.3898
G1 X1.9618 Y-0.3923
G1 X1.9585 Y-0.3947
G1 X1.9550 Y-0.3969
G1 X1.9513 Y-0.3989
G1 X1.9474 Y-0.4008
G1 X1.9433 Y-0.4026
G1 X1.9390 Y-0.4041
G1 X1.9345 Y-0.4056
G1 X1.9249 Y-0.4080
G1 X1.9198 Y-0.4090
G1 X1.9090 Y-0.4105
G1 X1.8974 Y-0.4114
G1 X1.8850 Y-0.4117
G1 X1.5715
G1 Y-0.5902
G1 X1.5929 Y-0.5840
G1 X1.6137 Y-0.5786
G1 X1.6338 Y-0.5741
G1 X1.6534 Y-0.5704
G1 X1.6722 Y-0.5675
G1 X1.6905 Y-0.5654
G1 X1.7081 Y-0.5642
G1 X1.7251 Y-0.5638
G1 X1.7426 Y-0.5642
G1 X1.7597 Y-0.5653
G1 X1.7764 Y-0.5672
G1 X1.7927 Y-0.5699
G1 X1.8087 Y-0.5733
G1 X1.8243 Y-0.5775
G1 X1.8395 Y-0.5825
G1 X1.8543 Y-0.5882
G1 X1.8688 Y-0.5947
G1 X1.8828 Y-0.6020
G1 X1.8966 Y-0.6100
G1 X1.9099 Y-0.6188
G1 X1.9228 Y-0.6283
G1 X1.9354 Y-0.6386
G1 X1.9476 Y-0.6497
G1 X1.9594 Y-0.6616
G1 X1.9707 Y-0.6740
G1 X1.9813 Y-0.6868
G1 X1.9911 Y-0.7000
G1 X2.0002 Y-0.7136
G1 X2.0085 Y-0.7277
G1 X2.0162 Y-0.7421
G1 X2.0231 Y-0.7569
G1 X2.0293 Y-0.7721
G1 X2.0347 Y-0.7877
G1 X2.0395 Y-0.8038
G1 X2.0435 Y-0.8202
G1 X2.0467 Y-0.8370
G1 X2.0493 Y-0.8542
G1 X2.0511 Y-0.8718
G1 X2.0522 Y-0.8899
G1 X2.0525 Y-0.9083
G1 X2.0520 Y-0.9299
G1 X2.0502 Y-0.9513
G1 X2.0473 Y-0.9726
G1 X2.0432 Y-0.9936
G1 X2.0410 Y-1.0042
G1 X2.0382 Y-1.0150
G1 X2.0348 Y-1.0259
G1 X2.0308 Y-1.0371
G1 X2.0263 Y-1.0484
G1 X2.0211 Y-1.0600
G1 X2.0154 Y-1.0717
G1 X2.0091 Y-1.0836
G1 X2.0026 Y-1.0951
G1 X1.9956 Y-1.1061
G1 X1.9881 Y-1.1168
G1 X1.9800 Y-1.1271
G1 X1.9714 Y-1.1370
G1 X1.9623 Y-1.1465
G1 X1.9526 Y-1.1556
G1 X1.9424 Y-1.1643
G1 X1.9318 Y-1.1727
G1 X1.9202 Y-1.1807
G1 X1.9075 Y-1.1884
G1 X1.8939 Y-1.1957
G1 X1.8792 Y-1.2027
G1 X1.8635 Y-1.2094
G1 X1.8468 Y-1.2157
G1 X1.8291 Y-1.2217
G1 X1.8109 Y-1.2272
G1 X1.7920 Y-1.2319
G1 X1.7723 Y-1.2359
G1 X1.7519 Y-1.2392
G1 X1.7308 Y-1.2417
G1 X1.7089 Y-1.2435
G1 X1.6864 Y-1.2446
G1 X1.6631 Y-1.2450
G1 X1.6288 Y-1.2443
G1 X1.5960 Y-1.2423
G1 X1.5646 Y-1.2389
G1 X1.5347 Y-1.2341
G1 X1.5061 Y-1.2280
G1 X1.4789 Y-1.2206
G1 X1.4531 Y-1.2117
G1 X1.4287 Y-1.2016
G1 X1.4173 Y-1.1958
G1 X1.4066 Y-1.1900
G1 X1.3966 Y-1.1840
G1 X1.3873 Y-1.1778
G1 X1.3788 Y-1.1715
G1 X1.3711 Y-1.1650
G1 X1.3640 Y-1.1583
G1 X1.3578 Y-1.1515
G1 X1.3522 Y-1.1445
G1 X1.3497 Y-1.1410
G1 X1.3453 Y-1.1338
G1 X1.3433 Y-1.1301
G1 X1.3416 Y-1.1264
G1 X1.3386 Y-1.1189
G1 X1.3364 Y-1.1113
G1 X1.3356 Y-1.1074
G1 X1.3349 Y-1.1034
G1 X1.3342 Y-1.0954
G1 X1.3341 Y-1.0914
G1 X1.3345 Y-1.0838
G1 X1.3355 Y-1.0764
G1 X1.3364 Y-1.0729
G1 X1.3374 Y-1.0694
G1 X1.3399 Y-1.0627
G1 X1.3432 Y-1.0562
G1 X1.3451 Y-1.0531
G1 X1.3495 Y-1.0471
G1 X1.3519 Y-1.0442
G1 X1.3546 Y-1.0414
G1 X1.3603 Y-1.0358
G1 X1.3664 Y-1.0307
G1 X1.3695 Y-1.0284
G1 X1.3727 Y-1.0263
G1 X1.3792 Y-1.0227
G1 X1.3860 Y-1.0198
G1 X1.3930 Y-1.0176
G1 X1.3966 Y-1.0168
G1 X1.4040 Y-1.0157
G1 X1.4117 Y-1.0153
G1 X1.4167 Y-1.0155
G1 X1.4216 Y-1.0161
G1 X1.4264 Y-1.0171
G1 X1.4311 Y-1.0184
G1 X1.4357 Y-1.0202
G1 X1.4402 Y-1.0223
G1 X1.4446 Y-1.0248
G1 X1.4489 Y-1.0278
G1 X1.4580 Y-1.0334
G1 X1.4668 Y-1.0394
G1 X1.4751 Y-1.0458
G1 X1.4831 Y-1.0526
G1 X1.4853 Y-1.0543
G1 X1.4904 Y-1.0578
G1 X1.4933 Y-1.0595
G1 X1.4998 Y-1.0628
G1 X1.5071 Y-1.0662
G1 X1.5153 Y-1.0694
G1 X1.5292 Y-1.0743
G1 X1.5396 Y-1.0774
G1 X1.5451 Y-1.0790
G1 X1.5571 Y-1.0815
G1 X1.5699 Y-1.0837
G1 X1.5833 Y-1.0856
G1 X1.5975 Y-1.0871
G1 X1.6124 Y-1.0883
G1 X1.6280 Y-1.0891
G1 X1.6444 Y-1.0897
G1 X1.6615 Y-1.0898
G1 X1.6908 Y-1.0891
G1 X1.7047 Y-1.0883
G1 X1.7180 Y-1.0871
G1 X1.7309 Y-1.0856
G1 X1.7433 Y-1.0837
G1 X1.7552 Y-1.0815
G1 X1.7666 Y-1.0790
G1 X1.7775 Y-1.0761
G1 X1.7879 Y-1.0729
G1 X1.7979 Y-1.0693
G1 X1.8073 Y-1.0654
G1 X1.8162 Y-1.0611
G1 X1.8246 Y-1.0566
G1 X1.8325 Y-1.0516
G1 X1.8400 Y-1.0464
G1 X1.8469 Y-1.0406
G1 X1.8534 Y-1.0344
G1 X1.8595 Y-1.0279
G1 X1.8651 Y-1.0210
G1 X1.8702 Y-1.0137
G1 X1.8749 Y-1.0061
G1 X1.8792 Y-0.9981
G1 X1.8830 Y-0.9897
G1 X1.8864 Y-0.9810
G1 X1.8893 Y-0.9719
G1 X1.8918 Y-0.9625
G1 X1.8938 Y-0.9527
G1 X1.8954 Y-0.9425
G1 X1.8965 Y-0.9320
G1 X1.8971 Y-0.9211
G1 X1.8974 Y-0.9098
G1 X1.8966 Y-0.8890
G1 X1.8957 Y-0.8790
G1 X1.8944 Y-0.8692
G1 X1.8927 Y-0.8597
G1 X1.8906 Y-0.8504
G1 X1.8882 Y-0.8414
G1 X1.8853 Y-0.8326
G1 X1.8822 Y-0.8241
G1 X1.8786 Y-0.8159
G1 X1.8746 Y-0.8079
G1 X1.8703 Y-0.8001
G1 X1.8656 Y-0.7927
G1 X1.8605 Y-0.7854
G1 X1.8551 Y-0.7784
G1 X1.8493 Y-0.7717
G1 X1.8431 Y-0.7653
G1 X1.8368 Y-0.7594
G1 X1.8302 Y-0.7538
G1 X1.8234 Y-0.7486
G1 X1.8163 Y-0.7439
G1 X1.8090 Y-0.7396
G1 X1.8015 Y-0.7357
G1 X1.7938 Y-0.7322
G1 X1.7858 Y-0.7291
G1 X1.7776 Y-0.7264
G1 X1.7692 Y-0.7241
G1 X1.7605 Y-0.7223
G1 X1.7516 Y-0.7208
G1 X1.7425 Y-0.7198
G1 X1.7332 Y-0.7192
G1 X1.7236 Y-0.7190
G1 X1.7075 Y-0.7195
G1 X1.6909 Y-0.7210
G1 X1.6739 Y-0.7235
G1 X1.6565 Y-0.7271
G1 X1.6386 Y-0.7317
G1 X1.6203 Y-0.7373
G1 X1.6015 Y-0.7439
G1 X1.5824 Y-0.7516
G1 X1.5477 Y-0.7658
G1 X1.5243 Y-0.7749
G1 X1.5138 Y-0.7788
G1 X1.5053 Y-0.7816
G1 X1.4989 Y-0.7833
G1 X1.4945 Y-0.7841
G1 X1.4897 Y-0.7840
G1 X1.4856 Y-0.7838
G1 X1.4816 Y-0.7833
G1 X1.4776 Y-0.7826
G1 X1.4738 Y-0.7817
G1 X1.4701 Y-0.7806
G1 X1.4664 Y-0.7794
G1 X1.4629 Y-0.7779
G1 X1.4594 Y-0.7763
G1 X1.4561 Y-0.7744
G1 X1.4529 Y-0.7724
G1 X1.4497 Y-0.7702
G1 X1.4466 Y-0.7677
G1 X1.4437 Y-0.7651
G1 X1.4408 Y-0.7623
G1 X1.4381 Y-0.7593
G1 X1.4330 Y-0.7529
G1 X1.4286 Y-0.7461
G1 X1.4266 Y-0.7426
G1 X1.4232 Y-0.7352
G1 X1.4205 Y-0.7275
G1 X1.4194 Y-0.7234
G1 X1.4177 Y-0.7151
G1 X1.4167 Y-0.7064
G1 X1.4163 Y-0.6972
G1 Y-0.2566
G1 X1.8850
G1 X1.8970 Y-0.2568
G1 X1.9083 Y-0.2576
G1 X1.9189 Y-0.2590
G1 X1.9288 Y-0.2608
G1 X1.9335 Y-0.2620
G1 X1.9379 Y-0.2632
G1 X1.9463 Y-0.2662
G1 X1.9540 Y-0.2696
G1 X1.9576 Y-0.2716
G1 X1.9642 Y-0.2757
G1 X1.9672 Y-0.2780
G1 X1.9700 Y-0.2805
G1 X1.9725 Y-0.2832
G1 X1.9749 Y-0.2862
G1 X1.9771 Y-0.2894
G1 X1.9790 Y-0.2928
G1 X1.9808 Y-0.2965
G1 X1.9823 Y-0.3004
G1 X1.9837 Y-0.3045
G1 X1.9848 Y-0.3089
G1 X1.9857 Y-0.3135
G1 X1.9864 Y-0.3183
G1 X1.9870 Y-0.3233
G1 X1.9873 Y-0.3286
G0 Z.25
G0 X0 Y0
G0 Z5
M5
M2

