%
(Oval Pocket)
(T1  D=0.5 CR=0 - ZMIN=-0.79 - bullnose end mill)
G90 G94
G17
G20
G28 G91 Z0
G90

(2D Adaptive1)
M9
T1 M6
S5000 M3
G54
M8
G0 X-0.2549 Y-0.0487
Z0.6
Z0.2
Z0.17
G1 Z0.12 F100
G3 X0.2099 Y0.0494 Z0.0939 I0.2324 J0.0491 F33.33
X-0.2549 Y-0.0487 Z0.0679 I-0.2324 J-0.0491
X0.2099 Y0.0494 Z0.0418 I0.2324 J0.0491
X-0.2549 Y-0.0487 Z0.0158 I-0.2324 J-0.0491
X0.2099 Y0.0494 Z-0.0103 I0.2324 J0.0491
X-0.2549 Y-0.0487 Z-0.0363 I-0.2324 J-0.0491
X0.2099 Y0.0494 Z-0.0624 I0.2324 J0.0491
X-0.2549 Y-0.0487 Z-0.0884 I-0.2324 J-0.0491
X0.2099 Y0.0494 Z-0.1145 I0.2324 J0.0491
X-0.2549 Y-0.0487 Z-0.1406 I-0.2324 J-0.0491
X0.2099 Y0.0494 Z-0.1666 I0.2324 J0.0491
X-0.2549 Y-0.0487 Z-0.1927 I-0.2324 J-0.0491
X0.2099 Y0.0494 Z-0.2187 I0.2324 J0.0491
X-0.2549 Y-0.0487 Z-0.2448 I-0.2324 J-0.0491
X0.2099 Y0.0494 Z-0.2708 I0.2324 J0.0491
X-0.2549 Y-0.0487 Z-0.2969 I-0.2324 J-0.0491
X0.2099 Y0.0494 Z-0.3229 I0.2324 J0.0491
X-0.2549 Y-0.0487 Z-0.349 I-0.2324 J-0.0491
X0.215 Y0.0003 Z-0.3733 I0.2324 J0.0491
X-0.26 I-0.2375
X0.215 I0.2375
G1 X0.2152 Y0.0136 F100
X0.2169 Y0.0268
X0.2295 Y0.0786
X0.2328 Y0.0858
X0.2357 Y0.094
X0.2382 Y0.1033
X0.2401 Y0.1136
X0.2413 Y0.125
X0.2416 Y0.1373
X0.2408 Y0.1505
X0.2389 Y0.1646
X0.2356 Y0.1793
X0.2309 Y0.1946
X0.2246 Y0.2104
X0.2167 Y0.2263
X0.2071 Y0.2424
X0.1957 Y0.2583
X0.1826 Y0.2739
X0.1676 Y0.2889
X0.151 Y0.3032
X0.1326 Y0.3166
X0.1127 Y0.3288
X0.0912 Y0.3397
X0.0683 Y0.349
X0.0443 Y0.3566
X0.0191 Y0.3625
X-0.0069 Y0.3663
X-0.0336 Y0.3681
X-0.0607 Y0.3677
X-0.0881 Y0.3651
X-0.1156 Y0.3603
X-0.1428 Y0.3532
X-0.1697 Y0.3439
X-0.196 Y0.3323
X-0.2214 Y0.3185
X-0.2458 Y0.3027
X-0.269 Y0.2848
X-0.2908 Y0.265
X-0.311 Y0.2435
X-0.3296 Y0.2202
X-0.3462 Y0.1955
X-0.3609 Y0.1695
X-0.3734 Y0.1423
X-0.3838 Y0.1141
X-0.3919 Y0.0851
X-0.3976 Y0.0555
X-0.4009 Y0.0254
X-0.4019 Y-0.0048
X-0.4004 Y-0.0351
X-0.3964 Y-0.0651
X-0.3901 Y-0.0948
X-0.3814 Y-0.1239
X-0.3704 Y-0.1522
X-0.3571 Y-0.1796
X-0.3417 Y-0.2058
X-0.3242 Y-0.2308
X-0.3047 Y-0.2542
X-0.2834 Y-0.276
X-0.2605 Y-0.2961
X-0.236 Y-0.3142
X-0.2101 Y-0.3303
X-0.183 Y-0.3443
X-0.1548 Y-0.3561
X-0.1258 Y-0.3656
X-0.0962 Y-0.3727
X-0.066 Y-0.3774
X-0.0356 Y-0.3797
X-0.005 Y-0.3795
X0.0254 Y-0.3769
X0.0555 Y-0.3719
X0.0851 Y-0.3644
X0.114 Y-0.3546
X0.1421 Y-0.3425
X0.169 Y-0.3282
X0.1948 Y-0.3118
X0.2191 Y-0.2934
X0.2419 Y-0.273
X0.263 Y-0.2509
X0.2823 Y-0.2272
X0.2995 Y-0.202
X0.3261 Y-0.1558
X0.3499 Y-0.1081
X0.3681 Y-0.0643
X0.3809 Y-0.0247
X0.3897 Y0.0124
X0.3951 Y0.0478
X0.3976 Y0.0822
X0.3973 Y0.116
X0.3944 Y0.1491
X0.3888 Y0.1816
X0.3807 Y0.2134
X0.3701 Y0.2445
X0.3569 Y0.2748
X0.3413 Y0.3041
X0.3231 Y0.3323
X0.3026 Y0.3593
X0.2796 Y0.3849
X0.2544 Y0.4088
X0.227 Y0.4309
X0.1974 Y0.4511
X0.1659 Y0.469
X0.1327 Y0.4845
X0.098 Y0.4975
X0.0619 Y0.5078
X0.0247 Y0.5152
X-0.0133 Y0.5196
X-0.0521 Y0.521
X-0.0911 Y0.5193
X-0.1303 Y0.5143
X-0.1694 Y0.5062
X-0.208 Y0.4949
X-0.2459 Y0.4804
X-0.2827 Y0.4627
X-0.3183 Y0.4421
X-0.3522 Y0.4185
X-0.3844 Y0.3921
X-0.4144 Y0.3631
X-0.4421 Y0.3317
X-0.4674 Y0.298
X-0.4899 Y0.2623
X-0.5095 Y0.2247
X-0.5261 Y0.1857
X-0.5395 Y0.1453
X-0.5497 Y0.1038
X-0.5566 Y0.0617
X-0.56 Y0.019
Y-0.0239
X-0.5565 Y-0.0667
X-0.5496 Y-0.1091
X-0.5394 Y-0.1509
X-0.5258 Y-0.1917
X-0.5089 Y-0.2314
X-0.4889 Y-0.2696
X-0.4659 Y-0.3061
X-0.44 Y-0.3406
X-0.4114 Y-0.373
X-0.3803 Y-0.403
X-0.3469 Y-0.4304
X-0.3114 Y-0.455
X-0.274 Y-0.4768
X-0.2349 Y-0.4954
X-0.1945 Y-0.5109
X-0.153 Y-0.5231
X-0.1106 Y-0.5319
X-0.0676 Y-0.5372
X-0.0244 Y-0.5391
X0.0189 Y-0.5376
X0.0619 Y-0.5325
X0.1044 Y-0.5241
X0.146 Y-0.5122
X0.1866 Y-0.497
X0.2258 Y-0.4787
X0.2635 Y-0.4572
X0.2993 Y-0.4328
X0.3359 Y-0.4032
X0.3733 Y-0.3677
X0.4089 Y-0.3281
X0.4413 Y-0.2857
X0.4703 Y-0.2411
X0.4959 Y-0.1943
X0.5178 Y-0.1457
X0.5352 Y-0.0968
X0.5484 Y-0.0479
X0.5574 Y0.001
X0.5623 Y0.0496
X0.5634 Y0.0978
X0.5606 Y0.1456
X0.554 Y0.1927
X0.5436 Y0.239
X0.5296 Y0.2842
X0.5121 Y0.3281
X0.491 Y0.3706
X0.4665 Y0.4114
X0.4386 Y0.4504
X0.4075 Y0.4871
X0.3734 Y0.5215
X0.3363 Y0.5533
X0.2966 Y0.5821
X0.2543 Y0.6079
X0.2098 Y0.6304
X0.1632 Y0.6494
X0.115 Y0.6646
X0.0653 Y0.6761
X0.0144 Y0.6836
X-0.0373 Y0.687
X-0.0895 Y0.6862
X-0.1418 Y0.6812
X-0.1939 Y0.672
X-0.2455 Y0.6585
X-0.2958 Y0.6409
X-0.3446 Y0.6194
X-0.3915 Y0.5941
X-0.4362 Y0.5652
X-0.4786 Y0.5328
X-0.5183 Y0.4973
X-0.5551 Y0.4587
X-0.5888 Y0.4175
X-0.6193 Y0.3738
X-0.6463 Y0.3278
X-0.6697 Y0.2799
X-0.6894 Y0.2304
X-0.7052 Y0.1795
X-0.7172 Y0.1276
X-0.7251 Y0.0749
X-0.7291 Y0.0218
X-0.729 Y-0.0315
X-0.7248 Y-0.0847
X-0.7167 Y-0.1373
X-0.7045 Y-0.1892
X-0.6885 Y-0.24
X-0.6686 Y-0.2895
X-0.645 Y-0.3373
X-0.6179 Y-0.3832
X-0.5875 Y-0.4269
X-0.5538 Y-0.4682
X-0.5171 Y-0.5068
X-0.4776 Y-0.5426
X-0.4355 Y-0.5753
X-0.3911 Y-0.6048
X-0.3447 Y-0.6309
X-0.2963 Y-0.6534
X-0.2465 Y-0.6722
X-0.1954 Y-0.6872
X-0.1432 Y-0.6983
X-0.0904 Y-0.7054
X-0.0372 Y-0.7085
X0.0161 Y-0.7076
X0.0691 Y-0.7027
X0.1217 Y-0.6938
X0.1734 Y-0.681
X0.224 Y-0.6643
X0.2732 Y-0.6439
X0.3208 Y-0.62
X0.3666 Y-0.5927
X0.4103 Y-0.5622
X0.4518 Y-0.5287
X0.491 Y-0.4926
X0.5277 Y-0.454
X0.5619 Y-0.4131
X0.5934 Y-0.3701
X0.6221 Y-0.3252
X0.6478 Y-0.2785
X0.6704 Y-0.2303
X0.6899 Y-0.1807
X0.7061 Y-0.1299
X0.7189 Y-0.0782
X0.7281 Y-0.0257
X0.7337 Y0.0273
X0.7357 Y0.0806
X0.734 Y0.1338
X0.7288 Y0.1869
X0.7199 Y0.2394
X0.7074 Y0.2912
X0.6913 Y0.342
X0.6716 Y0.3916
X0.6486 Y0.4396
X0.6222 Y0.4859
X0.5928 Y0.5304
X0.5604 Y0.5727
X0.5252 Y0.6127
X0.4873 Y0.6501
X0.4469 Y0.6849
X0.4042 Y0.7168
X0.3594 Y0.7457
X0.3129 Y0.7716
X0.2647 Y0.7944
X0.2151 Y0.8139
X0.1642 Y0.8299
X0.1125 Y0.8426
X0.06 Y0.8518
X0.007 Y0.8577
X-0.0462 Y0.8601
X-0.0995 Y0.8589
X-0.1526 Y0.8543
X-0.2053 Y0.8464
X-0.2574 Y0.8351
X-0.3086 Y0.8205
X-0.3588 Y0.8026
X-0.4078 Y0.7816
X-0.4553 Y0.7576
X-0.5013 Y0.7307
X-0.5455 Y0.7008
X-0.5877 Y0.6683
X-0.6278 Y0.6332
X-0.6657 Y0.5957
X-0.7012 Y0.556
X-0.7342 Y0.5141
X-0.7645 Y0.4703
X-0.792 Y0.4246
X-0.8167 Y0.3774
X-0.8386 Y0.3288
X-0.8573 Y0.2789
X-0.8729 Y0.228
X-0.8855 Y0.1762
X-0.8948 Y0.1237
X-0.9011 Y0.0708
X-0.904 Y0.0176
X-0.9036 Y-0.0357
X-0.9 Y-0.0889
X-0.8932 Y-0.1417
X-0.8833 Y-0.1941
X-0.8701 Y-0.2457
X-0.8538 Y-0.2964
X-0.8344 Y-0.3461
X-0.8122 Y-0.3945
X-0.787 Y-0.4415
X-0.759 Y-0.4869
X-0.7283 Y-0.5304
X-0.695 Y-0.572
X-0.6594 Y-0.6116
X-0.6214 Y-0.649
X-0.5812 Y-0.684
X-0.5389 Y-0.7164
X-0.4948 Y-0.7463
X-0.4489 Y-0.7735
X-0.4016 Y-0.7979
X-0.3528 Y-0.8194
X-0.3028 Y-0.8378
X-0.2518 Y-0.8532
X-0.1999 Y-0.8655
X-0.1474 Y-0.8747
X-0.0945 Y-0.8806
X-0.0412 Y-0.8833
X0.012 Y-0.8828
X0.0652 Y-0.8791
X0.1181 Y-0.8723
X0.1704 Y-0.8623
X0.222 Y-0.849
X0.2728 Y-0.8327
X0.3225 Y-0.8135
X0.371 Y-0.7915
X0.4181 Y-0.7666
X0.4637 Y-0.7391
X0.5077 Y-0.7089
X0.5499 Y-0.6764
X0.5903 Y-0.6416
X0.6288 Y-0.6048
X0.6652 Y-0.5659
X0.6994 Y-0.525
X0.7313 Y-0.4823
X0.7609 Y-0.438
X0.7882 Y-0.3922
X0.813 Y-0.3451
X0.8352 Y-0.2966
X0.8546 Y-0.247
X0.8714 Y-0.1964
X0.8853 Y-0.145
X0.8965 Y-0.0929
X0.9048 Y-0.0402
X0.9101 Y0.0128
X0.9124 Y0.0661
X0.9118 Y0.1193
X0.9083 Y0.1725
X0.9018 Y0.2254
X0.8923 Y0.2778
X0.8799 Y0.3297
X0.8645 Y0.3807
X0.8463 Y0.4308
X0.8254 Y0.4798
X0.8017 Y0.5275
X0.7754 Y0.5739
X0.7465 Y0.6186
X0.7151 Y0.6617
X0.6814 Y0.703
X0.6455 Y0.7424
X0.6073 Y0.7796
X0.5672 Y0.8146
X0.5252 Y0.8474
X0.4814 Y0.8778
X0.4361 Y0.9059
X0.3893 Y0.9313
X0.3411 Y0.9541
X0.2917 Y0.9742
X0.2414 Y0.9916
X0.1902 Y1.0063
X0.1382 Y1.0183
X0.0857 Y1.0273
X0.0328 Y1.0335
X-0.0204 Y1.0368
X-0.0737 Y1.0373
X-0.1269 Y1.0351
X-0.18 Y1.03
X-0.2327 Y1.022
X-0.2849 Y1.0113
X-0.3364 Y0.9978
X-0.3872 Y0.9816
X-0.4371 Y0.9629
X-0.486 Y0.9416
X-0.5336 Y0.9177
X-0.5799 Y0.8913
X-0.6248 Y0.8626
X-0.6682 Y0.8316
X-0.7099 Y0.7985
X-0.7499 Y0.7633
X-0.7879 Y0.7259
X-0.824 Y0.6867
X-0.858 Y0.6457
X-0.89 Y0.6031
X-0.9197 Y0.5588
X-0.9471 Y0.5131
X-0.9721 Y0.4661
X-0.9947 Y0.4178
X-1.0148 Y0.3684
X-1.0324 Y0.3181
X-1.0475 Y0.267
X-1.0599 Y0.2152
X-1.0696 Y0.1628
X-1.0767 Y0.11
X-1.0811 Y0.0569
X-1.0829 Y0.0036
X-1.0819 Y-0.0497
X-1.0783 Y-0.1028
X-1.0719 Y-0.1557
X-1.0628 Y-0.2083
X-1.0512 Y-0.2603
X-1.037 Y-0.3116
X-1.0202 Y-0.3622
X-1.0008 Y-0.4119
X-0.9789 Y-0.4604
X-0.9546 Y-0.5079
X-0.928 Y-0.5541
X-0.8992 Y-0.5989
X-0.8681 Y-0.6421
X-0.8348 Y-0.6838
X-0.7995 Y-0.7237
X-0.7622 Y-0.7618
X-0.7231 Y-0.798
X-0.6823 Y-0.8322
X-0.6397 Y-0.8643
X-0.5956 Y-0.8942
X-0.55 Y-0.9218
X-0.5032 Y-0.9471
X-0.4551 Y-0.9701
X-0.4059 Y-0.9907
X-0.3557 Y-1.0087
X-0.3047 Y-1.0241
X-0.253 Y-1.037
X-0.2007 Y-1.0472
X-0.148 Y-1.0549
X-0.0949 Y-1.0599
X-0.0417 Y-1.0622
X0.0116 Y-1.0619
X0.0648 Y-1.0588
X0.1178 Y-1.0531
X0.1704 Y-1.0447
X0.2226 Y-1.0338
X0.2741 Y-1.0203
X0.3249 Y-1.0042
X0.3749 Y-0.9857
X0.4239 Y-0.9647
X0.4718 Y-0.9414
X0.5186 Y-0.9158
X0.5641 Y-0.8881
X0.6082 Y-0.8581
X0.6508 Y-0.8262
X0.6919 Y-0.7923
X0.7314 Y-0.7565
X0.7692 Y-0.7189
X0.8053 Y-0.6797
X0.8395 Y-0.6388
X0.8717 Y-0.5964
X0.902 Y-0.5526
X0.9303 Y-0.5074
X0.9565 Y-0.461
X0.9806 Y-0.4134
X1.0024 Y-0.3648
X1.022 Y-0.3152
X1.0392 Y-0.2648
X1.0541 Y-0.2137
X1.0666 Y-0.1619
X1.0768 Y-0.1095
X1.0845 Y-0.0568
X1.0897 Y-0.0038
X1.0924 Y0.0494
X1.0927 Y0.1027
X1.0904 Y0.156
X1.0857 Y0.2091
X1.0785 Y0.2619
X1.0687 Y0.3143
X1.0565 Y0.3661
X1.0418 Y0.4174
X1.0248 Y0.4679
X1.0054 Y0.5175
X0.9838 Y0.5662
X0.9598 Y0.6138
X0.9336 Y0.6602
X0.9052 Y0.7053
X0.8747 Y0.749
X0.8423 Y0.7913
X0.8079 Y0.832
X0.7716 Y0.871
X0.7335 Y0.9083
X0.6937 Y0.9437
X0.6523 Y0.9773
X0.6094 Y1.0088
X0.565 Y1.0384
X0.5194 Y1.0659
X0.4725 Y1.0913
X0.4245 Y1.1144
X0.3754 Y1.1352
X0.3255 Y1.1538
X0.2748 Y1.1702
X0.2234 Y1.1842
X0.1713 Y1.1958
X0.1188 Y1.205
X0.066 Y1.2117
X0.0129 Y1.2161
X-0.0404 Y1.2181
X-0.0937 Y1.2177
X-0.1469 Y1.215
X-0.1999 Y1.2097
X-0.2527 Y1.2021
X-0.305 Y1.1921
X-0.3569 Y1.1798
X-0.4081 Y1.1653
X-0.4587 Y1.1485
X-0.5085 Y1.1294
X-0.5573 Y1.1081
X-0.6052 Y1.0847
X-0.6519 Y1.0591
X-0.6976 Y1.0316
X-0.7419 Y1.0021
X-0.785 Y0.9706
X-0.8266 Y0.9373
X-0.8666 Y0.9022
X-0.9051 Y0.8653
X-0.942 Y0.8268
X-0.9771 Y0.7868
X-1.0105 Y0.7452
X-1.0421 Y0.7023
X-1.0717 Y0.658
X-1.0993 Y0.6124
X-1.125 Y0.5657
X-1.1486 Y0.5179
X-1.1701 Y0.4692
X-1.1895 Y0.4196
X-1.2068 Y0.3692
X-1.2218 Y0.318
X-1.2346 Y0.2663
X-1.2451 Y0.214
X-1.2534 Y0.1614
X-1.2594 Y0.1084
X-1.2631 Y0.0553
X-1.2646 Y0.002
X-1.2637 Y-0.0513
X-1.2604 Y-0.1045
X-1.2549 Y-0.1575
X-1.2472 Y-0.2102
X-1.2372 Y-0.2625
X-1.2249 Y-0.3144
X-1.2105 Y-0.3657
X-1.1938 Y-0.4163
X-1.1749 Y-0.4661
X-1.1539 Y-0.5151
X-1.1308 Y-0.5632
X-1.1058 Y-0.6102
X-1.0787 Y-0.6561
X-1.0497 Y-0.7008
X-1.0187 Y-0.7442
X-0.9859 Y-0.7862
X-0.9514 Y-0.8268
X-0.9151 Y-0.8658
X-0.8773 Y-0.9033
X-0.8379 Y-0.9392
X-0.7969 Y-0.9733
X-0.7545 Y-1.0056
X-0.7108 Y-1.036
X-0.6658 Y-1.0646
X-0.6196 Y-1.0912
X-0.5724 Y-1.1158
X-0.5241 Y-1.1384
X-0.4749 Y-1.1589
X-0.4248 Y-1.1772
X-0.374 Y-1.1933
X-0.3226 Y-1.2073
X-0.2706 Y-1.2191
X-0.2182 Y-1.2286
X-0.1654 Y-1.2359
X-0.1124 Y-1.2409
X-0.0591 Y-1.2436
X-0.0059 Y-1.244
X0.0474 Y-1.2422
X0.1005 Y-1.2381
X0.1534 Y-1.2317
X0.206 Y-1.2231
X0.2582 Y-1.2123
X0.3099 Y-1.1992
X0.3609 Y-1.184
X0.4113 Y-1.1666
X0.4609 Y-1.1472
X0.5097 Y-1.1257
X0.5576 Y-1.1023
X0.6044 Y-1.0768
X0.6501 Y-1.0495
X0.6947 Y-1.0202
X0.7381 Y-0.9892
X0.7801 Y-0.9565
X0.8209 Y-0.9222
X0.8602 Y-0.8863
X0.8981 Y-0.8488
X0.9344 Y-0.8098
X0.9691 Y-0.7693
X1.0022 Y-0.7275
X1.0336 Y-0.6845
X1.0633 Y-0.6403
X1.0913 Y-0.5949
X1.1174 Y-0.5484
X1.1416 Y-0.501
X1.1639 Y-0.4526
X1.1843 Y-0.4033
X1.2027 Y-0.3533
X1.2191 Y-0.3026
X1.2335 Y-0.2513
X1.2458 Y-0.1994
X1.256 Y-0.1471
X1.2641 Y-0.0945
X1.2701 Y-0.0415
X1.2739 Y0.0117
X1.2756 Y0.0649
X1.2752 Y0.1182
X1.2727 Y0.1714
X1.2679 Y0.2245
X1.261 Y0.2774
X1.2519 Y0.3299
X1.2408 Y0.382
X1.2275 Y0.4336
X1.2122 Y0.4846
X1.1949 Y0.535
X1.1755 Y0.5847
X1.154 Y0.6335
X1.1306 Y0.6813
X1.1053 Y0.7282
X1.0781 Y0.774
X1.0491 Y0.8188
X1.0183 Y0.8623
X0.9858 Y0.9045
X0.9516 Y0.9453
X0.9157 Y0.9847
X0.8783 Y1.0227
X0.8394 Y1.0591
X0.799 Y1.0939
X0.7573 Y1.1271
X0.7144 Y1.1586
X0.6701 Y1.1883
X0.6247 Y1.2163
X0.5782 Y1.2423
X0.5308 Y1.2665
X0.4824 Y1.2888
X0.4331 Y1.3092
X0.3831 Y1.3276
X0.3324 Y1.344
X0.2811 Y1.3584
X0.2292 Y1.3707
X0.1769 Y1.3809
X0.1243 Y1.3891
X0.0713 Y1.3953
X0.0182 Y1.3994
X-0.035 Y1.4014
X-0.0883 Y1.4012
X-0.1416 Y1.399
X-0.1947 Y1.3947
X-0.2476 Y1.3883
X-0.3002 Y1.3799
X-0.3525 Y1.3695
X-0.4043 Y1.3571
X-0.4556 Y1.3427
X-0.5063 Y1.3262
X-0.5563 Y1.3078
X-0.6056 Y1.2875
X-0.654 Y1.2653
X-0.7016 Y1.2413
X-0.7483 Y1.2155
X-0.7939 Y1.188
X-0.8384 Y1.1587
X-0.8817 Y1.1277
X-0.9238 Y1.095
X-0.9647 Y1.0608
X-1.0042 Y1.025
X-1.0424 Y0.9878
X-1.0791 Y0.9492
X-1.1143 Y0.9092
X-1.148 Y0.8679
X-1.18 Y0.8253
X-1.2104 Y0.7816
X-1.2392 Y0.7367
X-1.2662 Y0.6908
X-1.2915 Y0.6439
X-1.3151 Y0.5961
X-1.3368 Y0.5474
X-1.3566 Y0.4979
X-1.3745 Y0.4477
X-1.3905 Y0.3969
X-1.4046 Y0.3455
X-1.4168 Y0.2936
X-1.4271 Y0.2413
X-1.4353 Y0.1887
X-1.4416 Y0.1358
X-1.4458 Y0.0826
X-1.4481 Y0.0294
X-1.4483 Y-0.0239
X-1.4465 Y-0.0772
X-1.4428 Y-0.1303
X-1.4371 Y-0.1833
X-1.4294 Y-0.236
X-1.4197 Y-0.2884
X-1.4081 Y-0.3404
X-1.3944 Y-0.392
X-1.3789 Y-0.4429
X-1.3615 Y-0.4933
X-1.3422 Y-0.543
X-1.3212 Y-0.5919
X-1.2982 Y-0.64
X-1.2735 Y-0.6872
X-1.247 Y-0.7335
X-1.2188 Y-0.7787
X-1.1889 Y-0.8228
X-1.1574 Y-0.8658
X-1.1244 Y-0.9076
X-1.0898 Y-0.9482
X-1.0537 Y-0.9874
X-1.0161 Y-1.0252
X-0.9772 Y-1.0616
X-0.9369 Y-1.0965
X-0.8954 Y-1.1298
X-0.8526 Y-1.1617
X-0.8087 Y-1.1919
X-0.7638 Y-1.2205
X-0.7177 Y-1.2473
X-0.6707 Y-1.2724
X-0.6228 Y-1.2957
X-0.574 Y-1.3172
X-0.5245 Y-1.3369
X-0.4743 Y-1.3547
X-0.4234 Y-1.3707
X-0.372 Y-1.3847
X-0.3201 Y-1.3968
X-0.2678 Y-1.4069
X-0.2151 Y-1.4151
X-0.1622 Y-1.4213
X-0.1091 Y-1.4255
X-0.0558 Y-1.4278
X-0.0025 Y-1.4281
X0.0507 Y-1.4264
X0.1039 Y-1.4227
X0.1569 Y-1.417
X0.2096 Y-1.4093
X0.262 Y-1.3997
X0.3141 Y-1.3882
X0.3656 Y-1.3748
X0.4167 Y-1.3596
X0.4672 Y-1.3424
X0.517 Y-1.3235
X0.566 Y-1.3027
X0.6143 Y-1.2801
X0.6617 Y-1.2558
X0.7083 Y-1.2298
X0.7538 Y-1.2022
X0.7984 Y-1.173
X0.8419 Y-1.1422
X0.8843 Y-1.1099
X0.9255 Y-1.0761
X0.9654 Y-1.0408
X1.0041 Y-1.0042
X1.0415 Y-0.9662
X1.0776 Y-0.9269
X1.1122 Y-0.8865
X1.1455 Y-0.8448
X1.1772 Y-0.802
X1.2074 Y-0.7581
X1.236 Y-0.7131
X1.2631 Y-0.6672
X1.2885 Y-0.6204
X1.3123 Y-0.5727
X1.3345 Y-0.5243
X1.3549 Y-0.475
X1.3736 Y-0.4251
X1.3905 Y-0.3746
X1.4056 Y-0.3235
X1.4189 Y-0.2719
X1.4304 Y-0.2198
X1.4401 Y-0.1674
X1.4479 Y-0.1147
X1.4539 Y-0.0618
X1.458 Y-0.0086
X1.4602 Y0.0446
X1.4605 Y0.0979
X1.4589 Y0.1512
X1.4554 Y0.2043
X1.4501 Y0.2574
X1.4429 Y0.3102
X1.4338 Y0.3627
X1.4229 Y0.4148
X1.4101 Y0.4666
X1.3955 Y0.5178
X1.379 Y0.5685
X1.3608 Y0.6186
X1.3408 Y0.668
X1.319 Y0.7166
X1.2956 Y0.7645
X1.2705 Y0.8115
X1.2437 Y0.8576
X1.2153 Y0.9026
X1.1853 Y0.9467
X1.1537 Y0.9896
X1.1206 Y1.0314
X1.0862 Y1.072
X1.0503 Y1.1114
X1.013 Y1.1495
X0.9744 Y1.1862
X0.9345 Y1.2216
X0.8933 Y1.2555
X0.8511 Y1.2879
X0.8077 Y1.3188
X0.7632 Y1.3482
X0.7178 Y1.376
X0.6714 Y1.4022
X0.6241 Y1.4268
X0.5759 Y1.4497
X0.527 Y1.4708
X0.4774 Y1.4903
X0.4271 Y1.508
X0.3763 Y1.5239
X0.3249 Y1.5381
X0.2731 Y1.5506
X0.2209 Y1.5611
X0.1683 Y1.5699
X0.1155 Y1.5768
X0.0624 Y1.5819
X0.0092 Y1.5852
X-0.0441 Y1.5866
X-0.0973 Y1.5862
X-0.1506 Y1.584
X-0.2037 Y1.5799
X-0.2567 Y1.5741
X-0.3094 Y1.5663
X-0.3619 Y1.5568
X-0.4139 Y1.5455
X-0.4656 Y1.5325
X-0.5168 Y1.5177
X-0.5675 Y1.5011
X-0.6175 Y1.4829
X-0.6669 Y1.4629
X-0.7157 Y1.4413
X-0.7636 Y1.418
X-0.8107 Y1.3932
X-0.857 Y1.3667
X-0.9023 Y1.3387
X-0.9467 Y1.3092
X-0.9901 Y1.2782
X-1.0324 Y1.2458
X-1.0735 Y1.2119
X-1.1135 Y1.1767
X-1.1523 Y1.1402
X-1.1898 Y1.1023
X-1.2261 Y1.0633
X-1.261 Y1.023
X-1.2946 Y0.9816
X-1.3267 Y0.9392
X-1.3575 Y0.8956
X-1.3867 Y0.851
X-1.4144 Y0.8055
X-1.4406 Y0.7591
X-1.4652 Y0.7119
X-1.4882 Y0.6638
X-1.5097 Y0.615
X-1.5295 Y0.5655
X-1.5476 Y0.5154
X-1.5641 Y0.4647
X-1.5788 Y0.4135
X-1.5918 Y0.3618
X-1.6031 Y0.3098
X-1.6127 Y0.2573
X-1.6205 Y0.2046
X-1.6266 Y0.1517
X-1.6309 Y0.0986
X-1.6334 Y0.0453
X-1.6342 Y-0.008
X-1.6332 Y-0.0612
X-1.6304 Y-0.1145
X-1.6258 Y-0.1676
X-1.6195 Y-0.2205
X-1.6115 Y-0.2732
X-1.6017 Y-0.3255
X-1.5902 Y-0.3776
X-1.5769 Y-0.4292
X-1.562 Y-0.4803
X-1.5453 Y-0.531
X-1.527 Y-0.581
X-1.507 Y-0.6304
X-1.4855 Y-0.6791
X-1.4623 Y-0.7271
X-1.4376 Y-0.7743
X-1.4113 Y-0.8207
X-1.3834 Y-0.8661
X-1.3541 Y-0.9106
X-1.3233 Y-0.9541
X-1.2911 Y-0.9966
X-1.2576 Y-1.038
X-1.2226 Y-1.0782
X-1.1864 Y-1.1173
X-1.1489 Y-1.1552
X-1.1102 Y-1.1918
X-1.0702 Y-1.2271
X-1.0292 Y-1.261
X-0.987 Y-1.2936
X-0.9438 Y-1.3248
X-0.8995 Y-1.3545
X-0.8543 Y-1.3828
X-0.8083 Y-1.4095
X-0.7613 Y-1.4347
X-0.7135 Y-1.4584
X-0.665 Y-1.4804
X-0.6158 Y-1.5008
X-0.5659 Y-1.5196
X-0.5155 Y-1.5367
X-0.4645 Y-1.5522
X-0.413 Y-1.5659
X-0.3611 Y-1.578
X-0.3088 Y-1.5884
X-0.2562 Y-1.5969
X-0.2458 Y-1.5983
X-0.2422 Y-1.5987
X-0.2386 Y-1.599
X-0.235 Y-1.5992
X-0.1273 Y-1.6031
X-0.1124 Y-1.6034
X-0.0824 Y-1.6041
X-0.0375 Y-1.604
X0.0225 Y-1.6039
X0.0757 Y-1.6011
X0.1289 Y-1.5992
X0.1821 Y-1.5951
X0.235 Y-1.5889
X0.2877 Y-1.5806
X0.3399 Y-1.5703
X0.3918 Y-1.5582
X0.4433 Y-1.5442
X0.4942 Y-1.5285
X0.5445 Y-1.5111
X0.5943 Y-1.4919
X0.6434 Y-1.4712
X0.6918 Y-1.4489
X0.7394 Y-1.425
X0.7862 Y-1.3995
X0.8322 Y-1.3725
X0.8772 Y-1.3441
X0.9214 Y-1.3142
X0.9646 Y-1.283
X1.0067 Y-1.2504
X1.0478 Y-1.2165
X1.0879 Y-1.1814
X1.1268 Y-1.1449
X1.1645 Y-1.1073
X1.2011 Y-1.0685
X1.2364 Y-1.0286
X1.2704 Y-0.9876
X1.3031 Y-0.9455
X1.3345 Y-0.9025
X1.3646 Y-0.8585
X1.3933 Y-0.8136
X1.4206 Y-0.7678
X1.4464 Y-0.7212
X1.4707 Y-0.6738
X1.4936 Y-0.6256
X1.5149 Y-0.5768
X1.5347 Y-0.5273
X1.553 Y-0.4772
X1.5697 Y-0.4266
X1.5848 Y-0.3755
X1.5983 Y-0.324
X1.6102 Y-0.272
X1.6204 Y-0.2197
X1.629 Y-0.1671
X1.6359 Y-0.1143
X1.6412 Y-0.0612
X1.6447 Y-0.0081
X1.6467 Y0.0452
X1.647 Y0.0985
X1.6456 Y0.1517
X1.6425 Y0.2049
X1.6377 Y0.258
X1.6312 Y0.3109
X1.6231 Y0.3636
X1.6133 Y0.416
X1.6019 Y0.468
X1.5888 Y0.5197
X1.5741 Y0.5709
X1.5579 Y0.6217
X1.54 Y0.6719
X1.5205 Y0.7215
X1.4994 Y0.7704
X1.4769 Y0.8187
X1.4528 Y0.8662
X1.4272 Y0.913
X1.4002 Y0.9589
X1.3717 Y1.004
X1.3418 Y1.0481
X1.3106 Y1.0913
X1.278 Y1.1334
X1.244 Y1.1745
X1.2088 Y1.2145
X1.1724 Y1.2534
X1.1347 Y1.2911
X1.0959 Y1.3276
X1.056 Y1.3629
X1.015 Y1.397
X0.9729 Y1.4297
X0.9298 Y1.461
X0.8858 Y1.491
X0.8408 Y1.5196
X0.8111 Y1.5373
X0.797 Y1.5444
X0.782 Y1.5495
X0.7665 Y1.5526
X0.6517 Y1.5674
X0.6217 Y1.571
X0.6068 Y1.5727
X0.412 Y1.5901
X0.397 Y1.5911
X0.3671 Y1.5927
X0.2172 Y1.6003
X0.2023 Y1.601
X0.1723 Y1.602
X0.1573 Y1.6024
X-0.0375 Y1.6048
X-0.0524 Y1.6045
X-0.2023 Y1.6006
X-0.2322 Y1.5998
X-0.2472 Y1.5993
X-0.2772 Y1.5979
X-0.2921 Y1.5971
X-0.442 Y1.5874
X-0.4869 Y1.5843
X-0.5019 Y1.5828
X-0.6817 Y1.5641
X-0.6967 Y1.5624
X-0.7266 Y1.5583
X-0.7416 Y1.5563
X-0.7566 Y1.5541
X-0.8089 Y1.5439
X-0.8348 Y1.5376
X-0.8859 Y1.5229
X-0.9358 Y1.5042
X-0.9843 Y1.4821
X-1.0314 Y1.4571
X-1.0771 Y1.4298
X-1.1216 Y1.4004
X-1.1647 Y1.369
X-1.2065 Y1.336
X-1.247 Y1.3014
X-1.2863 Y1.2654
X-1.3244 Y1.2281
X-1.3611 Y1.1895
X-1.3966 Y1.1498
X-1.4308 Y1.1089
X-1.4636 Y1.0669
X-1.4951 Y1.0239
X-1.5253 Y0.98
X-1.5541 Y0.9351
X-1.5815 Y0.8894
X-1.6076 Y0.843
X-1.6322 Y0.7957
X-1.6554 Y0.7477
X-1.6772 Y0.6991
X-1.6974 Y0.6498
X-1.7162 Y0.5999
X-1.7334 Y0.5495
X-1.7492 Y0.4986
X-1.7634 Y0.4472
X-1.7761 Y0.3954
X-1.7872 Y0.3433
X-1.7968 Y0.2909
X-1.8049 Y0.2382
X-1.8113 Y0.1853
X-1.8161 Y0.1323
X-1.8194 Y0.0791
X-1.8211 Y0.0258
Y-0.0275
X-1.8197 Y-0.0808
X-1.8166 Y-0.134
X-1.812 Y-0.1871
X-1.8058 Y-0.24
X-1.798 Y-0.2927
X-1.7887 Y-0.3452
X-1.7777 Y-0.3973
X-1.7653 Y-0.4491
X-1.7513 Y-0.5006
X-1.7357 Y-0.5515
X-1.7187 Y-0.602
X-1.7002 Y-0.652
X-1.6803 Y-0.7014
X-1.6589 Y-0.7502
X-1.636 Y-0.7984
X-1.6117 Y-0.8458
X-1.586 Y-0.8925
X-1.5589 Y-0.9384
X-1.5305 Y-0.9835
X-1.5008 Y-1.0277
X-1.4697 Y-1.071
X-1.4374 Y-1.1134
X-1.4039 Y-1.1548
X-1.3692 Y-1.1953
X-1.3333 Y-1.2346
X-1.2962 Y-1.2729
X-1.258 Y-1.31
X-1.2187 Y-1.346
X-1.1783 Y-1.3808
X-1.137 Y-1.4144
X-1.0946 Y-1.4468
X-1.0514 Y-1.478
X-1.0135 Y-1.5036
X-0.9991 Y-1.5119
X-0.9838 Y-1.5181
X-0.9677 Y-1.522
X-0.9364 Y-1.5271
X-0.7865 Y-1.5503
X-0.7716 Y-1.5525
X-0.7416 Y-1.5565
X-0.7266 Y-1.5584
X-0.5768 Y-1.5754
X-0.5618 Y-1.5771
X-0.5319 Y-1.5802
X-0.5169 Y-1.5814
X-0.3371 Y-1.5948
X-0.3221 Y-1.5958
X-0.2921 Y-1.5971
X-0.2772 Y-1.5977
X-0.235 Y-1.5992
X-0.1346 Y-1.601
X0.0225 Y-1.6039
X0.1124 Y-1.6036
X0.1273 Y-1.6034
X0.1723 Y-1.6017
X0.3221 Y-1.5956
X0.3393 Y-1.5946
X0.3671 Y-1.5929
X0.5319 Y-1.5798
X0.5618 Y-1.5773
X0.5768 Y-1.5758
X0.7266 Y-1.558
X0.7792 Y-1.5491
X0.8051 Y-1.5432
X0.8544 Y-1.5295
X0.9045 Y-1.5112
X0.9531 Y-1.4895
X1.0004 Y-1.4648
X1.0463 Y-1.4377
X1.0908 Y-1.4085
X1.1341 Y-1.3775
X1.1762 Y-1.3447
X1.217 Y-1.3105
X1.2566 Y-1.2748
X1.295 Y-1.2378
X1.3322 Y-1.1997
X1.3682 Y-1.1604
X1.4029 Y-1.1199
X1.4364 Y-1.0785
X1.4687 Y-1.0361
X1.4997 Y-0.9928
X1.5295 Y-0.9486
X1.5579 Y-0.9035
X1.5851 Y-0.8577
X1.611 Y-0.8111
X1.6355 Y-0.7638
X1.6587 Y-0.7158
X1.6805 Y-0.6672
X1.7009 Y-0.6179
X1.7199 Y-0.5681
X1.7375 Y-0.5178
X1.7537 Y-0.4671
X1.7684 Y-0.4159
X1.7817 Y-0.3642
X1.7936 Y-0.3123
X1.8039 Y-0.26
X1.8128 Y-0.2075
X1.8202 Y-0.1547
X1.8261 Y-0.1017
X1.8304 Y-0.0486
X1.8333 Y0.0046
X1.8347 Y0.0579
X1.8345 Y0.1112
X1.8329 Y0.1644
X1.8298 Y0.2176
X1.8251 Y0.2707
X1.819 Y0.3237
X1.8113 Y0.3764
X1.8021 Y0.4289
X1.7914 Y0.4811
X1.7793 Y0.533
X1.7657 Y0.5845
X1.7506 Y0.6356
X1.7341 Y0.6863
X1.7162 Y0.7365
X1.6968 Y0.7861
X1.6761 Y0.8352
X1.6539 Y0.8837
X1.6304 Y0.9315
X1.6055 Y0.9786
X1.5793 Y1.025
X1.5518 Y1.0707
X1.523 Y1.1155
X1.4929 Y1.1595
X1.4617 Y1.2027
X1.4292 Y1.2449
X1.3955 Y1.2862
X1.3606 Y1.3265
X1.3246 Y1.3658
X1.2876 Y1.4041
X1.2494 Y1.4413
X1.2399 Y1.4501
X1.2277 Y1.4599
X1.2144 Y1.4679
X1.2001 Y1.4742
X1.1851 Y1.4784
X1.0613 Y1.5048
X1.0562 Y1.5058
X1.0263 Y1.5112
X1.0113 Y1.5139
X0.8615 Y1.5393
X0.8465 Y1.5417
X0.8165 Y1.5461
X0.7893 Y1.5497
X0.7665 Y1.5526
G3 X0.7619 Y1.5528 I-0.0047 J-0.0498
G1 X0.6594 Y1.5529
X0.6538 Y1.553 Z-0.373
X0.6483 Z-0.3721
X0.6429 Z-0.3705
X0.6377 Z-0.3684
X0.6328 Z-0.3657
X0.6283 Z-0.3624
X0.6241 Z-0.3587
X0.6203 Z-0.3545
X0.6171 Z-0.3499
X0.6144 Z-0.345
X0.6122 Z-0.3398
X0.6107 Z-0.3345
X0.6097 Z-0.3289
X0.6094 Z-0.3233
G0 Z0.2
X0.5696 Y-1.555
Z-0.3233
G1 Z-0.3733 F100
X0.7214 Y-1.5582
G3 X0.7266 Y-1.558 I0.0011 J0.05
G1 X0.7716 Y-1.5527
X0.7918 Y-1.5497
X0.8165 Y-1.5459
X0.9663 Y-1.522
X0.9813 Y-1.5196
X1.0113 Y-1.514
X1.0263 Y-1.5111
X1.1461 Y-1.487
X1.1948 Y-1.4745
X1.2315 Y-1.462
X1.2729 Y-1.444
X1.3198 Y-1.419
X1.3646 Y-1.3902
X1.4074 Y-1.3585
X1.4483 Y-1.3243
X1.4875 Y-1.2881
X1.5249 Y-1.2502
X1.5608 Y-1.2109
X1.5953 Y-1.1702
X1.6282 Y-1.1283
X1.6599 Y-1.0854
X1.6901 Y-1.0416
X1.7191 Y-0.9968
X1.7467 Y-0.9513
X1.7731 Y-0.905
X1.7982 Y-0.8579
X1.8219 Y-0.8102
X1.8444 Y-0.7619
X1.8655 Y-0.713
X1.8854 Y-0.6635
X1.9039 Y-0.6136
X1.9211 Y-0.5631
X1.9371 Y-0.5123
X1.9517 Y-0.461
X1.965 Y-0.4094
X1.977 Y-0.3575
X1.9876 Y-0.3053
X1.9968 Y-0.2528
X2.0047 Y-0.2001
X2.0112 Y-0.1472
X2.0163 Y-0.0942
X2.0201 Y-0.041
X2.0225 Y0.0122
X2.0236 Y0.0655
X2.0233 Y0.1188
X2.0216 Y0.1721
X2.0186 Y0.2253
X2.0141 Y0.2784
X2.0083 Y0.3314
X2.0011 Y0.3842
X1.9926 Y0.4368
X1.9827 Y0.4891
X1.9714 Y0.5412
X1.9588 Y0.593
X1.9449 Y0.6445
X1.9297 Y0.6955
X1.9132 Y0.7462
X1.8954 Y0.7964
X1.8762 Y0.8462
X1.8558 Y0.8954
X1.8341 Y0.9441
X1.8112 Y0.9922
X1.787 Y1.0396
X1.7616 Y1.0865
X1.735 Y1.1327
X1.7072 Y1.1782
X1.6783 Y1.2229
X1.6483 Y1.2669
X1.6171 Y1.3101
X1.5882 Y1.3481
X1.5761 Y1.3616
X1.562 Y1.3731
X1.5464 Y1.3823
X1.5295 Y1.389
X1.4757 Y1.4054
X1.4607 Y1.4098
X1.4308 Y1.4181
X1.266 Y1.4606
X1.251 Y1.4641
X1.221 Y1.4708
X1.1851 Y1.4784
G3 X1.1764 Y1.4792 I-0.0087 J-0.0492
G1 X1.0781 Y1.4791
X1.0725 Z-0.373
X1.0669 Z-0.3721
X1.0615 Z-0.3705
X1.0564 Z-0.3684
X1.0514 Z-0.3657
X1.0469 Z-0.3624
X1.0427 Z-0.3587
X1.039 Z-0.3545
X1.0357 Z-0.3499
X1.033 Z-0.345
X1.0309 Z-0.3398
X1.0293 Z-0.3345
X1.0284 Z-0.3289
X1.0281 Z-0.3233
G0 Z0.2
X0.9393 Y-1.4932
Z-0.2733
G1 Z-0.3233 F100
X0.9397 Z-0.3289
X0.9406 Y-1.4933 Z-0.3345
X0.9421 Y-1.4934 Z-0.3398
X0.9443 Y-1.4935 Z-0.345
X0.947 Y-1.4936 Z-0.3499
X0.9502 Y-1.4938 Z-0.3545
X0.954 Y-1.494 Z-0.3587
X0.9581 Y-1.4942 Z-0.3624
X0.9627 Y-1.4944 Z-0.3657
X0.9676 Y-1.4947 Z-0.3684
X0.9728 Y-1.495 Z-0.3705
X0.9782 Y-1.4952 Z-0.3721
X0.9837 Y-1.4955 Z-0.373
X0.9893 Y-1.4958 Z-0.3733
G3 X1.1461 Y-1.487 I0.0376 J0.7282
G1 X1.1761 Y-1.4809
X1.191 Y-1.4777
X1.221 Y-1.471
X1.251 Y-1.4636
X1.3858 Y-1.4304
X1.4158 Y-1.4222
X1.4308 Y-1.418
X1.5057 Y-1.396
X1.5436 Y-1.3828
X1.575 Y-1.3689
X1.6107 Y-1.3496
X1.6507 Y-1.3235
X1.6929 Y-1.291
X1.7325 Y-1.2554
X1.7698 Y-1.2173
X1.805 Y-1.1772
X1.8382 Y-1.1356
X1.8696 Y-1.0925
X1.8994 Y-1.0483
X1.9275 Y-1.0031
X1.9542 Y-0.9569
X1.9794 Y-0.91
X2.0032 Y-0.8623
X2.0257 Y-0.814
X2.0468 Y-0.765
X2.0667 Y-0.7156
X2.0853 Y-0.6656
X2.1026 Y-0.6152
X2.1186 Y-0.5644
X2.1335 Y-0.5132
X2.147 Y-0.4617
X2.1593 Y-0.4099
X2.1704 Y-0.3577
X2.1801 Y-0.3053
X2.1886 Y-0.2527
X2.1959 Y-0.1999
X2.2019 Y-0.147
X2.2066 Y-0.0939
X2.2101 Y-0.0407
X2.2123 Y0.0125
X2.2133 Y0.0658
X2.213 Y0.1191
X2.2115 Y0.1724
X2.2087 Y0.2256
X2.2046 Y0.2787
X2.1993 Y0.3318
X2.1927 Y0.3846
X2.1849 Y0.4373
X2.1758 Y0.4899
X2.1655 Y0.5421
X2.1539 Y0.5942
X2.1411 Y0.6459
X2.1272 Y0.6973
X2.112 Y0.7484
X2.0956 Y0.7991
X2.078 Y0.8494
X2.0592 Y0.8993
X2.0393 Y0.9487
X2.0181 Y0.9976
X1.9958 Y1.046
X1.9724 Y1.0939
X1.9479 Y1.1412
X1.9222 Y1.1879
X1.8955 Y1.234
X1.8939 Y1.2365
X1.8832 Y1.2514
X1.8702 Y1.2643
X1.8554 Y1.2751
X1.8391 Y1.2834
X1.8353 Y1.285
X1.8053 Y1.2962
X1.6705 Y1.3444
X1.6393 Y1.355
X1.6255 Y1.3596
X1.5295 Y1.389
G3 X1.4689 Y1.3255 I-0.013 J-0.0483
G1 X1.4707 Y1.3217 Z-0.3731
X1.4724 Y1.3179 Z-0.3726
X1.4742 Y1.3141 Z-0.3717
X1.4769 Y1.3108 Z-0.3704
X1.4795 Y1.3076 Z-0.3687
X1.4821 Y1.3045 Z-0.3666
X1.4857 Y1.3018 Z-0.3636
X1.4891 Y1.2993 Z-0.3602
X1.4921 Y1.297 Z-0.3563
X1.4948 Y1.2959 Z-0.3526
X1.4972 Y1.2949 Z-0.3487
X1.4992 Y1.2941 Z-0.3445
X1.5009 Y1.2934 Z-0.3401
X1.5022 Y1.2929 Z-0.3356
X1.503 Y1.2925 Z-0.331
X1.5035 Y1.2924 Z-0.3272
X1.5036 Z-0.3233
G0 Z0.2
X1.3002 Y-1.4201
Z-0.2733
G1 Z-0.3233 F100
X1.3005 Z-0.3289
X1.3015 Z-0.3345
X1.303 Y-1.42 Z-0.3398
X1.3052 Y-1.4199 Z-0.345
X1.3079 Y-1.4198 Z-0.3499
X1.3111 Y-1.4197 Z-0.3545
X1.3149 Y-1.4196 Z-0.3587
X1.319 Y-1.4195 Z-0.3624
X1.3236 Y-1.4193 Z-0.3657
X1.3285 Y-1.4191 Z-0.3684
X1.3337 Y-1.4189 Z-0.3705
X1.3391 Y-1.4188 Z-0.3721
X1.3446 Y-1.4186 Z-0.373
X1.3502 Y-1.4184 Z-0.3733
G3 X1.5057 Y-1.396 I-0.0254 J0.7287
G1 X1.5806 Y-1.374
X1.5936 Y-1.37
X1.6255 Y-1.3593
X1.6405 Y-1.3542
X1.7454 Y-1.3181
X1.7604 Y-1.3128
X1.7903 Y-1.302
X1.8078 Y-1.2952
X1.8353 Y-1.2842
X1.864 Y-1.271
X1.8934 Y-1.2545
X1.9264 Y-1.2324
X1.9627 Y-1.2034
X2.0017 Y-1.1671
X2.0376 Y-1.1277
X2.071 Y-1.0861
X2.1019 Y-1.0428
X2.1308 Y-0.998
X2.1576 Y-0.9519
X2.1827 Y-0.9049
X2.2062 Y-0.8571
X2.2281 Y-0.8085
X2.2485 Y-0.7593
X2.2676 Y-0.7095
X2.2853 Y-0.6592
X2.3016 Y-0.6085
X2.3168 Y-0.5574
X2.3306 Y-0.506
X2.3433 Y-0.4542
X2.3547 Y-0.4021
X2.3649 Y-0.3498
X2.3739 Y-0.2973
X2.3817 Y-0.2446
X2.3883 Y-0.1917
X2.3937 Y-0.1387
X2.398 Y-0.0856
X2.4011 Y-0.0324
X2.403 Y0.0209
X2.4037 Y0.0742
X2.4033 Y0.1275
X2.4017 Y0.1807
X2.399 Y0.234
X2.3951 Y0.2871
X2.39 Y0.3402
X2.3838 Y0.3931
X2.3764 Y0.4458
X2.3678 Y0.4984
X2.3581 Y0.5508
X2.3472 Y0.603
X2.3353 Y0.655
X2.3222 Y0.7066
X2.308 Y0.758
X2.2926 Y0.809
X2.2762 Y0.8597
X2.2587 Y0.91
X2.24 Y0.96
X2.2203 Y1.0095
X2.1995 Y1.0585
X2.181 Y1.0997
X2.1732 Y1.1141
X2.1635 Y1.1273
X2.1521 Y1.139
X2.1391 Y1.149
X2.1249 Y1.1571
X2.015 Y1.2096
X2.0001 Y1.2166
X1.9913 Y1.2203
X1.8391 Y1.2834
G3 X1.7727 Y1.226 I-0.0175 J-0.0468
G1 X1.7741 Y1.2221 Z-0.3731
X1.7755 Y1.2181 Z-0.3726
X1.7768 Y1.2142 Z-0.3717
X1.7792 Y1.2107 Z-0.3704
X1.7815 Y1.2072 Z-0.3687
X1.7838 Y1.2039 Z-0.3666
X1.7871 Y1.2008 Z-0.3636
X1.7902 Y1.198 Z-0.3602
X1.7931 Y1.1955 Z-0.3563
X1.7957 Y1.1941 Z-0.3526
X1.7979 Y1.1929 Z-0.3487
X1.7999 Y1.1919 Z-0.3445
X1.8015 Y1.1911 Z-0.3401
X1.8027 Y1.1904 Z-0.3356
X1.8035 Y1.19 Z-0.331
X1.8039 Y1.1898 Z-0.3272
X1.804 Z-0.3233
G0 Z0.2
X1.633 Y-1.3276
Z-0.2733
G1 Z-0.3233 F100
X1.6333 Z-0.3289
X1.6343 Y-1.3274 Z-0.3345
X1.6358 Y-1.3272 Z-0.3398
X1.6379 Y-1.327 Z-0.345
X1.6406 Y-1.3266 Z-0.3499
X1.6438 Y-1.3262 Z-0.3545
X1.6475 Y-1.3257 Z-0.3587
X1.6517 Y-1.3252 Z-0.3624
X1.6562 Y-1.3246 Z-0.3657
X1.6611 Y-1.3239 Z-0.3684
X1.6662 Y-1.3233 Z-0.3705
X1.6716 Y-1.3226 Z-0.3721
X1.677 Y-1.3219 Z-0.373
X1.6826 Y-1.3211 Z-0.3733
G3 X1.8353 Y-1.2842 I-0.0943 J0.723
G1 X1.9575 Y-1.2353
X2.015 Y-1.2088
X2.1199 Y-1.1604
X2.152 Y-1.1436
X2.1786 Y-1.1268
X2.2072 Y-1.1054
X2.2388 Y-1.0775
X2.2734 Y-1.0416
X2.3072 Y-1.0004
X2.338 Y-0.9569
X2.3661 Y-0.9116
X2.3918 Y-0.8649
X2.4153 Y-0.8171
X2.437 Y-0.7684
X2.4569 Y-0.719
X2.4751 Y-0.6689
X2.4919 Y-0.6184
X2.5072 Y-0.5673
X2.5211 Y-0.5159
X2.5338 Y-0.4641
X2.5451 Y-0.412
X2.5552 Y-0.3597
X2.5641 Y-0.3072
X2.5719 Y-0.2544
X2.5785 Y-0.2016
X2.5839 Y-0.1485
X2.5882 Y-0.0954
X2.5914 Y-0.0422
X2.5935 Y0.011
X2.5945 Y0.0643
X2.5944 Y0.1176
X2.5932 Y0.1709
X2.5909 Y0.2241
X2.5875 Y0.2773
X2.583 Y0.3304
X2.5774 Y0.3834
X2.5708 Y0.4363
X2.563 Y0.489
X2.5542 Y0.5416
X2.5444 Y0.5939
X2.5335 Y0.6461
X2.5215 Y0.698
X2.5085 Y0.7497
X2.4945 Y0.8011
X2.4794 Y0.8522
X2.4633 Y0.903
X2.451 Y0.9392
X2.4449 Y0.9539
X2.4368 Y0.9675
X2.427 Y0.98
X2.4155 Y0.991
X2.4027 Y1.0004
X2.3297 Y1.0464
X2.3141 Y1.0556
X2.2847 Y1.0722
X2.1785 Y1.1304
X2.1649 Y1.1378
X2.1493 Y1.1454
X2.1249 Y1.1571
G3 X2.0549 Y1.1114 I-0.02 J-0.0458
G1 X2.0548 Y1.0533
X2.0507 Y-1.0556
X2.0506 Y-1.1142
G3 X2.1199 Y-1.1604 I0.05 J-0.0001
G1 X2.1349 Y-1.1526
X2.1649 Y-1.1369
X2.2398 Y-1.0972
X2.2548 Y-1.0892
X2.2847 Y-1.0728
X2.2886 Y-1.0706
X2.4046 Y-1
X2.4114 Y-0.9957
X2.4336 Y-0.9807
X2.4632 Y-0.9586
X2.4895 Y-0.9354
X2.5181 Y-0.9058
X2.5487 Y-0.8685
X2.5791 Y-0.8248
X2.6062 Y-0.7789
X2.6304 Y-0.7314
X2.652 Y-0.6827
X2.6714 Y-0.633
X2.6888 Y-0.5827
X2.7044 Y-0.5317
X2.7183 Y-0.4802
X2.7307 Y-0.4284
X2.7417 Y-0.3763
X2.7513 Y-0.3239
X2.7596 Y-0.2712
X2.7668 Y-0.2184
X2.7727 Y-0.1654
X2.7775 Y-0.1124
X2.7812 Y-0.0592
X2.7837 Y-0.006
X2.7852 Y0.0473
X2.7856 Y0.1006
X2.785 Y0.1539
X2.7832 Y0.2071
X2.7805 Y0.2604
X2.7767 Y0.3135
X2.7719 Y0.3666
X2.766 Y0.4196
X2.7592 Y0.4724
X2.7513 Y0.5251
X2.7425 Y0.5777
X2.7326 Y0.63
X2.7218 Y0.6822
X2.71 Y0.7342
X2.7086 Y0.7398
X2.7029 Y0.757
X2.6947 Y0.7731
X2.684 Y0.7877
X2.6712 Y0.8005
X2.6528 Y0.816
X2.6143 Y0.8482
X2.5805 Y0.8759
X2.5694 Y0.8846
X2.478 Y0.9508
X2.4572 Y0.9657
X2.4495 Y0.9709
X2.4027 Y1.0004
G3 X2.3276 Y0.9564 I-0.0251 J-0.0432
G1 X2.3284 Y0.905
X2.3564 Y-0.8876
X2.3572 Y-0.9391
G3 X2.4336 Y-0.9807 I0.05 J0.0008
G1 X2.4495 Y-0.97
X2.4985 Y-0.9358
X2.5244 Y-0.9177
X2.5394 Y-0.9069
X2.5607 Y-0.8909
X2.5694 Y-0.8843
X2.6539 Y-0.816
X2.6593 Y-0.8116
X2.6717 Y-0.801
X2.7342 Y-0.7423
X2.7636 Y-0.7117
X2.788 Y-0.6819
X2.814 Y-0.6443
X2.8407 Y-0.5982
X2.8638 Y-0.5501
X2.8837 Y-0.5007
X2.9009 Y-0.4502
X2.9157 Y-0.3991
X2.9285 Y-0.3473
X2.9394 Y-0.2952
X2.9487 Y-0.2427
X2.9565 Y-0.19
X2.9628 Y-0.1371
X2.9678 Y-0.084
X2.9716 Y-0.0308
X2.9741 Y0.0224
X2.9755 Y0.0757
X2.9758 Y0.129
X2.975 Y0.1822
X2.9732 Y0.2355
X2.9703 Y0.2887
X2.9664 Y0.3419
X2.9616 Y0.3949
X2.9557 Y0.4479
X2.9547 Y0.4555
X2.952 Y0.4696
X2.9476 Y0.4833
X2.9415 Y0.4964
X2.9339 Y0.5085
X2.9067 Y0.5465
X2.899 Y0.5571
X2.8732 Y0.5914
X2.869 Y0.5968
X2.8089 Y0.6663
X2.7957 Y0.6813
X2.7811 Y0.6962
X2.7042 Y0.7715
X2.6892 Y0.7851
X2.6712 Y0.8005
G3 X2.5901 Y0.7593 I-0.0312 J-0.0391
G1 X2.5919 Y0.7165
X2.6494 Y-0.6622
X2.6513 Y-0.7068
G3 X2.7342 Y-0.7423 I0.05 J0.0021
G1 X2.7513 Y-0.7262
X2.7641 Y-0.7136
X2.7811 Y-0.6962
X2.8091 Y-0.6653
X2.8352 Y-0.6363
X2.8612 Y-0.6064
X2.869 Y-0.5966
X2.9293 Y-0.5166
X2.9391 Y-0.5016
X2.9889 Y-0.4202
X2.9934 Y-0.4118
X3.0038 Y-0.3907
X3.0082 Y-0.3818
X3.0295 Y-0.3369
X3.0338 Y-0.3277
X3.0424 Y-0.3069
X3.048 Y-0.292
X3.0584 Y-0.262
X3.0737 Y-0.2171
X3.0772 Y-0.2021
X3.0903 Y-0.1422
X3.0934 Y-0.1273
X3.097 Y-0.0973
X3.0987 Y-0.0824
X3.1015 Y-0.0524
X3.1026 Y-0.0374
X3.1041 Y-0.0075
X3.104 Y0.0075
X3.0994 Y0.0824
X3.0974 Y0.0973
X3.0926 Y0.1273
X3.0899 Y0.1422
X3.0842 Y0.1722
X3.0771 Y0.2021
X3.0727 Y0.2171
X3.0634 Y0.2471
X3.0585 Y0.262
X3.0482 Y0.292
X3.0423 Y0.3069
X3.0092 Y0.3818
X3.0038 Y0.392
X2.9927 Y0.4118
X2.9841 Y0.4267
X2.9582 Y0.4716
X2.9494 Y0.4866
X2.9439 Y0.4945
X2.9339 Y0.5085
G3 X2.8472 Y0.4949 I-0.0396 J-0.0305
G1 X2.8463 Y0.4908 Z-0.3731
X2.8454 Y0.4867 Z-0.3726
X2.8445 Y0.4827 Z-0.3717
X2.8443 Y0.478 Z-0.3703
X2.8448 Y0.4737 Z-0.3684
X2.8453 Y0.4695 Z-0.3662
X2.8458 Y0.4656 Z-0.3635
X2.8471 Y0.4623 Z-0.3606
X2.8483 Y0.4592 Z-0.3574
X2.8494 Y0.4565 Z-0.3539
X2.8504 Y0.454 Z-0.3501
X2.8518 Y0.4519 Z-0.3456
X2.8529 Y0.4502 Z-0.3409
X2.8537 Y0.4489 Z-0.336
X2.8543 Y0.448 Z-0.331
X2.8546 Y0.4476 Z-0.3272
X2.8547 Y0.4475 Z-0.3233
G0 Z0.2
X-0.5995 Y1.5542
Z-0.3233
G1 Z-0.3733 F100
X-0.7511 Y1.5544
G3 X-0.7566 Y1.5541 I-0.0001 J-0.05
G1 X-0.8914 Y1.5347
X-0.9064 Y1.5323
X-0.9364 Y1.5273
X-1.0862 Y1.4995
X-1.1012 Y1.4967
X-1.1351 Y1.4898
X-1.1461 Y1.4874
X-1.191 Y1.4771
X-1.2313 Y1.4657
X-1.2688 Y1.4518
X-1.3113 Y1.432
X-1.3577 Y1.4057
X-1.4018 Y1.3758
X-1.4439 Y1.3431
X-1.4841 Y1.3081
X-1.5224 Y1.2711
X-1.5591 Y1.2324
X-1.5941 Y1.1923
X-1.6276 Y1.1508
X-1.6596 Y1.1082
X-1.6901 Y1.0645
X-1.7192 Y1.0199
X-1.747 Y0.9744
X-1.7734 Y0.9281
X-1.7983 Y0.881
X-1.822 Y0.8332
X-1.8442 Y0.7848
X-1.865 Y0.7358
X-1.8845 Y0.6861
X-1.9025 Y0.636
X-1.9192 Y0.5854
X-1.9345 Y0.5343
X-1.9484 Y0.4829
X-1.9609 Y0.4311
X-1.972 Y0.379
X-1.9817 Y0.3266
X-1.9899 Y0.2739
X-1.9968 Y0.2211
X-2.0021 Y0.168
X-2.006 Y0.1149
X-2.0085 Y0.0617
X-2.0096 Y0.0084
X-2.0092 Y-0.0449
X-2.0074 Y-0.0982
X-2.0042 Y-0.1514
X-1.9995 Y-0.2045
X-1.9935 Y-0.2574
X-1.986 Y-0.3102
X-1.977 Y-0.3627
X-1.9667 Y-0.415
X-1.9549 Y-0.467
X-1.9417 Y-0.5186
X-1.9272 Y-0.5699
X-1.9113 Y-0.6207
X-1.8941 Y-0.6712
X-1.8755 Y-0.7211
X-1.8556 Y-0.7705
X-1.8344 Y-0.8194
X-1.8118 Y-0.8677
X-1.7879 Y-0.9153
X-1.7628 Y-0.9623
X-1.7364 Y-1.0086
X-1.7088 Y-1.0542
X-1.68 Y-1.099
X-1.65 Y-1.1431
X-1.6188 Y-1.1863
X-1.5865 Y-1.2287
X-1.5531 Y-1.2702
X-1.5185 Y-1.3108
X-1.4829 Y-1.3504
X-1.4462 Y-1.389
X-1.4337 Y-1.4015
X-1.4218 Y-1.4119
X-1.4087 Y-1.4205
X-1.3945 Y-1.4273
X-1.3795 Y-1.4322
X-1.3409 Y-1.4417
X-1.191 Y-1.4778
X-1.1761 Y-1.4812
X-1.1461 Y-1.4872
X-1.1161 Y-1.4932
X-0.9809 Y-1.5197
X-0.9677 Y-1.522
G3 X-0.9621 Y-1.5224 I0.0067 J0.0496
G1 X-0.8607 Y-1.5246
X-0.8551 Y-1.5247 Z-0.373
X-0.8496 Y-1.5248 Z-0.3721
X-0.8442 Y-1.5249 Z-0.3705
X-0.839 Y-1.525 Z-0.3684
X-0.8341 Y-1.5251 Z-0.3657
X-0.8295 Y-1.5252 Z-0.3624
X-0.8254 Y-1.5253 Z-0.3587
X-0.8216 Y-1.5254 Z-0.3545
X-0.8184 Y-1.5255 Z-0.3499
X-0.8157 Z-0.345
X-0.8135 Y-1.5256 Z-0.3398
X-0.812 Z-0.3345
X-0.811 Z-0.3289
X-0.8107 Z-0.3233
G0 Z0.2
X-1.034 Y1.4781
Z-0.3233
G1 Z-0.3733 F100
X-1.1816 Y1.478
G3 X-1.191 Y1.4771 J-0.05
G1 X-1.2959 Y1.4531
X-1.3109 Y1.4495
X-1.3409 Y1.4421
X-1.3558 Y1.4381
X-1.5057 Y1.3968
X-1.5206 Y1.3923
X-1.5356 Y1.3877
X-1.5681 Y1.376
X-1.5995 Y1.3618
X-1.6348 Y1.3423
X-1.6741 Y1.3162
X-1.716 Y1.2832
X-1.7552 Y1.2472
X-1.792 Y1.2086
X-1.8266 Y1.168
X-1.8591 Y1.1259
X-1.8898 Y1.0823
X-1.9187 Y1.0375
X-1.946 Y0.9917
X-1.9717 Y0.945
X-1.9959 Y0.8975
X-2.0186 Y0.8493
X-2.0399 Y0.8005
X-2.0598 Y0.7511
X-2.0784 Y0.7011
X-2.0956 Y0.6507
X-2.1115 Y0.5998
X-2.1261 Y0.5486
X-2.1393 Y0.4969
X-2.1511 Y0.445
X-2.1617 Y0.3927
X-2.1709 Y0.3403
X-2.1788 Y0.2876
X-2.1854 Y0.2347
X-2.1907 Y0.1816
X-2.1947 Y0.1285
X-2.1974 Y0.0753
X-2.1987 Y0.022
X-2.1988 Y-0.0313
X-2.1975 Y-0.0846
X-2.1949 Y-0.1378
X-2.1909 Y-0.1909
X-2.1857 Y-0.244
X-2.1792 Y-0.2969
X-2.1713 Y-0.3496
X-2.1622 Y-0.4021
X-2.1518 Y-0.4543
X-2.1401 Y-0.5063
X-2.1272 Y-0.558
X-2.113 Y-0.6094
X-2.0975 Y-0.6604
X-2.0808 Y-0.711
X-2.0629 Y-0.7612
X-2.0437 Y-0.8109
X-2.0233 Y-0.8601
X-2.0016 Y-0.9088
X-1.9789 Y-0.957
X-1.9549 Y-1.0046
X-1.9298 Y-1.0516
X-1.9035 Y-1.098
X-1.8762 Y-1.1437
X-1.8477 Y-1.1887
X-1.8181 Y-1.2331
X-1.7874 Y-1.2766
X-1.7818 Y-1.2842
X-1.7702 Y-1.2976
X-1.7567 Y-1.309
X-1.7417 Y-1.3183
X-1.7254 Y-1.3253
X-1.593 Y-1.37
X-1.5806 Y-1.3742
X-1.5656 Y-1.3789
X-1.3858 Y-1.4306
X-1.3795 Y-1.4322
G3 X-1.3223 Y-1.3656 I0.0104 J0.0489
G1 X-1.3243 Y-1.3619 Z-0.3731
X-1.3262 Y-1.3582 Z-0.3726
X-1.3282 Y-1.3545 Z-0.3717
X-1.3311 Y-1.3514 Z-0.3704
X-1.3339 Y-1.3483 Z-0.3687
X-1.3366 Y-1.3453 Z-0.3666
X-1.3403 Y-1.3428 Z-0.3636
X-1.3438 Y-1.3405 Z-0.3602
X-1.347 Y-1.3384 Z-0.3563
X-1.3498 Y-1.3374 Z-0.3526
X-1.3522 Y-1.3366 Z-0.3487
X-1.3543 Y-1.3358 Z-0.3445
X-1.3559 Y-1.3352 Z-0.3401
X-1.3572 Y-1.3348 Z-0.3356
X-1.3581 Y-1.3345 Z-0.331
X-1.3585 Y-1.3344 Z-0.3272
X-1.3587 Z-0.3233
G0 Z0.2
X-1.3304 Y1.4138
Z-0.2733
G1 Z-0.3233 F100
X-1.3307 Y1.4137 Z-0.3289
X-1.3317 Z-0.3345
X-1.3332 Y1.4136 Z-0.3398
X-1.3354 Y1.4135 Z-0.345
X-1.3381 Y1.4134 Z-0.3499
X-1.3413 Y1.4133 Z-0.3545
X-1.345 Y1.4131 Z-0.3587
X-1.3492 Y1.4129 Z-0.3624
X-1.3538 Y1.4127 Z-0.3657
X-1.3587 Y1.4125 Z-0.3684
X-1.3639 Y1.4123 Z-0.3705
X-1.3693 Y1.412 Z-0.3721
X-1.3748 Y1.4118 Z-0.373
X-1.3804 Y1.4115 Z-0.3733
G3 X-1.5356 Y1.3877 I0.0323 J-0.7284
G1 X-1.5506 Y1.3831
X-1.7004 Y1.3344
X-1.7154 Y1.3294
X-1.7666 Y1.3101
X-1.8353 Y1.2841
X-1.8751 Y1.2667
X-1.9032 Y1.2516
X-1.934 Y1.2318
X-1.9678 Y1.206
X-2.005 Y1.1724
X-2.0416 Y1.1337
X-2.0754 Y1.0924
X-2.1066 Y1.0492
X-2.1354 Y1.0044
X-2.1622 Y0.9583
X-2.1871 Y0.9112
X-2.2102 Y0.8632
X-2.2316 Y0.8144
X-2.2515 Y0.7649
X-2.2699 Y0.7149
X-2.2869 Y0.6644
X-2.3025 Y0.6134
X-2.3167 Y0.5621
X-2.3295 Y0.5104
X-2.3411 Y0.4583
X-2.3514 Y0.406
X-2.3604 Y0.3535
X-2.3681 Y0.3008
X-2.3747 Y0.2479
X-2.38 Y0.1949
X-2.384 Y0.1417
X-2.3869 Y0.0885
X-2.3885 Y0.0353
X-2.3889 Y-0.018
X-2.388 Y-0.0713
X-2.386 Y-0.1246
X-2.3827 Y-0.1778
X-2.3782 Y-0.2309
X-2.3725 Y-0.2838
X-2.3656 Y-0.3367
X-2.3575 Y-0.3894
X-2.3482 Y-0.4418
X-2.3378 Y-0.4941
X-2.3262 Y-0.5461
X-2.3134 Y-0.5978
X-2.2994 Y-0.6493
X-2.2843 Y-0.7004
X-2.268 Y-0.7511
X-2.2506 Y-0.8015
X-2.232 Y-0.8514
X-2.2123 Y-0.901
X-2.1915 Y-0.95
X-2.1697 Y-0.9986
X-2.1467 Y-1.0467
X-2.1226 Y-1.0943
X-2.0975 Y-1.1413
X-2.0936 Y-1.1483
X-2.0833 Y-1.1636
X-2.0707 Y-1.1771
X-2.0562 Y-1.1884
X-2.0401 Y-1.1973
X-1.9701 Y-1.229
X-1.9562 Y-1.2353
X-1.9209 Y-1.2502
X-1.9102 Y-1.2546
X-1.8053 Y-1.2958
X-1.7903 Y-1.3016
X-1.7604 Y-1.3131
X-1.7454 Y-1.3185
X-1.7254 Y-1.3253
G3 X-1.6962 Y-1.2296 I0.0143 J0.0479
X-1.6967 Y-1.2295 I-0.0149 J-0.0477
G1 X-1.7021 Y-1.2279 Z-0.373
X-1.7074 Y-1.2263 Z-0.3721
X-1.7125 Y-1.2247 Z-0.3705
X-1.7175 Y-1.2232 Z-0.3684
X-1.7222 Y-1.2218 Z-0.3657
X-1.7266 Y-1.2205 Z-0.3624
X-1.7306 Y-1.2193 Z-0.3587
X-1.7342 Y-1.2182 Z-0.3545
X-1.7373 Y-1.2173 Z-0.3499
X-1.7399 Y-1.2165 Z-0.345
X-1.7419 Y-1.2159 Z-0.3398
X-1.7434 Y-1.2155 Z-0.3345
X-1.7443 Y-1.2152 Z-0.3289
X-1.7446 Y-1.2151 Z-0.3233
G0 Z0.2
X-1.6322 Y1.3238
Z-0.2733
G1 Z-0.3233 F100
X-1.6326 Z-0.3289
X-1.6335 Y1.3237 Z-0.3345
X-1.635 Y1.3235 Z-0.3398
X-1.6372 Y1.3233 Z-0.345
X-1.6399 Y1.323 Z-0.3499
X-1.6431 Y1.3226 Z-0.3545
X-1.6468 Y1.3222 Z-0.3587
X-1.651 Y1.3217 Z-0.3624
X-1.6555 Y1.3212 Z-0.3657
X-1.6604 Y1.3207 Z-0.3684
X-1.6655 Y1.3201 Z-0.3705
X-1.6709 Y1.3195 Z-0.3721
X-1.6764 Y1.3189 Z-0.373
X-1.6819 Y1.3183 Z-0.3733
G3 X-1.8353 Y1.2841 I0.0809 J-0.7246
G1 X-1.8652 Y1.2728
X-1.8802 Y1.267
X-1.9102 Y1.2548
X-2.03 Y1.2023
X-2.045 Y1.1956
X-2.075 Y1.1817
X-2.088 Y1.1754
X-2.1475 Y1.1454
X-2.1742 Y1.1303
X-2.2005 Y1.1124
X-2.2296 Y1.089
X-2.2613 Y1.059
X-2.2955 Y1.0212
X-2.3278 Y0.9788
X-2.3572 Y0.9343
X-2.3838 Y0.8882
X-2.408 Y0.8407
X-2.4301 Y0.7922
X-2.4502 Y0.7428
X-2.4685 Y0.6928
X-2.4851 Y0.6422
X-2.5002 Y0.591
X-2.5138 Y0.5395
X-2.526 Y0.4876
X-2.5369 Y0.4355
X-2.5464 Y0.383
X-2.5547 Y0.3304
X-2.5618 Y0.2776
X-2.5677 Y0.2246
X-2.5723 Y0.1715
X-2.5758 Y0.1183
X-2.578 Y0.0651
X-2.5791 Y0.0118
Y-0.0415
X-2.5779 Y-0.0947
X-2.5755 Y-0.148
X-2.572 Y-0.2012
X-2.5674 Y-0.2543
X-2.5617 Y-0.3072
X-2.5549 Y-0.3601
X-2.547 Y-0.4128
X-2.538 Y-0.4653
X-2.5279 Y-0.5176
X-2.5166 Y-0.5697
X-2.5043 Y-0.6216
X-2.4909 Y-0.6732
X-2.4764 Y-0.7244
X-2.4608 Y-0.7754
X-2.4442 Y-0.826
X-2.4265 Y-0.8763
X-2.4078 Y-0.9262
X-2.388 Y-0.9757
X-2.3831 Y-0.9873
X-2.3746 Y-1.0036
X-2.3636 Y-1.0184
X-2.3505 Y-1.0313
X-2.3355 Y-1.042
X-2.2876 Y-1.0706
X-2.2697 Y-1.081
X-2.2548 Y-1.0897
X-2.2398 Y-1.0976
X-2.1349 Y-1.1522
X-2.1191 Y-1.1604
X-2.1049 Y-1.1674
X-2.09 Y-1.1747
X-2.0401 Y-1.1973
G3 X-1.9711 Y-1.1487 I0.019 J0.0462
G1 X-1.9738 Y-1.0921
X-2.0739 Y1.0431
X-2.0766 Y1.1023
G3 X-2.1475 Y1.1454 I-0.0499 J-0.0023
G1 X-2.1948 Y1.1216
X-2.2067 Y1.1155
X-2.2398 Y1.0975
X-2.2548 Y1.089
X-2.3645 Y1.0256
X-2.3746 Y1.0192
X-2.3896 Y1.0094
X-2.4328 Y0.9807
X-2.4655 Y0.9566
X-2.4903 Y0.935
X-2.5174 Y0.9073
X-2.5465 Y0.8723
X-2.5772 Y0.8288
X-2.6043 Y0.7829
X-2.6284 Y0.7353
X-2.6497 Y0.6865
X-2.6687 Y0.6367
X-2.6856 Y0.5862
X-2.7005 Y0.535
X-2.7137 Y0.4834
X-2.7253 Y0.4314
X-2.7354 Y0.3791
X-2.7441 Y0.3265
X-2.7514 Y0.2737
X-2.7574 Y0.2207
X-2.7622 Y0.1677
X-2.7657 Y0.1145
X-2.7681 Y0.0612
X-2.7693 Y0.008
X-2.7695 Y-0.0453
X-2.7685 Y-0.0986
X-2.7664 Y-0.1519
X-2.7632 Y-0.2051
X-2.759 Y-0.2582
X-2.7537 Y-0.3112
X-2.7474 Y-0.3641
X-2.74 Y-0.4169
X-2.7316 Y-0.4695
X-2.7221 Y-0.522
X-2.7116 Y-0.5742
X-2.7 Y-0.6262
X-2.6875 Y-0.678
X-2.6739 Y-0.7296
X-2.6593 Y-0.7808
X-2.6572 Y-0.7878
X-2.6509 Y-0.804
X-2.6422 Y-0.8191
X-2.6314 Y-0.8328
X-2.6186 Y-0.8447
X-2.5694 Y-0.8838
X-2.5394 Y-0.9073
X-2.5244 Y-0.9183
X-2.4117 Y-0.9957
X-2.4046 Y-1.0003
X-2.3896 Y-1.0096
X-2.3355 Y-1.042
G3 X-2.2614 Y-0.9957 I0.0241 J0.0438
G1 X-2.2639 Y-0.9449
X-2.3541 Y0.8872
X-2.3567 Y0.9406
G3 X-2.4328 Y0.9807 I-0.0499 J-0.0025
G1 X-2.4795 Y0.9498
X-2.4945 Y0.9397
X-2.5094 Y0.9291
X-2.5205 Y0.9208
X-2.6184 Y0.846
X-2.6293 Y0.8367
X-2.653 Y0.816
X-2.6593 Y0.8106
X-2.7042 Y0.7707
X-2.7203 Y0.7561
X-2.7342 Y0.7433
X-2.7561 Y0.7209
X-2.7797 Y0.6924
X-2.8048 Y0.6567
X-2.8311 Y0.6122
X-2.8544 Y0.5643
X-2.8743 Y0.5148
X-2.8914 Y0.4644
X-2.9059 Y0.4131
X-2.9183 Y0.3613
X-2.9287 Y0.309
X-2.9374 Y0.2564
X-2.9444 Y0.2036
X-2.9499 Y0.1506
X-2.954 Y0.0975
X-2.9568 Y0.0442
X-2.9584 Y-0.009
X-2.9588 Y-0.0623
X-2.958 Y-0.1156
X-2.9562 Y-0.1689
X-2.9532 Y-0.2221
X-2.9492 Y-0.2752
X-2.9442 Y-0.3283
X-2.9381 Y-0.3812
X-2.931 Y-0.434
X-2.9229 Y-0.4867
X-2.9191 Y-0.5088
X-2.9159 Y-0.5226
X-2.911 Y-0.5359
X-2.9045 Y-0.5485
X-2.8966 Y-0.5602
X-2.869 Y-0.5959
X-2.8606 Y-0.6064
X-2.8357 Y-0.6363
X-2.822 Y-0.6513
X-2.7641 Y-0.7141
X-2.752 Y-0.7262
X-2.7033 Y-0.7711
X-2.6593 Y-0.8118
X-2.6543 Y-0.816
X-2.6186 Y-0.8447
G3 X-2.5389 Y-0.8009 I0.0299 J0.0401
G1 X-2.542 Y-0.7583
X-2.6482 Y0.6627
X-2.6516 Y0.7092
G3 X-2.7342 Y0.7433 I-0.0499 J-0.0037
G1 X-2.7365 Y0.7412
X-2.7492 Y0.7284
X-2.8091 Y0.6661
X-2.8232 Y0.6513
X-2.836 Y0.6363
X-2.899 Y0.5583
X-2.9082 Y0.5465
X-2.9589 Y0.4701
X-2.9757 Y0.4417
X-2.9845 Y0.4267
X-3.0038 Y0.39
X-3.0081 Y0.3818
X-3.0231 Y0.3519
X-3.0299 Y0.3369
X-3.0594 Y0.262
X-3.0638 Y0.2482
X-3.0725 Y0.2171
X-3.0804 Y0.1872
X-3.0844 Y0.1722
X-3.09 Y0.1422
X-3.0927 Y0.1273
X-3.0969 Y0.0973
X-3.0988 Y0.0824
X-3.1016 Y0.0524
X-3.1025 Y0.0374
X-3.103 Y0.0075
Y-0.0075
X-3.1029 Y-0.0374
X-3.1019 Y-0.0524
X-3.0937 Y-0.1273
X-3.0906 Y-0.1422
X-3.0838 Y-0.1722
X-3.0768 Y-0.2021
X-3.0731 Y-0.2171
X-3.0635 Y-0.2471
X-3.0585 Y-0.262
X-3.0477 Y-0.292
X-3.0422 Y-0.3069
X-3.0338 Y-0.329
X-3.0301 Y-0.3369
X-2.9932 Y-0.4118
X-2.9889 Y-0.4203
X-2.9855 Y-0.4267
X-2.9762 Y-0.4417
X-2.9386 Y-0.5016
X-2.9287 Y-0.5166
X-2.9071 Y-0.5465
X-2.8966 Y-0.5602
G3 X-2.8104 Y-0.5435 I0.0385 J0.0319
G1 X-2.8096 Y-0.5393 Z-0.3731
X-2.8089 Y-0.5352 Z-0.3726
X-2.8081 Y-0.5312 Z-0.3717
X-2.808 Y-0.5283 Z-0.3709
X-2.8086 Y-0.524 Z-0.3692
X-2.8091 Y-0.5198 Z-0.3672
X-2.8096 Y-0.5159 Z-0.3648
X-2.8109 Y-0.5126 Z-0.3622
X-2.8121 Y-0.5096 Z-0.3593
X-2.8132 Y-0.5068 Z-0.3561
X-2.8142 Y-0.5043 Z-0.3527
X-2.8156 Y-0.5021 Z-0.3487
X-2.8169 Y-0.5003 Z-0.3445
X-2.8179 Y-0.4988 Z-0.3401
X-2.8186 Y-0.4976 Z-0.3356
X-2.8192 Y-0.4969 Z-0.331
X-2.8194 Y-0.4965 Z-0.3272
X-2.8195 Y-0.4964 Z-0.3233
G0 Z0.2
X-0.2554 Y0.0464
Z-0.2233
G1 Z-0.2733 F100
G3 X0.2105 Y-0.0458 Z-0.2994 I0.233 J-0.0461 F33.33
X-0.2554 Y0.0464 Z-0.3254 I-0.233 J0.0461
X0.2105 Y-0.0458 Z-0.3515 I0.233 J-0.0461
X-0.2554 Y0.0464 Z-0.3775 I-0.233 J0.0461
X0.2105 Y-0.0458 Z-0.4036 I0.233 J-0.0461
X-0.2554 Y0.0464 Z-0.4297 I-0.233 J0.0461
X0.2105 Y-0.0458 Z-0.4557 I0.233 J-0.0461
X-0.2554 Y0.0464 Z-0.4818 I-0.233 J0.0461
X0.2105 Y-0.0458 Z-0.5078 I0.233 J-0.0461
X-0.2554 Y0.0464 Z-0.5339 I-0.233 J0.0461
X0.2105 Y-0.0458 Z-0.5599 I0.233 J-0.0461
X-0.2554 Y0.0464 Z-0.586 I-0.233 J0.0461
X0.2105 Y-0.0458 Z-0.612 I0.233 J-0.0461
X-0.2554 Y0.0464 Z-0.6381 I-0.233 J0.0461
X0.2105 Y-0.0458 Z-0.6642 I0.233 J-0.0461
X-0.2554 Y0.0464 Z-0.6902 I-0.233 J0.0461
X0.2105 Y-0.0458 Z-0.7163 I0.233 J-0.0461
X-0.2554 Y0.0464 Z-0.7423 I-0.233 J0.0461
X-0.0456 Y-0.2361 Z-0.7562 I0.233 J-0.0461
X0.215 Y0.0003 Z-0.77 I0.0232 J0.2364
X-0.26 I-0.2375
X0.215 I0.2375
G1 X0.2152 Y0.0136 F100
X0.2169 Y0.0268
X0.2295 Y0.0786
X0.2328 Y0.0858
X0.2357 Y0.094
X0.2382 Y0.1033
X0.2401 Y0.1136
X0.2413 Y0.125
X0.2416 Y0.1373
X0.2408 Y0.1505
X0.2389 Y0.1646
X0.2356 Y0.1793
X0.2309 Y0.1946
X0.2246 Y0.2104
X0.2167 Y0.2263
X0.2071 Y0.2424
X0.1957 Y0.2583
X0.1826 Y0.2739
X0.1676 Y0.2889
X0.151 Y0.3032
X0.1326 Y0.3166
X0.1127 Y0.3288
X0.0912 Y0.3397
X0.0683 Y0.349
X0.0443 Y0.3566
X0.0191 Y0.3625
X-0.0069 Y0.3663
X-0.0336 Y0.3681
X-0.0607 Y0.3677
X-0.0881 Y0.3651
X-0.1156 Y0.3603
X-0.1428 Y0.3532
X-0.1697 Y0.3439
X-0.196 Y0.3323
X-0.2214 Y0.3185
X-0.2458 Y0.3027
X-0.269 Y0.2848
X-0.2908 Y0.265
X-0.311 Y0.2435
X-0.3296 Y0.2202
X-0.3462 Y0.1955
X-0.3609 Y0.1695
X-0.3734 Y0.1423
X-0.3838 Y0.1141
X-0.3919 Y0.0851
X-0.3976 Y0.0555
X-0.4009 Y0.0254
X-0.4019 Y-0.0048
X-0.4004 Y-0.0351
X-0.3964 Y-0.0651
X-0.3901 Y-0.0948
X-0.3814 Y-0.1239
X-0.3704 Y-0.1522
X-0.3571 Y-0.1796
X-0.3417 Y-0.2058
X-0.3242 Y-0.2308
X-0.3047 Y-0.2542
X-0.2834 Y-0.276
X-0.2605 Y-0.2961
X-0.236 Y-0.3142
X-0.2101 Y-0.3303
X-0.183 Y-0.3443
X-0.1548 Y-0.3561
X-0.1258 Y-0.3656
X-0.0962 Y-0.3727
X-0.066 Y-0.3774
X-0.0356 Y-0.3797
X-0.005 Y-0.3795
X0.0254 Y-0.3769
X0.0555 Y-0.3719
X0.0851 Y-0.3644
X0.114 Y-0.3546
X0.1421 Y-0.3425
X0.169 Y-0.3282
X0.1948 Y-0.3118
X0.2191 Y-0.2934
X0.2419 Y-0.273
X0.263 Y-0.2509
X0.2823 Y-0.2272
X0.2995 Y-0.202
X0.3261 Y-0.1558
X0.3499 Y-0.1081
X0.3681 Y-0.0643
X0.3809 Y-0.0247
X0.3897 Y0.0124
X0.3951 Y0.0478
X0.3976 Y0.0822
X0.3973 Y0.116
X0.3944 Y0.1491
X0.3888 Y0.1816
X0.3807 Y0.2134
X0.3701 Y0.2445
X0.3569 Y0.2748
X0.3413 Y0.3041
X0.3231 Y0.3323
X0.3026 Y0.3593
X0.2796 Y0.3849
X0.2544 Y0.4088
X0.227 Y0.4309
X0.1974 Y0.4511
X0.1659 Y0.469
X0.1327 Y0.4845
X0.098 Y0.4975
X0.0619 Y0.5078
X0.0247 Y0.5152
X-0.0133 Y0.5196
X-0.0521 Y0.521
X-0.0911 Y0.5193
X-0.1303 Y0.5143
X-0.1694 Y0.5062
X-0.208 Y0.4949
X-0.2459 Y0.4804
X-0.2827 Y0.4627
X-0.3183 Y0.4421
X-0.3522 Y0.4185
X-0.3844 Y0.3921
X-0.4144 Y0.3631
X-0.4421 Y0.3317
X-0.4674 Y0.298
X-0.4899 Y0.2623
X-0.5095 Y0.2247
X-0.5261 Y0.1857
X-0.5395 Y0.1453
X-0.5497 Y0.1038
X-0.5566 Y0.0617
X-0.56 Y0.019
Y-0.0239
X-0.5565 Y-0.0667
X-0.5496 Y-0.1091
X-0.5394 Y-0.1509
X-0.5258 Y-0.1917
X-0.5089 Y-0.2314
X-0.4889 Y-0.2696
X-0.4659 Y-0.3061
X-0.44 Y-0.3406
X-0.4114 Y-0.373
X-0.3803 Y-0.403
X-0.3469 Y-0.4304
X-0.3114 Y-0.455
X-0.274 Y-0.4768
X-0.2349 Y-0.4954
X-0.1945 Y-0.5109
X-0.153 Y-0.5231
X-0.1106 Y-0.5319
X-0.0676 Y-0.5372
X-0.0244 Y-0.5391
X0.0189 Y-0.5376
X0.0619 Y-0.5325
X0.1044 Y-0.5241
X0.146 Y-0.5122
X0.1866 Y-0.497
X0.2258 Y-0.4787
X0.2635 Y-0.4572
X0.2993 Y-0.4328
X0.3359 Y-0.4032
X0.3733 Y-0.3677
X0.4089 Y-0.3281
X0.4413 Y-0.2857
X0.4703 Y-0.2411
X0.4959 Y-0.1943
X0.5178 Y-0.1457
X0.5352 Y-0.0968
X0.5484 Y-0.0479
X0.5574 Y0.001
X0.5623 Y0.0496
X0.5634 Y0.0978
X0.5606 Y0.1456
X0.554 Y0.1927
X0.5436 Y0.239
X0.5296 Y0.2842
X0.5121 Y0.3281
X0.491 Y0.3706
X0.4665 Y0.4114
X0.4386 Y0.4504
X0.4075 Y0.4871
X0.3734 Y0.5215
X0.3363 Y0.5533
X0.2966 Y0.5821
X0.2543 Y0.6079
X0.2098 Y0.6304
X0.1632 Y0.6494
X0.115 Y0.6646
X0.0653 Y0.6761
X0.0144 Y0.6836
X-0.0373 Y0.687
X-0.0895 Y0.6862
X-0.1418 Y0.6812
X-0.1939 Y0.672
X-0.2455 Y0.6585
X-0.2958 Y0.6409
X-0.3446 Y0.6194
X-0.3915 Y0.5941
X-0.4362 Y0.5652
X-0.4786 Y0.5328
X-0.5183 Y0.4973
X-0.5551 Y0.4587
X-0.5888 Y0.4175
X-0.6193 Y0.3738
X-0.6463 Y0.3278
X-0.6697 Y0.2799
X-0.6894 Y0.2304
X-0.7052 Y0.1795
X-0.7172 Y0.1276
X-0.7251 Y0.0749
X-0.7291 Y0.0218
X-0.729 Y-0.0315
X-0.7248 Y-0.0847
X-0.7167 Y-0.1373
X-0.7045 Y-0.1892
X-0.6885 Y-0.24
X-0.6686 Y-0.2895
X-0.645 Y-0.3373
X-0.6179 Y-0.3832
X-0.5875 Y-0.4269
X-0.5538 Y-0.4682
X-0.5171 Y-0.5068
X-0.4776 Y-0.5426
X-0.4355 Y-0.5753
X-0.3911 Y-0.6048
X-0.3447 Y-0.6309
X-0.2963 Y-0.6534
X-0.2465 Y-0.6722
X-0.1954 Y-0.6872
X-0.1432 Y-0.6983
X-0.0904 Y-0.7054
X-0.0372 Y-0.7085
X0.0161 Y-0.7076
X0.0691 Y-0.7027
X0.1217 Y-0.6938
X0.1734 Y-0.681
X0.224 Y-0.6643
X0.2732 Y-0.6439
X0.3208 Y-0.62
X0.3666 Y-0.5927
X0.4103 Y-0.5622
X0.4518 Y-0.5287
X0.491 Y-0.4926
X0.5277 Y-0.454
X0.5619 Y-0.4131
X0.5934 Y-0.3701
X0.6221 Y-0.3252
X0.6478 Y-0.2785
X0.6704 Y-0.2303
X0.6899 Y-0.1807
X0.7061 Y-0.1299
X0.7189 Y-0.0782
X0.7281 Y-0.0257
X0.7337 Y0.0273
X0.7357 Y0.0806
X0.734 Y0.1338
X0.7288 Y0.1869
X0.7199 Y0.2394
X0.7074 Y0.2912
X0.6913 Y0.342
X0.6716 Y0.3916
X0.6486 Y0.4396
X0.6222 Y0.4859
X0.5928 Y0.5304
X0.5604 Y0.5727
X0.5252 Y0.6127
X0.4873 Y0.6501
X0.4469 Y0.6849
X0.4042 Y0.7168
X0.3594 Y0.7457
X0.3129 Y0.7716
X0.2647 Y0.7944
X0.2151 Y0.8139
X0.1642 Y0.8299
X0.1125 Y0.8426
X0.06 Y0.8518
X0.007 Y0.8577
X-0.0462 Y0.8601
X-0.0995 Y0.8589
X-0.1526 Y0.8543
X-0.2053 Y0.8464
X-0.2574 Y0.8351
X-0.3086 Y0.8205
X-0.3588 Y0.8026
X-0.4078 Y0.7816
X-0.4553 Y0.7576
X-0.5013 Y0.7307
X-0.5455 Y0.7008
X-0.5877 Y0.6683
X-0.6278 Y0.6332
X-0.6657 Y0.5957
X-0.7012 Y0.556
X-0.7342 Y0.5141
X-0.7645 Y0.4703
X-0.792 Y0.4246
X-0.8167 Y0.3774
X-0.8386 Y0.3288
X-0.8573 Y0.2789
X-0.8729 Y0.228
X-0.8855 Y0.1762
X-0.8948 Y0.1237
X-0.9011 Y0.0708
X-0.904 Y0.0176
X-0.9036 Y-0.0357
X-0.9 Y-0.0889
X-0.8932 Y-0.1417
X-0.8833 Y-0.1941
X-0.8701 Y-0.2457
X-0.8538 Y-0.2964
X-0.8344 Y-0.3461
X-0.8122 Y-0.3945
X-0.787 Y-0.4415
X-0.759 Y-0.4869
X-0.7283 Y-0.5304
X-0.695 Y-0.572
X-0.6594 Y-0.6116
X-0.6214 Y-0.649
X-0.5812 Y-0.684
X-0.5389 Y-0.7164
X-0.4948 Y-0.7463
X-0.4489 Y-0.7735
X-0.4016 Y-0.7979
X-0.3528 Y-0.8194
X-0.3028 Y-0.8378
X-0.2518 Y-0.8532
X-0.1999 Y-0.8655
X-0.1474 Y-0.8747
X-0.0945 Y-0.8806
X-0.0412 Y-0.8833
X0.012 Y-0.8828
X0.0652 Y-0.8791
X0.1181 Y-0.8723
X0.1704 Y-0.8623
X0.222 Y-0.849
X0.2728 Y-0.8327
X0.3225 Y-0.8135
X0.371 Y-0.7915
X0.4181 Y-0.7666
X0.4637 Y-0.7391
X0.5077 Y-0.7089
X0.5499 Y-0.6764
X0.5903 Y-0.6416
X0.6288 Y-0.6048
X0.6652 Y-0.5659
X0.6994 Y-0.525
X0.7313 Y-0.4823
X0.7609 Y-0.438
X0.7882 Y-0.3922
X0.813 Y-0.3451
X0.8352 Y-0.2966
X0.8546 Y-0.247
X0.8714 Y-0.1964
X0.8853 Y-0.145
X0.8965 Y-0.0929
X0.9048 Y-0.0402
X0.9101 Y0.0128
X0.9124 Y0.0661
X0.9118 Y0.1193
X0.9083 Y0.1725
X0.9018 Y0.2254
X0.8923 Y0.2778
X0.8799 Y0.3297
X0.8645 Y0.3807
X0.8463 Y0.4308
X0.8254 Y0.4798
X0.8017 Y0.5275
X0.7754 Y0.5739
X0.7465 Y0.6186
X0.7151 Y0.6617
X0.6814 Y0.703
X0.6455 Y0.7424
X0.6073 Y0.7796
X0.5672 Y0.8146
X0.5252 Y0.8474
X0.4814 Y0.8778
X0.4361 Y0.9059
X0.3893 Y0.9313
X0.3411 Y0.9541
X0.2917 Y0.9742
X0.2414 Y0.9916
X0.1902 Y1.0063
X0.1382 Y1.0183
X0.0857 Y1.0273
X0.0328 Y1.0335
X-0.0204 Y1.0368
X-0.0737 Y1.0373
X-0.1269 Y1.0351
X-0.18 Y1.03
X-0.2327 Y1.022
X-0.2849 Y1.0113
X-0.3364 Y0.9978
X-0.3872 Y0.9816
X-0.4371 Y0.9629
X-0.486 Y0.9416
X-0.5336 Y0.9177
X-0.5799 Y0.8913
X-0.6248 Y0.8626
X-0.6682 Y0.8316
X-0.7099 Y0.7985
X-0.7499 Y0.7633
X-0.7879 Y0.7259
X-0.824 Y0.6867
X-0.858 Y0.6457
X-0.89 Y0.6031
X-0.9197 Y0.5588
X-0.9471 Y0.5131
X-0.9721 Y0.4661
X-0.9947 Y0.4178
X-1.0148 Y0.3684
X-1.0324 Y0.3181
X-1.0475 Y0.267
X-1.0599 Y0.2152
X-1.0696 Y0.1628
X-1.0767 Y0.11
X-1.0811 Y0.0569
X-1.0829 Y0.0036
X-1.0819 Y-0.0497
X-1.0783 Y-0.1028
X-1.0719 Y-0.1557
X-1.0628 Y-0.2083
X-1.0512 Y-0.2603
X-1.037 Y-0.3116
X-1.0202 Y-0.3622
X-1.0008 Y-0.4119
X-0.9789 Y-0.4604
X-0.9546 Y-0.5079
X-0.928 Y-0.5541
X-0.8992 Y-0.5989
X-0.8681 Y-0.6421
X-0.8348 Y-0.6838
X-0.7995 Y-0.7237
X-0.7622 Y-0.7618
X-0.7231 Y-0.798
X-0.6823 Y-0.8322
X-0.6397 Y-0.8643
X-0.5956 Y-0.8942
X-0.55 Y-0.9218
X-0.5032 Y-0.9471
X-0.4551 Y-0.9701
X-0.4059 Y-0.9907
X-0.3557 Y-1.0087
X-0.3047 Y-1.0241
X-0.253 Y-1.037
X-0.2007 Y-1.0472
X-0.148 Y-1.0549
X-0.0949 Y-1.0599
X-0.0417 Y-1.0622
X0.0116 Y-1.0619
X0.0648 Y-1.0588
X0.1178 Y-1.0531
X0.1704 Y-1.0447
X0.2226 Y-1.0338
X0.2741 Y-1.0203
X0.3249 Y-1.0042
X0.3749 Y-0.9857
X0.4239 Y-0.9647
X0.4718 Y-0.9414
X0.5186 Y-0.9158
X0.5641 Y-0.8881
X0.6082 Y-0.8581
X0.6508 Y-0.8262
X0.6919 Y-0.7923
X0.7314 Y-0.7565
X0.7692 Y-0.7189
X0.8053 Y-0.6797
X0.8395 Y-0.6388
X0.8717 Y-0.5964
X0.902 Y-0.5526
X0.9303 Y-0.5074
X0.9565 Y-0.461
X0.9806 Y-0.4134
X1.0024 Y-0.3648
X1.022 Y-0.3152
X1.0392 Y-0.2648
X1.0541 Y-0.2137
X1.0666 Y-0.1619
X1.0768 Y-0.1095
X1.0845 Y-0.0568
X1.0897 Y-0.0038
X1.0924 Y0.0494
X1.0927 Y0.1027
X1.0904 Y0.156
X1.0857 Y0.2091
X1.0785 Y0.2619
X1.0687 Y0.3143
X1.0565 Y0.3661
X1.0418 Y0.4174
X1.0248 Y0.4679
X1.0054 Y0.5175
X0.9838 Y0.5662
X0.9598 Y0.6138
X0.9336 Y0.6602
X0.9052 Y0.7053
X0.8747 Y0.749
X0.8423 Y0.7913
X0.8079 Y0.832
X0.7716 Y0.871
X0.7335 Y0.9083
X0.6937 Y0.9437
X0.6523 Y0.9773
X0.6094 Y1.0088
X0.565 Y1.0384
X0.5194 Y1.0659
X0.4725 Y1.0913
X0.4245 Y1.1144
X0.3754 Y1.1352
X0.3255 Y1.1538
X0.2748 Y1.1702
X0.2234 Y1.1842
X0.1713 Y1.1958
X0.1188 Y1.205
X0.066 Y1.2117
X0.0129 Y1.2161
X-0.0404 Y1.2181
X-0.0937 Y1.2177
X-0.1469 Y1.215
X-0.1999 Y1.2097
X-0.2527 Y1.2021
X-0.305 Y1.1921
X-0.3569 Y1.1798
X-0.4081 Y1.1653
X-0.4587 Y1.1485
X-0.5085 Y1.1294
X-0.5573 Y1.1081
X-0.6052 Y1.0847
X-0.6519 Y1.0591
X-0.6976 Y1.0316
X-0.7419 Y1.0021
X-0.785 Y0.9706
X-0.8266 Y0.9373
X-0.8666 Y0.9022
X-0.9051 Y0.8653
X-0.942 Y0.8268
X-0.9771 Y0.7868
X-1.0105 Y0.7452
X-1.0421 Y0.7023
X-1.0717 Y0.658
X-1.0993 Y0.6124
X-1.125 Y0.5657
X-1.1486 Y0.5179
X-1.1701 Y0.4692
X-1.1895 Y0.4196
X-1.2068 Y0.3692
X-1.2218 Y0.318
X-1.2346 Y0.2663
X-1.2451 Y0.214
X-1.2534 Y0.1614
X-1.2594 Y0.1084
X-1.2631 Y0.0553
X-1.2646 Y0.002
X-1.2637 Y-0.0513
X-1.2604 Y-0.1045
X-1.2549 Y-0.1575
X-1.2472 Y-0.2102
X-1.2372 Y-0.2625
X-1.2249 Y-0.3144
X-1.2105 Y-0.3657
X-1.1938 Y-0.4163
X-1.1749 Y-0.4661
X-1.1539 Y-0.5151
X-1.1308 Y-0.5632
X-1.1058 Y-0.6102
X-1.0787 Y-0.6561
X-1.0497 Y-0.7008
X-1.0187 Y-0.7442
X-0.9859 Y-0.7862
X-0.9514 Y-0.8268
X-0.9151 Y-0.8658
X-0.8773 Y-0.9033
X-0.8379 Y-0.9392
X-0.7969 Y-0.9733
X-0.7545 Y-1.0056
X-0.7108 Y-1.036
X-0.6658 Y-1.0646
X-0.6196 Y-1.0912
X-0.5724 Y-1.1158
X-0.5241 Y-1.1384
X-0.4749 Y-1.1589
X-0.4248 Y-1.1772
X-0.374 Y-1.1933
X-0.3226 Y-1.2073
X-0.2706 Y-1.2191
X-0.2182 Y-1.2286
X-0.1654 Y-1.2359
X-0.1124 Y-1.2409
X-0.0591 Y-1.2436
X-0.0059 Y-1.244
X0.0474 Y-1.2422
X0.1005 Y-1.2381
X0.1534 Y-1.2317
X0.206 Y-1.2231
X0.2582 Y-1.2123
X0.3099 Y-1.1992
X0.3609 Y-1.184
X0.4113 Y-1.1666
X0.4609 Y-1.1472
X0.5097 Y-1.1257
X0.5576 Y-1.1023
X0.6044 Y-1.0768
X0.6501 Y-1.0495
X0.6947 Y-1.0202
X0.7381 Y-0.9892
X0.7801 Y-0.9565
X0.8209 Y-0.9222
X0.8602 Y-0.8863
X0.8981 Y-0.8488
X0.9344 Y-0.8098
X0.9691 Y-0.7693
X1.0022 Y-0.7275
X1.0336 Y-0.6845
X1.0633 Y-0.6403
X1.0913 Y-0.5949
X1.1174 Y-0.5484
X1.1416 Y-0.501
X1.1639 Y-0.4526
X1.1843 Y-0.4033
X1.2027 Y-0.3533
X1.2191 Y-0.3026
X1.2335 Y-0.2513
X1.2458 Y-0.1994
X1.256 Y-0.1471
X1.2641 Y-0.0945
X1.2701 Y-0.0415
X1.2739 Y0.0117
X1.2756 Y0.0649
X1.2752 Y0.1182
X1.2727 Y0.1714
X1.2679 Y0.2245
X1.261 Y0.2774
X1.2519 Y0.3299
X1.2408 Y0.382
X1.2275 Y0.4336
X1.2122 Y0.4846
X1.1949 Y0.535
X1.1755 Y0.5847
X1.154 Y0.6335
X1.1306 Y0.6813
X1.1053 Y0.7282
X1.0781 Y0.774
X1.0491 Y0.8188
X1.0183 Y0.8623
X0.9858 Y0.9045
X0.9516 Y0.9453
X0.9157 Y0.9847
X0.8783 Y1.0227
X0.8394 Y1.0591
X0.799 Y1.0939
X0.7573 Y1.1271
X0.7144 Y1.1586
X0.6701 Y1.1883
X0.6247 Y1.2163
X0.5782 Y1.2423
X0.5308 Y1.2665
X0.4824 Y1.2888
X0.4331 Y1.3092
X0.3831 Y1.3276
X0.3324 Y1.344
X0.2811 Y1.3584
X0.2292 Y1.3707
X0.1769 Y1.3809
X0.1243 Y1.3891
X0.0713 Y1.3953
X0.0182 Y1.3994
X-0.035 Y1.4014
X-0.0883 Y1.4012
X-0.1416 Y1.399
X-0.1947 Y1.3947
X-0.2476 Y1.3883
X-0.3002 Y1.3799
X-0.3525 Y1.3695
X-0.4043 Y1.3571
X-0.4556 Y1.3427
X-0.5063 Y1.3262
X-0.5563 Y1.3078
X-0.6056 Y1.2875
X-0.654 Y1.2653
X-0.7016 Y1.2413
X-0.7483 Y1.2155
X-0.7939 Y1.188
X-0.8384 Y1.1587
X-0.8817 Y1.1277
X-0.9238 Y1.095
X-0.9647 Y1.0608
X-1.0042 Y1.025
X-1.0424 Y0.9878
X-1.0791 Y0.9492
X-1.1143 Y0.9092
X-1.148 Y0.8679
X-1.18 Y0.8253
X-1.2104 Y0.7816
X-1.2392 Y0.7367
X-1.2662 Y0.6908
X-1.2915 Y0.6439
X-1.3151 Y0.5961
X-1.3368 Y0.5474
X-1.3566 Y0.4979
X-1.3745 Y0.4477
X-1.3905 Y0.3969
X-1.4046 Y0.3455
X-1.4168 Y0.2936
X-1.4271 Y0.2413
X-1.4353 Y0.1887
X-1.4416 Y0.1358
X-1.4458 Y0.0826
X-1.4481 Y0.0294
X-1.4483 Y-0.0239
X-1.4465 Y-0.0772
X-1.4428 Y-0.1303
X-1.4371 Y-0.1833
X-1.4294 Y-0.236
X-1.4197 Y-0.2884
X-1.4081 Y-0.3404
X-1.3944 Y-0.392
X-1.3789 Y-0.4429
X-1.3615 Y-0.4933
X-1.3422 Y-0.543
X-1.3212 Y-0.5919
X-1.2982 Y-0.64
X-1.2735 Y-0.6872
X-1.247 Y-0.7335
X-1.2188 Y-0.7787
X-1.1889 Y-0.8228
X-1.1574 Y-0.8658
X-1.1244 Y-0.9076
X-1.0898 Y-0.9482
X-1.0537 Y-0.9874
X-1.0161 Y-1.0252
X-0.9772 Y-1.0616
X-0.9369 Y-1.0965
X-0.8954 Y-1.1298
X-0.8526 Y-1.1617
X-0.8087 Y-1.1919
X-0.7638 Y-1.2205
X-0.7177 Y-1.2473
X-0.6707 Y-1.2724
X-0.6228 Y-1.2957
X-0.574 Y-1.3172
X-0.5245 Y-1.3369
X-0.4743 Y-1.3547
X-0.4234 Y-1.3707
X-0.372 Y-1.3847
X-0.3201 Y-1.3968
X-0.2678 Y-1.4069
X-0.2151 Y-1.4151
X-0.1622 Y-1.4213
X-0.1091 Y-1.4255
X-0.0558 Y-1.4278
X-0.0025 Y-1.4281
X0.0507 Y-1.4264
X0.1039 Y-1.4227
X0.1569 Y-1.417
X0.2096 Y-1.4093
X0.262 Y-1.3997
X0.3141 Y-1.3882
X0.3656 Y-1.3748
X0.4167 Y-1.3596
X0.4672 Y-1.3424
X0.517 Y-1.3235
X0.566 Y-1.3027
X0.6143 Y-1.2801
X0.6617 Y-1.2558
X0.7083 Y-1.2298
X0.7538 Y-1.2022
X0.7984 Y-1.173
X0.8419 Y-1.1422
X0.8843 Y-1.1099
X0.9255 Y-1.0761
X0.9654 Y-1.0408
X1.0041 Y-1.0042
X1.0415 Y-0.9662
X1.0776 Y-0.9269
X1.1122 Y-0.8865
X1.1455 Y-0.8448
X1.1772 Y-0.802
X1.2074 Y-0.7581
X1.236 Y-0.7131
X1.2631 Y-0.6672
X1.2885 Y-0.6204
X1.3123 Y-0.5727
X1.3345 Y-0.5243
X1.3549 Y-0.475
X1.3736 Y-0.4251
X1.3905 Y-0.3746
X1.4056 Y-0.3235
X1.4189 Y-0.2719
X1.4304 Y-0.2198
X1.4401 Y-0.1674
X1.4479 Y-0.1147
X1.4539 Y-0.0618
X1.458 Y-0.0086
X1.4602 Y0.0446
X1.4605 Y0.0979
X1.4589 Y0.1512
X1.4554 Y0.2043
X1.4501 Y0.2574
X1.4429 Y0.3102
X1.4338 Y0.3627
X1.4229 Y0.4148
X1.4101 Y0.4666
X1.3955 Y0.5178
X1.379 Y0.5685
X1.3608 Y0.6186
X1.3408 Y0.668
X1.319 Y0.7166
X1.2956 Y0.7645
X1.2705 Y0.8115
X1.2437 Y0.8576
X1.2153 Y0.9026
X1.1853 Y0.9467
X1.1537 Y0.9896
X1.1206 Y1.0314
X1.0862 Y1.072
X1.0503 Y1.1114
X1.013 Y1.1495
X0.9744 Y1.1862
X0.9345 Y1.2216
X0.8933 Y1.2555
X0.8511 Y1.2879
X0.8077 Y1.3188
X0.7632 Y1.3482
X0.7178 Y1.376
X0.6714 Y1.4022
X0.6241 Y1.4268
X0.5759 Y1.4497
X0.527 Y1.4708
X0.4774 Y1.4903
X0.4271 Y1.508
X0.3763 Y1.5239
X0.3249 Y1.5381
X0.2731 Y1.5506
X0.2209 Y1.5611
X0.1683 Y1.5699
X0.1155 Y1.5768
X0.0624 Y1.5819
X0.0092 Y1.5852
X-0.0441 Y1.5866
X-0.0973 Y1.5862
X-0.1506 Y1.584
X-0.2037 Y1.5799
X-0.2567 Y1.5741
X-0.3094 Y1.5663
X-0.3619 Y1.5568
X-0.4139 Y1.5455
X-0.4656 Y1.5325
X-0.5168 Y1.5177
X-0.5675 Y1.5011
X-0.6175 Y1.4829
X-0.6669 Y1.4629
X-0.7157 Y1.4413
X-0.7636 Y1.418
X-0.8107 Y1.3932
X-0.857 Y1.3667
X-0.9023 Y1.3387
X-0.9467 Y1.3092
X-0.9901 Y1.2782
X-1.0324 Y1.2458
X-1.0735 Y1.2119
X-1.1135 Y1.1767
X-1.1523 Y1.1402
X-1.1898 Y1.1023
X-1.2261 Y1.0633
X-1.261 Y1.023
X-1.2946 Y0.9816
X-1.3267 Y0.9392
X-1.3575 Y0.8956
X-1.3867 Y0.851
X-1.4144 Y0.8055
X-1.4406 Y0.7591
X-1.4652 Y0.7119
X-1.4882 Y0.6638
X-1.5097 Y0.615
X-1.5295 Y0.5655
X-1.5476 Y0.5154
X-1.5641 Y0.4647
X-1.5788 Y0.4135
X-1.5918 Y0.3618
X-1.6031 Y0.3098
X-1.6127 Y0.2573
X-1.6205 Y0.2046
X-1.6266 Y0.1517
X-1.6309 Y0.0986
X-1.6334 Y0.0453
X-1.6342 Y-0.008
X-1.6332 Y-0.0612
X-1.6304 Y-0.1145
X-1.6258 Y-0.1676
X-1.6195 Y-0.2205
X-1.6115 Y-0.2732
X-1.6017 Y-0.3255
X-1.5902 Y-0.3776
X-1.5769 Y-0.4292
X-1.562 Y-0.4803
X-1.5453 Y-0.531
X-1.527 Y-0.581
X-1.507 Y-0.6304
X-1.4855 Y-0.6791
X-1.4623 Y-0.7271
X-1.4376 Y-0.7743
X-1.4113 Y-0.8207
X-1.3834 Y-0.8661
X-1.3541 Y-0.9106
X-1.3233 Y-0.9541
X-1.2911 Y-0.9966
X-1.2576 Y-1.038
X-1.2226 Y-1.0782
X-1.1864 Y-1.1173
X-1.1489 Y-1.1552
X-1.1102 Y-1.1918
X-1.0702 Y-1.2271
X-1.0292 Y-1.261
X-0.987 Y-1.2936
X-0.9438 Y-1.3248
X-0.8995 Y-1.3545
X-0.8543 Y-1.3828
X-0.8083 Y-1.4095
X-0.7613 Y-1.4347
X-0.7135 Y-1.4584
X-0.665 Y-1.4804
X-0.6158 Y-1.5008
X-0.5659 Y-1.5196
X-0.5155 Y-1.5367
X-0.4645 Y-1.5522
X-0.413 Y-1.5659
X-0.3611 Y-1.578
X-0.3088 Y-1.5884
X-0.2562 Y-1.5969
X-0.2458 Y-1.5983
X-0.2422 Y-1.5987
X-0.2386 Y-1.599
X-0.235 Y-1.5992
X-0.1273 Y-1.6031
X-0.1124 Y-1.6034
X-0.0824 Y-1.6041
X-0.0375 Y-1.604
X0.0225 Y-1.6039
X0.0757 Y-1.6011
X0.1289 Y-1.5992
X0.1821 Y-1.5951
X0.235 Y-1.5889
X0.2877 Y-1.5806
X0.3399 Y-1.5703
X0.3918 Y-1.5582
X0.4433 Y-1.5442
X0.4942 Y-1.5285
X0.5445 Y-1.5111
X0.5943 Y-1.4919
X0.6434 Y-1.4712
X0.6918 Y-1.4489
X0.7394 Y-1.425
X0.7862 Y-1.3995
X0.8322 Y-1.3725
X0.8772 Y-1.3441
X0.9214 Y-1.3142
X0.9646 Y-1.283
X1.0067 Y-1.2504
X1.0478 Y-1.2165
X1.0879 Y-1.1814
X1.1268 Y-1.1449
X1.1645 Y-1.1073
X1.2011 Y-1.0685
X1.2364 Y-1.0286
X1.2704 Y-0.9876
X1.3031 Y-0.9455
X1.3345 Y-0.9025
X1.3646 Y-0.8585
X1.3933 Y-0.8136
X1.4206 Y-0.7678
X1.4464 Y-0.7212
X1.4707 Y-0.6738
X1.4936 Y-0.6256
X1.5149 Y-0.5768
X1.5347 Y-0.5273
X1.553 Y-0.4772
X1.5697 Y-0.4266
X1.5848 Y-0.3755
X1.5983 Y-0.324
X1.6102 Y-0.272
X1.6204 Y-0.2197
X1.629 Y-0.1671
X1.6359 Y-0.1143
X1.6412 Y-0.0612
X1.6447 Y-0.0081
X1.6467 Y0.0452
X1.647 Y0.0985
X1.6456 Y0.1517
X1.6425 Y0.2049
X1.6377 Y0.258
X1.6312 Y0.3109
X1.6231 Y0.3636
X1.6133 Y0.416
X1.6019 Y0.468
X1.5888 Y0.5197
X1.5741 Y0.5709
X1.5579 Y0.6217
X1.54 Y0.6719
X1.5205 Y0.7215
X1.4994 Y0.7704
X1.4769 Y0.8187
X1.4528 Y0.8662
X1.4272 Y0.913
X1.4002 Y0.9589
X1.3717 Y1.004
X1.3418 Y1.0481
X1.3106 Y1.0913
X1.278 Y1.1334
X1.244 Y1.1745
X1.2088 Y1.2145
X1.1724 Y1.2534
X1.1347 Y1.2911
X1.0959 Y1.3276
X1.056 Y1.3629
X1.015 Y1.397
X0.9729 Y1.4297
X0.9298 Y1.461
X0.8858 Y1.491
X0.8408 Y1.5196
X0.8111 Y1.5373
X0.797 Y1.5444
X0.782 Y1.5495
X0.7665 Y1.5526
X0.6517 Y1.5674
X0.6217 Y1.571
X0.6068 Y1.5727
X0.412 Y1.5901
X0.397 Y1.5911
X0.3671 Y1.5927
X0.2172 Y1.6003
X0.2023 Y1.601
X0.1723 Y1.602
X0.1573 Y1.6024
X-0.0375 Y1.6048
X-0.0524 Y1.6045
X-0.2023 Y1.6006
X-0.2322 Y1.5998
X-0.2472 Y1.5993
X-0.2772 Y1.5979
X-0.2921 Y1.5971
X-0.442 Y1.5874
X-0.4869 Y1.5843
X-0.5019 Y1.5828
X-0.6817 Y1.5641
X-0.6967 Y1.5624
X-0.7266 Y1.5583
X-0.7416 Y1.5563
X-0.7566 Y1.5541
X-0.8089 Y1.5439
X-0.8348 Y1.5376
X-0.8859 Y1.5229
X-0.9358 Y1.5042
X-0.9843 Y1.4821
X-1.0314 Y1.4571
X-1.0771 Y1.4298
X-1.1216 Y1.4004
X-1.1647 Y1.369
X-1.2065 Y1.336
X-1.247 Y1.3014
X-1.2863 Y1.2654
X-1.3244 Y1.2281
X-1.3611 Y1.1895
X-1.3966 Y1.1498
X-1.4308 Y1.1089
X-1.4636 Y1.0669
X-1.4951 Y1.0239
X-1.5253 Y0.98
X-1.5541 Y0.9351
X-1.5815 Y0.8894
X-1.6076 Y0.843
X-1.6322 Y0.7957
X-1.6554 Y0.7477
X-1.6772 Y0.6991
X-1.6974 Y0.6498
X-1.7162 Y0.5999
X-1.7334 Y0.5495
X-1.7492 Y0.4986
X-1.7634 Y0.4472
X-1.7761 Y0.3954
X-1.7872 Y0.3433
X-1.7968 Y0.2909
X-1.8049 Y0.2382
X-1.8113 Y0.1853
X-1.8161 Y0.1323
X-1.8194 Y0.0791
X-1.8211 Y0.0258
Y-0.0275
X-1.8197 Y-0.0808
X-1.8166 Y-0.134
X-1.812 Y-0.1871
X-1.8058 Y-0.24
X-1.798 Y-0.2927
X-1.7887 Y-0.3452
X-1.7777 Y-0.3973
X-1.7653 Y-0.4491
X-1.7513 Y-0.5006
X-1.7357 Y-0.5515
X-1.7187 Y-0.602
X-1.7002 Y-0.652
X-1.6803 Y-0.7014
X-1.6589 Y-0.7502
X-1.636 Y-0.7984
X-1.6117 Y-0.8458
X-1.586 Y-0.8925
X-1.5589 Y-0.9384
X-1.5305 Y-0.9835
X-1.5008 Y-1.0277
X-1.4697 Y-1.071
X-1.4374 Y-1.1134
X-1.4039 Y-1.1548
X-1.3692 Y-1.1953
X-1.3333 Y-1.2346
X-1.2962 Y-1.2729
X-1.258 Y-1.31
X-1.2187 Y-1.346
X-1.1783 Y-1.3808
X-1.137 Y-1.4144
X-1.0946 Y-1.4468
X-1.0514 Y-1.478
X-1.0135 Y-1.5036
X-0.9991 Y-1.5119
X-0.9838 Y-1.5181
X-0.9677 Y-1.522
X-0.9364 Y-1.5271
X-0.7865 Y-1.5503
X-0.7716 Y-1.5525
X-0.7416 Y-1.5565
X-0.7266 Y-1.5584
X-0.5768 Y-1.5754
X-0.5618 Y-1.5771
X-0.5319 Y-1.5802
X-0.5169 Y-1.5814
X-0.3371 Y-1.5948
X-0.3221 Y-1.5958
X-0.2921 Y-1.5971
X-0.2772 Y-1.5977
X-0.235 Y-1.5992
X-0.1346 Y-1.601
X0.0225 Y-1.6039
X0.1124 Y-1.6036
X0.1273 Y-1.6034
X0.1723 Y-1.6017
X0.3221 Y-1.5956
X0.3393 Y-1.5946
X0.3671 Y-1.5929
X0.5319 Y-1.5798
X0.5618 Y-1.5773
X0.5768 Y-1.5758
X0.7266 Y-1.558
X0.7792 Y-1.5491
X0.8051 Y-1.5432
X0.8544 Y-1.5295
X0.9045 Y-1.5112
X0.9531 Y-1.4895
X1.0004 Y-1.4648
X1.0463 Y-1.4377
X1.0908 Y-1.4085
X1.1341 Y-1.3775
X1.1762 Y-1.3447
X1.217 Y-1.3105
X1.2566 Y-1.2748
X1.295 Y-1.2378
X1.3322 Y-1.1997
X1.3682 Y-1.1604
X1.4029 Y-1.1199
X1.4364 Y-1.0785
X1.4687 Y-1.0361
X1.4997 Y-0.9928
X1.5295 Y-0.9486
X1.5579 Y-0.9035
X1.5851 Y-0.8577
X1.611 Y-0.8111
X1.6355 Y-0.7638
X1.6587 Y-0.7158
X1.6805 Y-0.6672
X1.7009 Y-0.6179
X1.7199 Y-0.5681
X1.7375 Y-0.5178
X1.7537 Y-0.4671
X1.7684 Y-0.4159
X1.7817 Y-0.3642
X1.7936 Y-0.3123
X1.8039 Y-0.26
X1.8128 Y-0.2075
X1.8202 Y-0.1547
X1.8261 Y-0.1017
X1.8304 Y-0.0486
X1.8333 Y0.0046
X1.8347 Y0.0579
X1.8345 Y0.1112
X1.8329 Y0.1644
X1.8298 Y0.2176
X1.8251 Y0.2707
X1.819 Y0.3237
X1.8113 Y0.3764
X1.8021 Y0.4289
X1.7914 Y0.4811
X1.7793 Y0.533
X1.7657 Y0.5845
X1.7506 Y0.6356
X1.7341 Y0.6863
X1.7162 Y0.7365
X1.6968 Y0.7861
X1.6761 Y0.8352
X1.6539 Y0.8837
X1.6304 Y0.9315
X1.6055 Y0.9786
X1.5793 Y1.025
X1.5518 Y1.0707
X1.523 Y1.1155
X1.4929 Y1.1595
X1.4617 Y1.2027
X1.4292 Y1.2449
X1.3955 Y1.2862
X1.3606 Y1.3265
X1.3246 Y1.3658
X1.2876 Y1.4041
X1.2494 Y1.4413
X1.2399 Y1.4501
X1.2277 Y1.4599
X1.2144 Y1.4679
X1.2001 Y1.4742
X1.1851 Y1.4784
X1.0613 Y1.5048
X1.0562 Y1.5058
X1.0263 Y1.5112
X1.0113 Y1.5139
X0.8615 Y1.5393
X0.8465 Y1.5417
X0.8165 Y1.5461
X0.7893 Y1.5497
X0.7665 Y1.5526
G3 X0.7619 Y1.5528 I-0.0047 J-0.0498
G1 X0.6594 Y1.5529
X0.6538 Y1.553 Z-0.7697
X0.6483 Z-0.7687
X0.6429 Z-0.7672
X0.6377 Z-0.765
X0.6328 Z-0.7623
X0.6283 Z-0.7591
X0.6241 Z-0.7554
X0.6203 Z-0.7512
X0.6171 Z-0.7466
X0.6144 Z-0.7417
X0.6122 Z-0.7365
X0.6107 Z-0.7311
X0.6097 Z-0.7256
X0.6094 Z-0.72
G0 Z0.2
X0.5696 Y-1.555
Z-0.72
G1 Z-0.77 F100
X0.7214 Y-1.5582
G3 X0.7266 Y-1.558 I0.0011 J0.05
G1 X0.7716 Y-1.5527
X0.7918 Y-1.5497
X0.8165 Y-1.5459
X0.9663 Y-1.522
X0.9813 Y-1.5196
X1.0113 Y-1.514
X1.0263 Y-1.5111
X1.1461 Y-1.487
X1.1948 Y-1.4745
X1.2315 Y-1.462
X1.2729 Y-1.444
X1.3198 Y-1.419
X1.3646 Y-1.3902
X1.4074 Y-1.3585
X1.4483 Y-1.3243
X1.4875 Y-1.2881
X1.5249 Y-1.2502
X1.5608 Y-1.2109
X1.5953 Y-1.1702
X1.6282 Y-1.1283
X1.6599 Y-1.0854
X1.6901 Y-1.0416
X1.7191 Y-0.9968
X1.7467 Y-0.9513
X1.7731 Y-0.905
X1.7982 Y-0.8579
X1.8219 Y-0.8102
X1.8444 Y-0.7619
X1.8655 Y-0.713
X1.8854 Y-0.6635
X1.9039 Y-0.6136
X1.9211 Y-0.5631
X1.9371 Y-0.5123
X1.9517 Y-0.461
X1.965 Y-0.4094
X1.977 Y-0.3575
X1.9876 Y-0.3053
X1.9968 Y-0.2528
X2.0047 Y-0.2001
X2.0112 Y-0.1472
X2.0163 Y-0.0942
X2.0201 Y-0.041
X2.0225 Y0.0122
X2.0236 Y0.0655
X2.0233 Y0.1188
X2.0216 Y0.1721
X2.0186 Y0.2253
X2.0141 Y0.2784
X2.0083 Y0.3314
X2.0011 Y0.3842
X1.9926 Y0.4368
X1.9827 Y0.4891
X1.9714 Y0.5412
X1.9588 Y0.593
X1.9449 Y0.6445
X1.9297 Y0.6955
X1.9132 Y0.7462
X1.8954 Y0.7964
X1.8762 Y0.8462
X1.8558 Y0.8954
X1.8341 Y0.9441
X1.8112 Y0.9922
X1.787 Y1.0396
X1.7616 Y1.0865
X1.735 Y1.1327
X1.7072 Y1.1782
X1.6783 Y1.2229
X1.6483 Y1.2669
X1.6171 Y1.3101
X1.5882 Y1.3481
X1.5761 Y1.3616
X1.562 Y1.3731
X1.5464 Y1.3823
X1.5295 Y1.389
X1.4757 Y1.4054
X1.4607 Y1.4098
X1.4308 Y1.4181
X1.266 Y1.4606
X1.251 Y1.4641
X1.221 Y1.4708
X1.1851 Y1.4784
G3 X1.1764 Y1.4792 I-0.0087 J-0.0492
G1 X1.0781 Y1.4791
X1.0725 Z-0.7697
X1.0669 Z-0.7687
X1.0615 Z-0.7672
X1.0564 Z-0.765
X1.0514 Z-0.7623
X1.0469 Z-0.7591
X1.0427 Z-0.7554
X1.039 Z-0.7512
X1.0357 Z-0.7466
X1.033 Z-0.7417
X1.0309 Z-0.7365
X1.0293 Z-0.7311
X1.0284 Z-0.7256
X1.0281 Z-0.72
G0 Z0.2
X0.9393 Y-1.4932
Z-0.67
G1 Z-0.72 F100
X0.9397 Z-0.7256
X0.9406 Y-1.4933 Z-0.7311
X0.9421 Y-1.4934 Z-0.7365
X0.9443 Y-1.4935 Z-0.7417
X0.947 Y-1.4936 Z-0.7466
X0.9502 Y-1.4938 Z-0.7512
X0.954 Y-1.494 Z-0.7554
X0.9581 Y-1.4942 Z-0.7591
X0.9627 Y-1.4944 Z-0.7623
X0.9676 Y-1.4947 Z-0.765
X0.9728 Y-1.495 Z-0.7672
X0.9782 Y-1.4952 Z-0.7687
X0.9837 Y-1.4955 Z-0.7697
X0.9893 Y-1.4958 Z-0.77
G3 X1.1461 Y-1.487 I0.0376 J0.7282
G1 X1.1761 Y-1.4809
X1.191 Y-1.4777
X1.221 Y-1.471
X1.251 Y-1.4636
X1.3858 Y-1.4304
X1.4158 Y-1.4222
X1.4308 Y-1.418
X1.5057 Y-1.396
X1.5436 Y-1.3828
X1.575 Y-1.3689
X1.6107 Y-1.3496
X1.6507 Y-1.3235
X1.6929 Y-1.291
X1.7325 Y-1.2554
X1.7698 Y-1.2173
X1.805 Y-1.1772
X1.8382 Y-1.1356
X1.8696 Y-1.0925
X1.8994 Y-1.0483
X1.9275 Y-1.0031
X1.9542 Y-0.9569
X1.9794 Y-0.91
X2.0032 Y-0.8623
X2.0257 Y-0.814
X2.0468 Y-0.765
X2.0667 Y-0.7156
X2.0853 Y-0.6656
X2.1026 Y-0.6152
X2.1186 Y-0.5644
X2.1335 Y-0.5132
X2.147 Y-0.4617
X2.1593 Y-0.4099
X2.1704 Y-0.3577
X2.1801 Y-0.3053
X2.1886 Y-0.2527
X2.1959 Y-0.1999
X2.2019 Y-0.147
X2.2066 Y-0.0939
X2.2101 Y-0.0407
X2.2123 Y0.0125
X2.2133 Y0.0658
X2.213 Y0.1191
X2.2115 Y0.1724
X2.2087 Y0.2256
X2.2046 Y0.2787
X2.1993 Y0.3318
X2.1927 Y0.3846
X2.1849 Y0.4373
X2.1758 Y0.4899
X2.1655 Y0.5421
X2.1539 Y0.5942
X2.1411 Y0.6459
X2.1272 Y0.6973
X2.112 Y0.7484
X2.0956 Y0.7991
X2.078 Y0.8494
X2.0592 Y0.8993
X2.0393 Y0.9487
X2.0181 Y0.9976
X1.9958 Y1.046
X1.9724 Y1.0939
X1.9479 Y1.1412
X1.9222 Y1.1879
X1.8955 Y1.234
X1.8939 Y1.2365
X1.8832 Y1.2514
X1.8702 Y1.2643
X1.8554 Y1.2751
X1.8391 Y1.2834
X1.8353 Y1.285
X1.8053 Y1.2962
X1.6705 Y1.3444
X1.6393 Y1.355
X1.6255 Y1.3596
X1.5295 Y1.389
G3 X1.4689 Y1.3255 I-0.013 J-0.0483
G1 X1.4707 Y1.3217 Z-0.7698
X1.4724 Y1.3179 Z-0.7693
X1.4742 Y1.3141 Z-0.7684
X1.4769 Y1.3108 Z-0.7671
X1.4795 Y1.3076 Z-0.7654
X1.4821 Y1.3045 Z-0.7633
X1.4857 Y1.3018 Z-0.7603
X1.4891 Y1.2993 Z-0.7569
X1.4921 Y1.297 Z-0.753
X1.4948 Y1.2959 Z-0.7493
X1.4972 Y1.2949 Z-0.7453
X1.4992 Y1.2941 Z-0.7412
X1.5009 Y1.2934 Z-0.7368
X1.5022 Y1.2929 Z-0.7323
X1.503 Y1.2925 Z-0.7276
X1.5035 Y1.2924 Z-0.7238
X1.5036 Z-0.72
G0 Z0.2
X1.3002 Y-1.4201
Z-0.67
G1 Z-0.72 F100
X1.3005 Z-0.7256
X1.3015 Z-0.7311
X1.303 Y-1.42 Z-0.7365
X1.3052 Y-1.4199 Z-0.7417
X1.3079 Y-1.4198 Z-0.7466
X1.3111 Y-1.4197 Z-0.7512
X1.3149 Y-1.4196 Z-0.7554
X1.319 Y-1.4195 Z-0.7591
X1.3236 Y-1.4193 Z-0.7623
X1.3285 Y-1.4191 Z-0.765
X1.3337 Y-1.4189 Z-0.7672
X1.3391 Y-1.4188 Z-0.7687
X1.3446 Y-1.4186 Z-0.7697
X1.3502 Y-1.4184 Z-0.77
G3 X1.5057 Y-1.396 I-0.0254 J0.7287
G1 X1.5806 Y-1.374
X1.5936 Y-1.37
X1.6255 Y-1.3593
X1.6405 Y-1.3542
X1.7454 Y-1.3181
X1.7604 Y-1.3128
X1.7903 Y-1.302
X1.8078 Y-1.2952
X1.8353 Y-1.2842
X1.864 Y-1.271
X1.8934 Y-1.2545
X1.9264 Y-1.2324
X1.9627 Y-1.2034
X2.0017 Y-1.1671
X2.0376 Y-1.1277
X2.071 Y-1.0861
X2.1019 Y-1.0428
X2.1308 Y-0.998
X2.1576 Y-0.9519
X2.1827 Y-0.9049
X2.2062 Y-0.8571
X2.2281 Y-0.8085
X2.2485 Y-0.7593
X2.2676 Y-0.7095
X2.2853 Y-0.6592
X2.3016 Y-0.6085
X2.3168 Y-0.5574
X2.3306 Y-0.506
X2.3433 Y-0.4542
X2.3547 Y-0.4021
X2.3649 Y-0.3498
X2.3739 Y-0.2973
X2.3817 Y-0.2446
X2.3883 Y-0.1917
X2.3937 Y-0.1387
X2.398 Y-0.0856
X2.4011 Y-0.0324
X2.403 Y0.0209
X2.4037 Y0.0742
X2.4033 Y0.1275
X2.4017 Y0.1807
X2.399 Y0.234
X2.3951 Y0.2871
X2.39 Y0.3402
X2.3838 Y0.3931
X2.3764 Y0.4458
X2.3678 Y0.4984
X2.3581 Y0.5508
X2.3472 Y0.603
X2.3353 Y0.655
X2.3222 Y0.7066
X2.308 Y0.758
X2.2926 Y0.809
X2.2762 Y0.8597
X2.2587 Y0.91
X2.24 Y0.96
X2.2203 Y1.0095
X2.1995 Y1.0585
X2.181 Y1.0997
X2.1732 Y1.1141
X2.1635 Y1.1273
X2.1521 Y1.139
X2.1391 Y1.149
X2.1249 Y1.1571
X2.015 Y1.2096
X2.0001 Y1.2166
X1.9913 Y1.2203
X1.8391 Y1.2834
G3 X1.7727 Y1.226 I-0.0175 J-0.0468
G1 X1.7741 Y1.2221 Z-0.7698
X1.7755 Y1.2181 Z-0.7693
X1.7768 Y1.2142 Z-0.7684
X1.7792 Y1.2107 Z-0.7671
X1.7815 Y1.2072 Z-0.7654
X1.7838 Y1.2039 Z-0.7633
X1.7871 Y1.2008 Z-0.7603
X1.7902 Y1.198 Z-0.7569
X1.7931 Y1.1955 Z-0.753
X1.7957 Y1.1941 Z-0.7493
X1.7979 Y1.1929 Z-0.7453
X1.7999 Y1.1919 Z-0.7412
X1.8015 Y1.1911 Z-0.7368
X1.8027 Y1.1904 Z-0.7323
X1.8035 Y1.19 Z-0.7276
X1.8039 Y1.1898 Z-0.7238
X1.804 Z-0.72
G0 Z0.2
X1.633 Y-1.3276
Z-0.67
G1 Z-0.72 F100
X1.6333 Z-0.7256
X1.6343 Y-1.3274 Z-0.7311
X1.6358 Y-1.3272 Z-0.7365
X1.6379 Y-1.327 Z-0.7417
X1.6406 Y-1.3266 Z-0.7466
X1.6438 Y-1.3262 Z-0.7512
X1.6475 Y-1.3257 Z-0.7554
X1.6517 Y-1.3252 Z-0.7591
X1.6562 Y-1.3246 Z-0.7623
X1.6611 Y-1.3239 Z-0.765
X1.6662 Y-1.3233 Z-0.7672
X1.6716 Y-1.3226 Z-0.7687
X1.677 Y-1.3219 Z-0.7697
X1.6826 Y-1.3211 Z-0.77
G3 X1.8353 Y-1.2842 I-0.0943 J0.723
G1 X1.9575 Y-1.2353
X2.015 Y-1.2088
X2.1199 Y-1.1604
X2.152 Y-1.1436
X2.1786 Y-1.1268
X2.2072 Y-1.1054
X2.2388 Y-1.0775
X2.2734 Y-1.0416
X2.3072 Y-1.0004
X2.338 Y-0.9569
X2.3661 Y-0.9116
X2.3918 Y-0.8649
X2.4153 Y-0.8171
X2.437 Y-0.7684
X2.4569 Y-0.719
X2.4751 Y-0.6689
X2.4919 Y-0.6184
X2.5072 Y-0.5673
X2.5211 Y-0.5159
X2.5338 Y-0.4641
X2.5451 Y-0.412
X2.5552 Y-0.3597
X2.5641 Y-0.3072
X2.5719 Y-0.2544
X2.5785 Y-0.2016
X2.5839 Y-0.1485
X2.5882 Y-0.0954
X2.5914 Y-0.0422
X2.5935 Y0.011
X2.5945 Y0.0643
X2.5944 Y0.1176
X2.5932 Y0.1709
X2.5909 Y0.2241
X2.5875 Y0.2773
X2.583 Y0.3304
X2.5774 Y0.3834
X2.5708 Y0.4363
X2.563 Y0.489
X2.5542 Y0.5416
X2.5444 Y0.5939
X2.5335 Y0.6461
X2.5215 Y0.698
X2.5085 Y0.7497
X2.4945 Y0.8011
X2.4794 Y0.8522
X2.4633 Y0.903
X2.451 Y0.9392
X2.4449 Y0.9539
X2.4368 Y0.9675
X2.427 Y0.98
X2.4155 Y0.991
X2.4027 Y1.0004
X2.3297 Y1.0464
X2.3141 Y1.0556
X2.2847 Y1.0722
X2.1785 Y1.1304
X2.1649 Y1.1378
X2.1493 Y1.1454
X2.1249 Y1.1571
G3 X2.0549 Y1.1114 I-0.02 J-0.0458
G1 X2.0548 Y1.0533
X2.0507 Y-1.0556
X2.0506 Y-1.1142
G3 X2.1199 Y-1.1604 I0.05 J-0.0001
G1 X2.1349 Y-1.1526
X2.1649 Y-1.1369
X2.2398 Y-1.0972
X2.2548 Y-1.0892
X2.2847 Y-1.0728
X2.2886 Y-1.0706
X2.4046 Y-1
X2.4114 Y-0.9957
X2.4336 Y-0.9807
X2.4632 Y-0.9586
X2.4895 Y-0.9354
X2.5181 Y-0.9058
X2.5487 Y-0.8685
X2.5791 Y-0.8248
X2.6062 Y-0.7789
X2.6304 Y-0.7314
X2.652 Y-0.6827
X2.6714 Y-0.633
X2.6888 Y-0.5827
X2.7044 Y-0.5317
X2.7183 Y-0.4802
X2.7307 Y-0.4284
X2.7417 Y-0.3763
X2.7513 Y-0.3239
X2.7596 Y-0.2712
X2.7668 Y-0.2184
X2.7727 Y-0.1654
X2.7775 Y-0.1124
X2.7812 Y-0.0592
X2.7837 Y-0.006
X2.7852 Y0.0473
X2.7856 Y0.1006
X2.785 Y0.1539
X2.7832 Y0.2071
X2.7805 Y0.2604
X2.7767 Y0.3135
X2.7719 Y0.3666
X2.766 Y0.4196
X2.7592 Y0.4724
X2.7513 Y0.5251
X2.7425 Y0.5777
X2.7326 Y0.63
X2.7218 Y0.6822
X2.71 Y0.7342
X2.7086 Y0.7398
X2.7029 Y0.757
X2.6947 Y0.7731
X2.684 Y0.7877
X2.6712 Y0.8005
X2.6528 Y0.816
X2.6143 Y0.8482
X2.5805 Y0.8759
X2.5694 Y0.8846
X2.478 Y0.9508
X2.4572 Y0.9657
X2.4495 Y0.9709
X2.4027 Y1.0004
G3 X2.3276 Y0.9564 I-0.0251 J-0.0432
G1 X2.3284 Y0.905
X2.3564 Y-0.8876
X2.3572 Y-0.9391
G3 X2.4336 Y-0.9807 I0.05 J0.0008
G1 X2.4495 Y-0.97
X2.4985 Y-0.9358
X2.5244 Y-0.9177
X2.5394 Y-0.9069
X2.5607 Y-0.8909
X2.5694 Y-0.8843
X2.6539 Y-0.816
X2.6593 Y-0.8116
X2.6717 Y-0.801
X2.7342 Y-0.7423
X2.7636 Y-0.7117
X2.788 Y-0.6819
X2.814 Y-0.6443
X2.8407 Y-0.5982
X2.8638 Y-0.5501
X2.8837 Y-0.5007
X2.9009 Y-0.4502
X2.9157 Y-0.3991
X2.9285 Y-0.3473
X2.9394 Y-0.2952
X2.9487 Y-0.2427
X2.9565 Y-0.19
X2.9628 Y-0.1371
X2.9678 Y-0.084
X2.9716 Y-0.0308
X2.9741 Y0.0224
X2.9755 Y0.0757
X2.9758 Y0.129
X2.975 Y0.1822
X2.9732 Y0.2355
X2.9703 Y0.2887
X2.9664 Y0.3419
X2.9616 Y0.3949
X2.9557 Y0.4479
X2.9547 Y0.4555
X2.952 Y0.4696
X2.9476 Y0.4833
X2.9415 Y0.4964
X2.9339 Y0.5085
X2.9067 Y0.5465
X2.899 Y0.5571
X2.8732 Y0.5914
X2.869 Y0.5968
X2.8089 Y0.6663
X2.7957 Y0.6813
X2.7811 Y0.6962
X2.7042 Y0.7715
X2.6892 Y0.7851
X2.6712 Y0.8005
G3 X2.5901 Y0.7593 I-0.0312 J-0.0391
G1 X2.5919 Y0.7165
X2.6494 Y-0.6622
X2.6513 Y-0.7068
G3 X2.7342 Y-0.7423 I0.05 J0.0021
G1 X2.7513 Y-0.7262
X2.7641 Y-0.7136
X2.7811 Y-0.6962
X2.8091 Y-0.6653
X2.8352 Y-0.6363
X2.8612 Y-0.6064
X2.869 Y-0.5966
X2.9293 Y-0.5166
X2.9391 Y-0.5016
X2.9889 Y-0.4202
X2.9934 Y-0.4118
X3.0038 Y-0.3907
X3.0082 Y-0.3818
X3.0295 Y-0.3369
X3.0338 Y-0.3277
X3.0424 Y-0.3069
X3.048 Y-0.292
X3.0584 Y-0.262
X3.0737 Y-0.2171
X3.0772 Y-0.2021
X3.0903 Y-0.1422
X3.0934 Y-0.1273
X3.097 Y-0.0973
X3.0987 Y-0.0824
X3.1015 Y-0.0524
X3.1026 Y-0.0374
X3.1041 Y-0.0075
X3.104 Y0.0075
X3.0994 Y0.0824
X3.0974 Y0.0973
X3.0926 Y0.1273
X3.0899 Y0.1422
X3.0842 Y0.1722
X3.0771 Y0.2021
X3.0727 Y0.2171
X3.0634 Y0.2471
X3.0585 Y0.262
X3.0482 Y0.292
X3.0423 Y0.3069
X3.0092 Y0.3818
X3.0038 Y0.392
X2.9927 Y0.4118
X2.9841 Y0.4267
X2.9582 Y0.4716
X2.9494 Y0.4866
X2.9439 Y0.4945
X2.9339 Y0.5085
G3 X2.8472 Y0.4949 I-0.0396 J-0.0305
G1 X2.8463 Y0.4908 Z-0.7698
X2.8454 Y0.4867 Z-0.7693
X2.8445 Y0.4827 Z-0.7684
X2.8443 Y0.478 Z-0.767
X2.8448 Y0.4737 Z-0.7651
X2.8453 Y0.4695 Z-0.7629
X2.8458 Y0.4656 Z-0.7602
X2.8471 Y0.4623 Z-0.7573
X2.8483 Y0.4592 Z-0.7541
X2.8494 Y0.4565 Z-0.7506
X2.8504 Y0.454 Z-0.7468
X2.8518 Y0.4519 Z-0.7423
X2.8529 Y0.4502 Z-0.7376
X2.8537 Y0.4489 Z-0.7327
X2.8543 Y0.448 Z-0.7276
X2.8546 Y0.4476 Z-0.7238
X2.8547 Y0.4475 Z-0.72
G0 Z0.2
X-0.5995 Y1.5542
Z-0.72
G1 Z-0.77 F100
X-0.7511 Y1.5544
G3 X-0.7566 Y1.5541 I-0.0001 J-0.05
G1 X-0.8914 Y1.5347
X-0.9064 Y1.5323
X-0.9364 Y1.5273
X-1.0862 Y1.4995
X-1.1012 Y1.4967
X-1.1351 Y1.4898
X-1.1461 Y1.4874
X-1.191 Y1.4771
X-1.2313 Y1.4657
X-1.2688 Y1.4518
X-1.3113 Y1.432
X-1.3577 Y1.4057
X-1.4018 Y1.3758
X-1.4439 Y1.3431
X-1.4841 Y1.3081
X-1.5224 Y1.2711
X-1.5591 Y1.2324
X-1.5941 Y1.1923
X-1.6276 Y1.1508
X-1.6596 Y1.1082
X-1.6901 Y1.0645
X-1.7192 Y1.0199
X-1.747 Y0.9744
X-1.7734 Y0.9281
X-1.7983 Y0.881
X-1.822 Y0.8332
X-1.8442 Y0.7848
X-1.865 Y0.7358
X-1.8845 Y0.6861
X-1.9025 Y0.636
X-1.9192 Y0.5854
X-1.9345 Y0.5343
X-1.9484 Y0.4829
X-1.9609 Y0.4311
X-1.972 Y0.379
X-1.9817 Y0.3266
X-1.9899 Y0.2739
X-1.9968 Y0.2211
X-2.0021 Y0.168
X-2.006 Y0.1149
X-2.0085 Y0.0617
X-2.0096 Y0.0084
X-2.0092 Y-0.0449
X-2.0074 Y-0.0982
X-2.0042 Y-0.1514
X-1.9995 Y-0.2045
X-1.9935 Y-0.2574
X-1.986 Y-0.3102
X-1.977 Y-0.3627
X-1.9667 Y-0.415
X-1.9549 Y-0.467
X-1.9417 Y-0.5186
X-1.9272 Y-0.5699
X-1.9113 Y-0.6207
X-1.8941 Y-0.6712
X-1.8755 Y-0.7211
X-1.8556 Y-0.7705
X-1.8344 Y-0.8194
X-1.8118 Y-0.8677
X-1.7879 Y-0.9153
X-1.7628 Y-0.9623
X-1.7364 Y-1.0086
X-1.7088 Y-1.0542
X-1.68 Y-1.099
X-1.65 Y-1.1431
X-1.6188 Y-1.1863
X-1.5865 Y-1.2287
X-1.5531 Y-1.2702
X-1.5185 Y-1.3108
X-1.4829 Y-1.3504
X-1.4462 Y-1.389
X-1.4337 Y-1.4015
X-1.4218 Y-1.4119
X-1.4087 Y-1.4205
X-1.3945 Y-1.4273
X-1.3795 Y-1.4322
X-1.3409 Y-1.4417
X-1.191 Y-1.4778
X-1.1761 Y-1.4812
X-1.1461 Y-1.4872
X-1.1161 Y-1.4932
X-0.9809 Y-1.5197
X-0.9677 Y-1.522
G3 X-0.9621 Y-1.5224 I0.0067 J0.0496
G1 X-0.8607 Y-1.5246
X-0.8551 Y-1.5247 Z-0.7697
X-0.8496 Y-1.5248 Z-0.7687
X-0.8442 Y-1.5249 Z-0.7672
X-0.839 Y-1.525 Z-0.765
X-0.8341 Y-1.5251 Z-0.7623
X-0.8295 Y-1.5252 Z-0.7591
X-0.8254 Y-1.5253 Z-0.7554
X-0.8216 Y-1.5254 Z-0.7512
X-0.8184 Y-1.5255 Z-0.7466
X-0.8157 Z-0.7417
X-0.8135 Y-1.5256 Z-0.7365
X-0.812 Z-0.7311
X-0.811 Z-0.7256
X-0.8107 Z-0.72
G0 Z0.2
X-1.034 Y1.4781
Z-0.72
G1 Z-0.77 F100
X-1.1816 Y1.478
G3 X-1.191 Y1.4771 J-0.05
G1 X-1.2959 Y1.4531
X-1.3109 Y1.4495
X-1.3409 Y1.4421
X-1.3558 Y1.4381
X-1.5057 Y1.3968
X-1.5206 Y1.3923
X-1.5356 Y1.3877
X-1.5681 Y1.376
X-1.5995 Y1.3618
X-1.6348 Y1.3423
X-1.6741 Y1.3162
X-1.716 Y1.2832
X-1.7552 Y1.2472
X-1.792 Y1.2086
X-1.8266 Y1.168
X-1.8591 Y1.1259
X-1.8898 Y1.0823
X-1.9187 Y1.0375
X-1.946 Y0.9917
X-1.9717 Y0.945
X-1.9959 Y0.8975
X-2.0186 Y0.8493
X-2.0399 Y0.8005
X-2.0598 Y0.7511
X-2.0784 Y0.7011
X-2.0956 Y0.6507
X-2.1115 Y0.5998
X-2.1261 Y0.5486
X-2.1393 Y0.4969
X-2.1511 Y0.445
X-2.1617 Y0.3927
X-2.1709 Y0.3403
X-2.1788 Y0.2876
X-2.1854 Y0.2347
X-2.1907 Y0.1816
X-2.1947 Y0.1285
X-2.1974 Y0.0753
X-2.1987 Y0.022
X-2.1988 Y-0.0313
X-2.1975 Y-0.0846
X-2.1949 Y-0.1378
X-2.1909 Y-0.1909
X-2.1857 Y-0.244
X-2.1792 Y-0.2969
X-2.1713 Y-0.3496
X-2.1622 Y-0.4021
X-2.1518 Y-0.4543
X-2.1401 Y-0.5063
X-2.1272 Y-0.558
X-2.113 Y-0.6094
X-2.0975 Y-0.6604
X-2.0808 Y-0.711
X-2.0629 Y-0.7612
X-2.0437 Y-0.8109
X-2.0233 Y-0.8601
X-2.0016 Y-0.9088
X-1.9789 Y-0.957
X-1.9549 Y-1.0046
X-1.9298 Y-1.0516
X-1.9035 Y-1.098
X-1.8762 Y-1.1437
X-1.8477 Y-1.1887
X-1.8181 Y-1.2331
X-1.7874 Y-1.2766
X-1.7818 Y-1.2842
X-1.7702 Y-1.2976
X-1.7567 Y-1.309
X-1.7417 Y-1.3183
X-1.7254 Y-1.3253
X-1.593 Y-1.37
X-1.5806 Y-1.3742
X-1.5656 Y-1.3789
X-1.3858 Y-1.4306
X-1.3795 Y-1.4322
G3 X-1.3223 Y-1.3656 I0.0104 J0.0489
G1 X-1.3243 Y-1.3619 Z-0.7698
X-1.3262 Y-1.3582 Z-0.7693
X-1.3282 Y-1.3545 Z-0.7684
X-1.3311 Y-1.3514 Z-0.7671
X-1.3339 Y-1.3483 Z-0.7654
X-1.3366 Y-1.3453 Z-0.7633
X-1.3403 Y-1.3428 Z-0.7603
X-1.3438 Y-1.3405 Z-0.7569
X-1.347 Y-1.3384 Z-0.753
X-1.3498 Y-1.3374 Z-0.7493
X-1.3522 Y-1.3366 Z-0.7453
X-1.3543 Y-1.3358 Z-0.7412
X-1.3559 Y-1.3352 Z-0.7368
X-1.3572 Y-1.3348 Z-0.7323
X-1.3581 Y-1.3345 Z-0.7276
X-1.3585 Y-1.3344 Z-0.7238
X-1.3587 Z-0.72
G0 Z0.2
X-1.3304 Y1.4138
Z-0.67
G1 Z-0.72 F100
X-1.3307 Y1.4137 Z-0.7256
X-1.3317 Z-0.7311
X-1.3332 Y1.4136 Z-0.7365
X-1.3354 Y1.4135 Z-0.7417
X-1.3381 Y1.4134 Z-0.7466
X-1.3413 Y1.4133 Z-0.7512
X-1.345 Y1.4131 Z-0.7554
X-1.3492 Y1.4129 Z-0.7591
X-1.3538 Y1.4127 Z-0.7623
X-1.3587 Y1.4125 Z-0.765
X-1.3639 Y1.4123 Z-0.7672
X-1.3693 Y1.412 Z-0.7687
X-1.3748 Y1.4118 Z-0.7697
X-1.3804 Y1.4115 Z-0.77
G3 X-1.5356 Y1.3877 I0.0323 J-0.7284
G1 X-1.5506 Y1.3831
X-1.7004 Y1.3344
X-1.7154 Y1.3294
X-1.7666 Y1.3101
X-1.8353 Y1.2841
X-1.8751 Y1.2667
X-1.9032 Y1.2516
X-1.934 Y1.2318
X-1.9678 Y1.206
X-2.005 Y1.1724
X-2.0416 Y1.1337
X-2.0754 Y1.0924
X-2.1066 Y1.0492
X-2.1354 Y1.0044
X-2.1622 Y0.9583
X-2.1871 Y0.9112
X-2.2102 Y0.8632
X-2.2316 Y0.8144
X-2.2515 Y0.7649
X-2.2699 Y0.7149
X-2.2869 Y0.6644
X-2.3025 Y0.6134
X-2.3167 Y0.5621
X-2.3295 Y0.5104
X-2.3411 Y0.4583
X-2.3514 Y0.406
X-2.3604 Y0.3535
X-2.3681 Y0.3008
X-2.3747 Y0.2479
X-2.38 Y0.1949
X-2.384 Y0.1417
X-2.3869 Y0.0885
X-2.3885 Y0.0353
X-2.3889 Y-0.018
X-2.388 Y-0.0713
X-2.386 Y-0.1246
X-2.3827 Y-0.1778
X-2.3782 Y-0.2309
X-2.3725 Y-0.2838
X-2.3656 Y-0.3367
X-2.3575 Y-0.3894
X-2.3482 Y-0.4418
X-2.3378 Y-0.4941
X-2.3262 Y-0.5461
X-2.3134 Y-0.5978
X-2.2994 Y-0.6493
X-2.2843 Y-0.7004
X-2.268 Y-0.7511
X-2.2506 Y-0.8015
X-2.232 Y-0.8514
X-2.2123 Y-0.901
X-2.1915 Y-0.95
X-2.1697 Y-0.9986
X-2.1467 Y-1.0467
X-2.1226 Y-1.0943
X-2.0975 Y-1.1413
X-2.0936 Y-1.1483
X-2.0833 Y-1.1636
X-2.0707 Y-1.1771
X-2.0562 Y-1.1884
X-2.0401 Y-1.1973
X-1.9701 Y-1.229
X-1.9562 Y-1.2353
X-1.9209 Y-1.2502
X-1.9102 Y-1.2546
X-1.8053 Y-1.2958
X-1.7903 Y-1.3016
X-1.7604 Y-1.3131
X-1.7454 Y-1.3185
X-1.7254 Y-1.3253
G3 X-1.6962 Y-1.2296 I0.0143 J0.0479
X-1.6967 Y-1.2295 I-0.0149 J-0.0477
G1 X-1.7021 Y-1.2279 Z-0.7697
X-1.7074 Y-1.2263 Z-0.7687
X-1.7125 Y-1.2247 Z-0.7672
X-1.7175 Y-1.2232 Z-0.765
X-1.7222 Y-1.2218 Z-0.7623
X-1.7266 Y-1.2205 Z-0.7591
X-1.7306 Y-1.2193 Z-0.7554
X-1.7342 Y-1.2182 Z-0.7512
X-1.7373 Y-1.2173 Z-0.7466
X-1.7399 Y-1.2165 Z-0.7417
X-1.7419 Y-1.2159 Z-0.7365
X-1.7434 Y-1.2155 Z-0.7311
X-1.7443 Y-1.2152 Z-0.7256
X-1.7446 Y-1.2151 Z-0.72
G0 Z0.2
X-1.6322 Y1.3238
Z-0.67
G1 Z-0.72 F100
X-1.6326 Z-0.7256
X-1.6335 Y1.3237 Z-0.7311
X-1.635 Y1.3235 Z-0.7365
X-1.6372 Y1.3233 Z-0.7417
X-1.6399 Y1.323 Z-0.7466
X-1.6431 Y1.3226 Z-0.7512
X-1.6468 Y1.3222 Z-0.7554
X-1.651 Y1.3217 Z-0.7591
X-1.6555 Y1.3212 Z-0.7623
X-1.6604 Y1.3207 Z-0.765
X-1.6655 Y1.3201 Z-0.7672
X-1.6709 Y1.3195 Z-0.7687
X-1.6764 Y1.3189 Z-0.7697
X-1.6819 Y1.3183 Z-0.77
G3 X-1.8353 Y1.2841 I0.0809 J-0.7246
G1 X-1.8652 Y1.2728
X-1.8802 Y1.267
X-1.9102 Y1.2548
X-2.03 Y1.2023
X-2.045 Y1.1956
X-2.075 Y1.1817
X-2.088 Y1.1754
X-2.1475 Y1.1454
X-2.1742 Y1.1303
X-2.2005 Y1.1124
X-2.2296 Y1.089
X-2.2613 Y1.059
X-2.2955 Y1.0212
X-2.3278 Y0.9788
X-2.3572 Y0.9343
X-2.3838 Y0.8882
X-2.408 Y0.8407
X-2.4301 Y0.7922
X-2.4502 Y0.7428
X-2.4685 Y0.6928
X-2.4851 Y0.6422
X-2.5002 Y0.591
X-2.5138 Y0.5395
X-2.526 Y0.4876
X-2.5369 Y0.4355
X-2.5464 Y0.383
X-2.5547 Y0.3304
X-2.5618 Y0.2776
X-2.5677 Y0.2246
X-2.5723 Y0.1715
X-2.5758 Y0.1183
X-2.578 Y0.0651
X-2.5791 Y0.0118
Y-0.0415
X-2.5779 Y-0.0947
X-2.5755 Y-0.148
X-2.572 Y-0.2012
X-2.5674 Y-0.2543
X-2.5617 Y-0.3072
X-2.5549 Y-0.3601
X-2.547 Y-0.4128
X-2.538 Y-0.4653
X-2.5279 Y-0.5176
X-2.5166 Y-0.5697
X-2.5043 Y-0.6216
X-2.4909 Y-0.6732
X-2.4764 Y-0.7244
X-2.4608 Y-0.7754
X-2.4442 Y-0.826
X-2.4265 Y-0.8763
X-2.4078 Y-0.9262
X-2.388 Y-0.9757
X-2.3831 Y-0.9873
X-2.3746 Y-1.0036
X-2.3636 Y-1.0184
X-2.3505 Y-1.0313
X-2.3355 Y-1.042
X-2.2876 Y-1.0706
X-2.2697 Y-1.081
X-2.2548 Y-1.0897
X-2.2398 Y-1.0976
X-2.1349 Y-1.1522
X-2.1191 Y-1.1604
X-2.1049 Y-1.1674
X-2.09 Y-1.1747
X-2.0401 Y-1.1973
G3 X-1.9711 Y-1.1487 I0.019 J0.0462
G1 X-1.9738 Y-1.0921
X-2.0739 Y1.0431
X-2.0766 Y1.1023
G3 X-2.1475 Y1.1454 I-0.0499 J-0.0023
G1 X-2.1948 Y1.1216
X-2.2067 Y1.1155
X-2.2398 Y1.0975
X-2.2548 Y1.089
X-2.3645 Y1.0256
X-2.3746 Y1.0192
X-2.3896 Y1.0094
X-2.4328 Y0.9807
X-2.4655 Y0.9566
X-2.4903 Y0.935
X-2.5174 Y0.9073
X-2.5465 Y0.8723
X-2.5772 Y0.8288
X-2.6043 Y0.7829
X-2.6284 Y0.7353
X-2.6497 Y0.6865
X-2.6687 Y0.6367
X-2.6856 Y0.5862
X-2.7005 Y0.535
X-2.7137 Y0.4834
X-2.7253 Y0.4314
X-2.7354 Y0.3791
X-2.7441 Y0.3265
X-2.7514 Y0.2737
X-2.7574 Y0.2207
X-2.7622 Y0.1677
X-2.7657 Y0.1145
X-2.7681 Y0.0612
X-2.7693 Y0.008
X-2.7695 Y-0.0453
X-2.7685 Y-0.0986
X-2.7664 Y-0.1519
X-2.7632 Y-0.2051
X-2.759 Y-0.2582
X-2.7537 Y-0.3112
X-2.7474 Y-0.3641
X-2.74 Y-0.4169
X-2.7316 Y-0.4695
X-2.7221 Y-0.522
X-2.7116 Y-0.5742
X-2.7 Y-0.6262
X-2.6875 Y-0.678
X-2.6739 Y-0.7296
X-2.6593 Y-0.7808
X-2.6572 Y-0.7878
X-2.6509 Y-0.804
X-2.6422 Y-0.8191
X-2.6314 Y-0.8328
X-2.6186 Y-0.8447
X-2.5694 Y-0.8838
X-2.5394 Y-0.9073
X-2.5244 Y-0.9183
X-2.4117 Y-0.9957
X-2.4046 Y-1.0003
X-2.3896 Y-1.0096
X-2.3355 Y-1.042
G3 X-2.2614 Y-0.9957 I0.0241 J0.0438
G1 X-2.2639 Y-0.9449
X-2.3541 Y0.8872
X-2.3567 Y0.9406
G3 X-2.4328 Y0.9807 I-0.0499 J-0.0025
G1 X-2.4795 Y0.9498
X-2.4945 Y0.9397
X-2.5094 Y0.9291
X-2.5205 Y0.9208
X-2.6184 Y0.846
X-2.6293 Y0.8367
X-2.653 Y0.816
X-2.6593 Y0.8106
X-2.7042 Y0.7707
X-2.7203 Y0.7561
X-2.7342 Y0.7433
X-2.7561 Y0.7209
X-2.7797 Y0.6924
X-2.8048 Y0.6567
X-2.8311 Y0.6122
X-2.8544 Y0.5643
X-2.8743 Y0.5148
X-2.8914 Y0.4644
X-2.9059 Y0.4131
X-2.9183 Y0.3613
X-2.9287 Y0.309
X-2.9374 Y0.2564
X-2.9444 Y0.2036
X-2.9499 Y0.1506
X-2.954 Y0.0975
X-2.9568 Y0.0442
X-2.9584 Y-0.009
X-2.9588 Y-0.0623
X-2.958 Y-0.1156
X-2.9562 Y-0.1689
X-2.9532 Y-0.2221
X-2.9492 Y-0.2752
X-2.9442 Y-0.3283
X-2.9381 Y-0.3812
X-2.931 Y-0.434
X-2.9229 Y-0.4867
X-2.9191 Y-0.5088
X-2.9159 Y-0.5226
X-2.911 Y-0.5359
X-2.9045 Y-0.5485
X-2.8966 Y-0.5602
X-2.869 Y-0.5959
X-2.8606 Y-0.6064
X-2.8357 Y-0.6363
X-2.822 Y-0.6513
X-2.7641 Y-0.7141
X-2.752 Y-0.7262
X-2.7033 Y-0.7711
X-2.6593 Y-0.8118
X-2.6543 Y-0.816
X-2.6186 Y-0.8447
G3 X-2.5389 Y-0.8009 I0.0299 J0.0401
G1 X-2.542 Y-0.7583
X-2.6482 Y0.6627
X-2.6516 Y0.7092
G3 X-2.7342 Y0.7433 I-0.0499 J-0.0037
G1 X-2.7365 Y0.7412
X-2.7492 Y0.7284
X-2.8091 Y0.6661
X-2.8232 Y0.6513
X-2.836 Y0.6363
X-2.899 Y0.5583
X-2.9082 Y0.5465
X-2.9589 Y0.4701
X-2.9757 Y0.4417
X-2.9845 Y0.4267
X-3.0038 Y0.39
X-3.0081 Y0.3818
X-3.0231 Y0.3519
X-3.0299 Y0.3369
X-3.0594 Y0.262
X-3.0638 Y0.2482
X-3.0725 Y0.2171
X-3.0804 Y0.1872
X-3.0844 Y0.1722
X-3.09 Y0.1422
X-3.0927 Y0.1273
X-3.0969 Y0.0973
X-3.0988 Y0.0824
X-3.1016 Y0.0524
X-3.1025 Y0.0374
X-3.103 Y0.0075
Y-0.0075
X-3.1029 Y-0.0374
X-3.1019 Y-0.0524
X-3.0937 Y-0.1273
X-3.0906 Y-0.1422
X-3.0838 Y-0.1722
X-3.0768 Y-0.2021
X-3.0731 Y-0.2171
X-3.0635 Y-0.2471
X-3.0585 Y-0.262
X-3.0477 Y-0.292
X-3.0422 Y-0.3069
X-3.0338 Y-0.329
X-3.0301 Y-0.3369
X-2.9932 Y-0.4118
X-2.9889 Y-0.4203
X-2.9855 Y-0.4267
X-2.9762 Y-0.4417
X-2.9386 Y-0.5016
X-2.9287 Y-0.5166
X-2.9071 Y-0.5465
X-2.8966 Y-0.5602
G3 X-2.8195 Y-0.4964 I0.0385 J0.0319
G1 X-2.8231 Y-0.4921 Z-0.7697
X-2.8266 Y-0.4878 Z-0.7687
X-2.8301 Y-0.4837 Z-0.7672
X-2.8334 Y-0.4797 Z-0.765
X-2.8365 Y-0.4759 Z-0.7623
X-2.8394 Y-0.4724 Z-0.7591
X-2.8421 Y-0.4692 Z-0.7554
X-2.8445 Y-0.4663 Z-0.7512
X-2.8465 Y-0.4638 Z-0.7466
X-2.8483 Y-0.4617 Z-0.7417
X-2.8496 Y-0.4601 Z-0.7365
X-2.8506 Y-0.4589 Z-0.7311
X-2.8512 Y-0.4581 Z-0.7256
X-2.8514 Y-0.4579 Z-0.72
G0 Z0.6

(2D Pocket1)
M8
X0.1229 Y-0.0136
Z0.6
Z0.2
G1 Z0.15 F100
G3 X0.122 Y-0.0129 Z0.1391 I-0.1518 J-0.1826 F33.33
X0.1193 Y-0.0106 Z0.1287 I-0.1509 J-0.1834
X0.1148 Y-0.0071 Z0.1194 I-0.1481 J-0.1856
X0.1086 Y-0.0026 Z0.1115 I-0.1436 J-0.1891
X0.1011 Y0.0025 Z0.1055 I-0.1375 J-0.1936
X0.0924 Y0.0079 Z0.1016 I-0.13 J-0.1988
X0.083 Y0.0133 Z0.1 I-0.1213 J-0.2042
X-0.1407 Y-0.4058 Z0.0739 I-0.1118 J-0.2095
X0.083 Y0.0133 Z0.0479 I0.1118 J0.2095
X-0.1407 Y-0.4058 Z0.0218 I-0.1118 J-0.2095
X0.083 Y0.0133 Z-0.0042 I0.1118 J0.2095
X-0.1407 Y-0.4058 Z-0.0303 I-0.1118 J-0.2095
X0.083 Y0.0133 Z-0.0563 I0.1118 J0.2095
X-0.1407 Y-0.4058 Z-0.0824 I-0.1118 J-0.2095
X0.083 Y0.0133 Z-0.1084 I0.1118 J0.2095
X-0.1407 Y-0.4058 Z-0.1345 I-0.1118 J-0.2095
X0.083 Y0.0133 Z-0.1606 I0.1118 J0.2095
X-0.1407 Y-0.4058 Z-0.1866 I-0.1118 J-0.2095
X0.083 Y0.0133 Z-0.2127 I0.1118 J0.2095
X-0.1407 Y-0.4058 Z-0.2387 I-0.1118 J-0.2095
X0.083 Y0.0133 Z-0.2648 I0.1118 J0.2095
X-0.1407 Y-0.4058 Z-0.2908 I-0.1118 J-0.2095
X0.083 Y0.0133 Z-0.3169 I0.1118 J0.2095
X-0.1407 Y-0.4058 Z-0.3429 I-0.1118 J-0.2095
X0.083 Y0.0133 Z-0.369 I0.1118 J0.2095
X-0.1407 Y-0.4058 Z-0.3951 I-0.1118 J-0.2095
X0.083 Y0.0133 Z-0.4211 I0.1118 J0.2095
X-0.1407 Y-0.4058 Z-0.4472 I-0.1118 J-0.2095
X0.083 Y0.0133 Z-0.4732 I0.1118 J0.2095
X-0.1407 Y-0.4058 Z-0.4993 I-0.1118 J-0.2095
X0.083 Y0.0133 Z-0.5253 I0.1118 J0.2095
X-0.1407 Y-0.4058 Z-0.5514 I-0.1118 J-0.2095
X0.083 Y0.0133 Z-0.5774 I0.1118 J0.2095
X-0.1407 Y-0.4058 Z-0.6035 I-0.1118 J-0.2095
X0.083 Y0.0133 Z-0.6296 I0.1118 J0.2095
X-0.1407 Y-0.4058 Z-0.6556 I-0.1118 J-0.2095
X0.083 Y0.0133 Z-0.6817 I0.1118 J0.2095
X-0.1407 Y-0.4058 Z-0.7077 I-0.1118 J-0.2095
X0.083 Y0.0133 Z-0.7338 I0.1118 J0.2095
X-0.1407 Y-0.4058 Z-0.7598 I-0.1118 J-0.2095
X0.083 Y0.0133 Z-0.7859 I0.1118 J0.2095
X-0.0303 Y0.0412 Z-0.79 I-0.1118 J-0.2095
X-0.3522 Y0.0267 I0.0252 J-4.128 F100
X-0.4592 Y0.0169 I0.6614 J-7.8383
X-0.5659 Y0.004 I0.2316 J-2.3593
X-0.566 Y-0.0044 I0.0006 J-0.0042
X-0.5569 Y-0.0056 I0.0264 J0.1712
G2 X-0.5479 Y-0.0066 I-0.028 J-0.277
G3 X-0.229 Y-0.0359 I0.5103 J3.8046
X0.0911 Y-0.0405 I0.2236 J4.4775
X0.4115 Y-0.0213 I-0.0902 J4.1875
G1 X0.4569 Y-0.0168
G3 X0.4892 Y-0.0129 I-0.0813 J0.8197
G2 X0.5281 Y-0.0087 I0.0862 J-0.6193
G3 X0.567 Y-0.0046 I-0.0473 J0.6235
G2 X0.5674 Y-0.0045 I0.0016 J-0.0115
G3 X0.5678 I-0.0008 J0.0074
X0.5677 Y0.0039 I-0.0007 J0.0042
X0.1083 Y0.0398 I-0.5851 J-4.5374
X-0.0303 Y0.0412 I-0.1135 J-4.1265
G2 X-0.239 Y0.176 I-0.0014 J0.2268
G3 X-0.454 Y0.3003 I-0.193 J-0.0857
X-0.8646 Y0.2364 I0.4307 J-4.1178
X-1.1406 Y0.1678 I0.7402 J-3.5669
X-1.4092 Y0.0743 I0.76 J-2.6164
X-1.4869 Y0.0416 I1.4689 J-3.6027
X-1.5633 Y0.0059 I0.5849 J-1.3502
X-1.5634 Y-0.0062 I0.003 J-0.0061
X-1.4967 Y-0.0375 I0.4241 J0.8144
G1 X-1.4376 Y-0.0625
G3 X-1.0187 Y-0.2017 I1.0859 J2.5691
X-0.5851 Y-0.2839 I0.9766 J3.9652
X0.7668 Y-0.2554 I0.5843 J4.356
X1.0543 Y-0.1919 I-0.6779 J3.7527
X1.3351 Y-0.1032 I-0.7443 J2.8443
X1.4514 Y-0.0567 I-0.8969 J2.4111
G1 X1.5063 Y-0.033
G3 X1.5555 Y-0.0103 I-0.4017 J0.9338
G2 X1.5599 Y-0.0082 I0.1009 J-0.2038
G3 X1.5642 Y-0.006 I-0.042 J0.0897
X1.564 Y0.006 I-0.0031 J0.0059
X1.0349 Y0.1969 I-1.2245 J-2.5639
X0.4812 Y0.2965 I-0.9938 J-3.9369
X-0.194 Y0.3193 I-0.4892 J-4.4863
X-0.454 Y0.3003 I0.1707 J-4.1367
G2 X-0.7362 Y0.4451 I-0.0302 J0.2886
G3 X-1.0266 Y0.5725 I-0.231 J-0.1318
X-1.091 Y0.5572 I0.9553 J-4.1618
X-1.4089 Y0.4624 I0.8174 J-3.3238
X-1.6527 Y0.3647 I1.0061 J-2.8617
X-1.8846 Y0.2411 I0.8334 J-1.8429
X-2.0329 Y0.1376 I0.8739 J-1.4104
X-2.1617 Y0.0108 I0.4903 J-0.6269
X-2.1619 Y-0.0102 I0.0131 J-0.0106
X-2.081 Y-0.0965 I0.4843 J0.3732
X-1.9888 Y-0.1708 I0.9289 J1.0584
X-1.7905 Y-0.296 I0.9547 J1.2923
X-1.5789 Y-0.3969 I1.2228 J2.2914
X-1.1144 Y-0.5518 I1.2232 J2.8939
X-0.6333 Y-0.6436 I1.0704 J4.302
X0.8314 Y-0.6125 I0.6326 J4.7158
X1.1503 Y-0.5419 I-0.7421 J4.1079
X1.4617 Y-0.4434 I-0.8376 J3.1873
X1.6961 Y-0.3442 I-1.0123 J2.7212
X1.9182 Y-0.2197 I-0.8137 J1.7113
X2.0197 Y-0.1474 I-0.8409 J1.2882
X2.1128 Y-0.0645 I-0.5608 J0.7236
X2.1377 Y-0.0388 I-2.2519 J2.2065
X2.1609 Y-0.0115 I-0.218 J0.2088
X2.1612 Y0.0115 I-0.0155 J0.0117
X2.1429 Y0.0333 I-0.1491 J-0.1068
G2 X2.1231 Y0.0538 I0.8976 J0.8828
G3 X1.9934 Y0.168 I-0.6677 J-0.6276
X1.8489 Y0.2626 I-1.0596 J-1.4608
X1.6075 Y0.3849 I-1.091 J-1.8544
X1.3546 Y0.481 I-1.2492 J-2.9064
X0.852 Y0.6092 I-1.1596 J-3.4948
X0.3373 Y0.6737 I-0.8438 J-4.6531
X-0.7661 Y0.6238 I-0.3355 J-4.8093
X-1.0266 Y0.5725 I0.6948 J-4.2131
G2 X-1.4057 Y0.7099 I-0.0831 J0.3622
G3 X-1.796 Y0.8114 I-0.2596 J-0.1971
X-1.9896 Y0.7186 I1.2565 J-2.8702
X-2.2406 Y0.5646 I0.9879 J-1.8922
X-2.4022 Y0.4345 I1.0312 J-1.4467
X-2.5412 Y0.2804 I0.6898 J-0.7614
X-2.621 Y0.1421 I0.5935 J-0.4349
X-2.6503 Y-0.0148 I0.3196 J-0.1408
X-2.6315 Y-0.1126 I0.3484 J0.0161
X-2.5908 Y-0.2035 I0.5349 J0.1849
X-2.4868 Y-0.3483 I0.6841 J0.3817
X-2.3589 Y-0.4725 I1.048 J0.9512
X-2.1415 Y-0.6311 I1.1319 J1.323
X-1.9057 Y-0.7609 I1.4121 J2.2878
X-1.59 Y-0.8934 I1.352 J2.7786
X-1.263 Y-0.9946 I1.3695 J3.8471
X-0.681 Y-1.1083 I1.1626 J4.4034
X-0.0896 Y-1.1511 I0.6809 J5.2971
X0.521 Y-1.1263 I0.0893 J5.3248
X1.0806 Y-1.039 I-0.4997 J5.0412
X1.6243 Y-0.8806 I-0.8147 J3.8102
X1.9063 Y-0.7608 I-1.1699 J3.1449
X2.1733 Y-0.6105 I-1.0141 J2.1129
X2.352 Y-0.4789 I-1.0778 J1.6512
X2.5089 Y-0.3218 I-0.7449 J0.9008
X2.6226 Y-0.1353 I-0.5944 J0.4902
X2.6402 Y0.0825 I-0.3149 J0.135
X2.5931 Y0.2 I-0.4494 J-0.1118
X2.5224 Y0.305 I-0.7386 J-0.421
X2.3728 Y0.461 I-0.8726 J-0.6872
X2.2009 Y0.5921 I-1.2317 J-1.4365
X1.9402 Y0.744 I-1.2653 J-1.8717
X1.6641 Y0.8656 I-1.4527 J-2.9259
X1.1259 Y1.0289 I-1.3727 J-3.5557
X0.5712 Y1.1211 I-1.0987 J-4.8962
X-0.6458 Y1.1124 I-0.5711 J-5.2374
X-1.193 Y1.013 I0.6082 J-4.9038
X-1.7224 Y0.8425 I0.8613 J-3.5813
X-1.796 Y0.8114 I1.1829 J-2.9013
G2 X-2.1934 Y0.8741 I-0.1497 J0.342
G3 X-2.5955 Y0.8887 I-0.2099 J-0.2367
G1 X-2.638 Y0.8562
X-2.7471 Y0.7594
X-2.8422 Y0.6605
X-2.9231 Y0.5603
X-2.9899 Y0.4596
X-3.0427 Y0.359
X-3.0821 Y0.259
X-3.1084 Y0.1599
X-3.1221 Y0.0614
X-3.1237 Y-0.0368
X-3.113 Y-0.1351
X-3.0899 Y-0.2341
X-3.0538 Y-0.3339
X-3.0044 Y-0.4343
X-2.9412 Y-0.5351
X-2.8638 Y-0.6355
X-2.7722 Y-0.7348
X-2.6666 Y-0.8322
X-2.5473 Y-0.9268
X-2.4148 Y-1.0179
X-2.2697 Y-1.1046
X-2.1127 Y-1.1863
X-1.9448 Y-1.2625
X-1.7666 Y-1.3324
X-1.5793 Y-1.3958
X-1.3837 Y-1.452
X-1.181 Y-1.5008
X-0.9721 Y-1.5418
X-0.7582 Y-1.5749
X-0.5404 Y-1.5997
X-0.3198 Y-1.6162
X-0.0976 Y-1.6241
X0.1252 Y-1.6236
X0.3473 Y-1.6146
X0.5677 Y-1.5971
X0.7851 Y-1.5712
X0.9984 Y-1.5372
X1.2065 Y-1.4952
X1.4085 Y-1.4454
X1.603 Y-1.3883
X1.7893 Y-1.3241
X1.9662 Y-1.2533
X2.1329 Y-1.1765
X2.2884 Y-1.0941
X2.4319 Y-1.0068
X2.5628 Y-0.9152
X2.6805 Y-0.8202
X2.7843 Y-0.7226
X2.8742 Y-0.6231
X2.9498 Y-0.5226
X3.0113 Y-0.4218
X3.059 Y-0.3214
X3.0934 Y-0.2218
X3.115 Y-0.1229
X3.1247 Y-0.0188
X3.1249 Y-0.0058
X3.1184 Y0.0982
X3.1 Y0.1969
X3.0689 Y0.2964
X3.0245 Y0.3966
X2.9665 Y0.4973
X2.8944 Y0.598
X2.8082 Y0.6978
X2.7078 Y0.796
X2.5936 Y0.8917
X2.4659 Y0.9842
X2.3255 Y1.0726
X2.1729 Y1.1563
X2.0089 Y1.2346
X1.8345 Y1.307
X1.6505 Y1.3728
X1.4579 Y1.4318
X1.2578 Y1.4834
X1.0511 Y1.5274
X0.8389 Y1.5635
X0.6224 Y1.5914
X0.4027 Y1.611
X0.181 Y1.6221
X-0.0417 Y1.6248
X-0.2642 Y1.6189
X-0.4854 Y1.6046
X-0.704 Y1.5819
X-0.919 Y1.5509
X-1.1292 Y1.5118
X-1.3336 Y1.4649
X-1.531 Y1.4105
X-1.7205 Y1.3489
X-1.9011 Y1.2806
X-2.0717 Y1.206
X-2.2314 Y1.1256
X-2.3796 Y1.04
X-2.5153 Y0.95
X-2.5955 Y0.8887
G3 X-2.6035 Y0.881 Z-0.7887 I0.0304 J-0.0397
X-2.6094 Y0.8722 Z-0.785 I0.0384 J-0.032
X-2.613 Y0.8635 Z-0.7791 I0.0443 J-0.0233
X-2.6146 Y0.8558 Z-0.7712 I0.0478 J-0.0145
X-2.6151 Y0.8498 Z-0.7617 I0.0495 J-0.0068
X-2.615 Y0.8461 Z-0.7511 I0.05 J-0.0009
X-2.6149 Y0.8449 Z-0.74 I0.0499 J0.0028
G0 Z0.6
M9
G28 G91 Z0
G28 X0 Y0
M30
%
