(HAZZY SPLASH G-CODE)
(GENERATED BY F-ENGRAVE)
(DATE: 04/07/17)

(MSG, ENGRAVING HAZZY)
G90
G20
G17 G64 P0.001 M3 S3000
F50.00
G0 Z0.2500
X0.5035 Y0.9027
G1 Z-0.0050
X0.5035 Y0.9027
X0.5249 Y0.9340
X0.5692 Y0.9897
X0.6156 Y1.0366
X0.6395 Y1.0568
X0.6640 Y1.0747
X0.6890 Y1.0904
X0.7147 Y1.1041
X0.7681 Y1.1260
X0.8244 Y1.1405
X0.8836 Y1.1478
X0.9334 Y1.1484
X0.9864 Y1.1435
X1.0327 Y1.1328
X1.0724 Y1.1170
X1.1062 Y1.0966
X1.1342 Y1.0716
X1.1565 Y1.0421
X1.1685 Y1.0199
X1.1782 Y0.9958
X1.1885 Y0.9568
X1.1931 Y0.9293
X1.1967 Y0.8704
X1.1925 Y0.7954
X1.1800 Y0.7151
X1.0414 Y0.0000
X0.7495
X0.8791 Y0.6659
X0.8889 Y0.7347
X0.8913 Y0.7808
X0.8882 Y0.8224
X0.8814 Y0.8508
X0.8706 Y0.8750
X0.8559 Y0.8949
X0.8358 Y0.9106
X0.8097 Y0.9214
X0.7775 Y0.9274
X0.7495 Y0.9288
X0.7104 Y0.9254
X0.6727 Y0.9153
X0.6365 Y0.8988
X0.6025 Y0.8767
X0.5709 Y0.8487
X0.5421 Y0.8156
X0.5246 Y0.7909
X0.5083 Y0.7640
X0.4931 Y0.7349
X0.4798 Y0.7044
X0.4683 Y0.6724
X0.4585 Y0.6387
X0.4503 Y0.6036
X0.3325 Y0.0000
X0.0396
X0.3398 Y1.5470
X0.6328
X0.5482 Y1.1080
X0.5259 Y1.0087
X0.4993 Y0.9027
X0.5035
G0 Z0.2500
X1.9131 Y-0.0208
G1 Z-0.0050
X1.9131 Y-0.0208
X1.8630 Y-0.0186
X1.8173 Y-0.0118
X1.7761 Y-0.0004
X1.7394 Y0.0155
X1.7071 Y0.0360
X1.6882 Y0.0521
X1.6645 Y0.0797
X1.6460 Y0.1115
X1.6328 Y0.1474
X1.6249 Y0.1873
X1.6223 Y0.2314
X1.6246 Y0.2736
X1.6317 Y0.3190
X1.6432 Y0.3670
X1.6580 Y0.4110
X1.6760 Y0.4509
X1.6973 Y0.4868
X1.7220 Y0.5195
X1.7492 Y0.5488
X1.7788 Y0.5748
X1.8110 Y0.5973
X1.8454 Y0.6172
X1.8818 Y0.6341
X1.9204 Y0.6479
X1.9611 Y0.6588
X2.0034 Y0.6675
X2.0468 Y0.6739
X2.0914 Y0.6780
X2.3707 Y0.6838
X2.3856 Y0.7654
X2.3898 Y0.7988
X2.3916 Y0.8287
X2.3904 Y0.8542
X2.3852 Y0.8835
X2.3786 Y0.9019
X2.3661 Y0.9219
X2.3498 Y0.9367
X2.3306 Y0.9476
X2.3085 Y0.9549
X2.2833 Y0.9586
X2.2537
X2.2235 Y0.9549
X2.1954 Y0.9474
X2.1693 Y0.9343
X2.1458 Y0.9160
X2.1300 Y0.8982
X2.1107 Y0.8689
X2.0935 Y0.8324
X2.0820 Y0.7995
X1.7797 Y0.8141
X1.7938 Y0.8503
X1.8102 Y0.8848
X1.8287 Y0.9175
X1.8608 Y0.9637
X1.8854 Y0.9924
X1.9275 Y1.0315
X1.9590 Y1.0549
X1.9933 Y1.0760
X2.0304 Y1.0946
X2.0704 Y1.1104
X2.1361 Y1.1296
X2.2094 Y1.1425
X2.2624 Y1.1472
X2.3186 Y1.1488
X2.3832 Y1.1461
X2.4228 Y1.1413
X2.4771 Y1.1297
X2.5098 Y1.1190
X2.5539 Y1.0985
X2.5798 Y1.0819
X2.6031 Y1.0630
X2.6236 Y1.0420
X2.6412 Y1.0187
X2.6559 Y0.9932
X2.6676 Y0.9655
X2.6764 Y0.9355
X2.6823 Y0.9032
X2.6856 Y0.8506
X2.6827 Y0.7995
X2.6791 Y0.7717
X2.5924 Y0.3207
X2.5852 Y0.2739
X2.5834 Y0.2450
X2.5856 Y0.2187
X2.5908 Y0.2008
X2.6012 Y0.1842
X2.6148 Y0.1745
X2.6328 Y0.1687
X2.6553 Y0.1668
X2.6884 Y0.1684
X2.7210 Y0.1730
X2.6908 Y0.0146
X2.6308 Y0.0007
X2.5980 Y-0.0052
X2.5532 Y-0.0104
X2.5131 Y-0.0124
X2.4740 Y-0.0118
X2.4414 Y-0.0083
X2.4127 Y-0.0018
X2.3879 Y0.0077
X2.3669 Y0.0202
X2.3498 Y0.0359
X2.3360 Y0.0547
X2.3252 Y0.0763
X2.3175 Y0.1008
X2.3129 Y0.1282
X2.3113 Y0.1793
X2.3134 Y0.2012
X2.3072
X2.2872 Y0.1758
X2.2460 Y0.1289
X2.2248 Y0.1074
X2.1815 Y0.0696
X2.1352 Y0.0375
X2.0854 Y0.0128
X2.0591 Y0.0029
X2.0042 Y-0.0121
X1.9751 Y-0.0169
X1.9448 Y-0.0199
X1.9131 Y-0.0208
G0 Z0.2500
X2.3384 Y0.5223
G1 Z-0.0050
X2.3384 Y0.5223
X2.1756 Y0.5193
X2.1313 Y0.5157
X2.0998 Y0.5114
X2.0703 Y0.5043
X2.0517 Y0.4974
X2.0258 Y0.4842
X2.0103 Y0.4731
X1.9893 Y0.4523
X1.9712 Y0.4267
X1.9566 Y0.3951
X1.9454 Y0.3564
X1.9376 Y0.3122
X1.9364 Y0.2733
X1.9408 Y0.2458
X1.9458 Y0.2318
X1.9526 Y0.2195
X1.9643 Y0.2059
X1.9834 Y0.1934
X2.0073 Y0.1860
X2.0361 Y0.1835
X2.0772 Y0.1868
X2.1032 Y0.1928
X2.1283 Y0.2018
X2.1642 Y0.2203
X2.1865 Y0.2351
X2.2074 Y0.2516
X2.2269 Y0.2700
X2.2454 Y0.2905
X2.2623 Y0.3125
X2.2777 Y0.3359
X2.3036 Y0.3864
X2.3137 Y0.4123
X2.3280 Y0.4649
X2.3384 Y0.5223
G0 Z0.2500
X3.1278 Y0.0000
G1 Z-0.0050
X3.1278 Y0.0000
X3.1685 Y0.2074
X3.9003 Y0.9163
X3.3488
X3.3895 Y1.1279
X4.2745
X4.2338 Y0.9184
X3.5062 Y0.2137
X4.1484
X4.1067 Y0.0000
X3.1278
G0 Z0.2500
X4.6813 Y0.0000
G1 Z-0.0050
X4.6813
X4.7220 Y0.2074
X5.4537 Y0.9163
X4.9023
X4.9429 Y1.1279
X5.8280
X5.7873 Y0.9184
X5.0597 Y0.2137
X5.7018
X5.6601 Y0.0000
X4.6813
G0 Z0.2500
X6.8529 Y-0.0594
G1 Z-0.0050
X6.8529 Y-0.0594
X6.7951 Y-0.1517
X6.7665 Y-0.1927
X6.7103 Y-0.2652
X6.6817 Y-0.2968
X6.6525 Y-0.3252
X6.6226 Y-0.3503
X6.5923 Y-0.3722
X6.5608 Y-0.3912
X6.5282 Y-0.4071
X6.4772 Y-0.4255
X6.4413 Y-0.4341
X6.4035 Y-0.4398
X6.3432 Y-0.4430
X6.2720 Y-0.4413
X6.1996 Y-0.4357
X6.1566 Y-0.4295
X6.1973 Y-0.2210
X6.2556 Y-0.2271
X6.2900 Y-0.2291
X6.3421 Y-0.2270
X6.3609 Y-0.2241
X6.3874 Y-0.2174
X6.4046 Y-0.2112
X6.4295 Y-0.1988
X6.4534 Y-0.1830
X6.4693 Y-0.1702
X6.4849 Y-0.1556
X6.5157 Y-0.1209
X6.5315 Y-0.1003
X6.5634 Y-0.0521
X6.5996 Y0.0115
X6.3494 Y1.1279
X6.6590
X6.7525 Y0.5678
X6.7716 Y0.4045
X6.7883 Y0.2304
X6.8998 Y0.4722
X6.9488 Y0.5744
X7.2439 Y1.1279
X7.5503
X6.8529 Y-0.0594
G0 Z0.2500
M5
M2
